; generated by Slic3r 1.3.0-dev on 2018-05-27 at 20:51:04

; external perimeters extrusion width = 0.42mm (3.02mm^3/s)
; perimeters extrusion width = 0.42mm (4.52mm^3/s)
; infill extrusion width = 0.42mm (4.52mm^3/s)
; solid infill extrusion width = 0.42mm (4.52mm^3/s)
; top infill extrusion width = 0.42mm (3.77mm^3/s)
; support material extrusion width = 0.31mm (3.20mm^3/s)

M107
M190 S100 ; set bed temperature and wait for it to be reached
M104 S210 ; set temperature
G28 ; home all axes
G1 Z5 F5000 ; lift nozzle

; Filament gcode

M109 S210 ; set temperature and wait for it to be reached
G21 ; set units to millimeters
G90 ; use absolute coordinates
M82 ; use absolute distances for extrusion
G92 E0
G1 Z5.100 F4500.000
G1 E-1.00000 F2400.00000
G92 E0
G1 X68.638 Y85.196 F4500.000
G1 E1.00000 F2400.00000
G1 F2700
G1 X71.561 Y84.463 E1.04993
G1 X121.561 Y84.463 E1.87840
G1 X123.743 Y84.859 E1.91514
G1 X125.645 Y85.999 E1.95188
G1 X127.024 Y87.735 E1.98862
G1 X127.757 Y90.658 E2.03855
G1 X127.757 Y155.658 E3.11556
G1 X127.360 Y157.840 E3.15230
G1 X126.221 Y159.742 E3.18904
G1 X124.484 Y161.121 E3.22578
G1 X121.561 Y161.854 E3.27571
G1 X71.561 Y161.854 E4.10418
G1 X69.380 Y161.457 E4.14092
G1 X67.478 Y160.318 E4.17766
G1 X66.098 Y158.581 E4.21440
G1 X65.366 Y155.658 E4.26433
G1 X65.366 Y90.658 E5.34134
G1 X65.762 Y88.477 E5.37808
G1 X66.902 Y86.575 E5.41482
G1 X68.615 Y85.214 E5.45106
G1 X69.015 Y85.450 F4500.000
G1 F2700
G1 X71.561 Y84.861 E5.49436
G1 X121.561 Y84.861 E6.32283
G1 X123.668 Y85.258 E6.35836
G1 X125.487 Y86.393 E6.39389
G1 X126.769 Y88.112 E6.42942
G1 X127.358 Y90.658 E6.47272
G1 X127.358 Y155.658 E7.54973
G1 X126.962 Y157.766 E7.58526
G1 X125.826 Y159.585 E7.62079
G1 X124.107 Y160.866 E7.65631
G1 X121.561 Y161.455 E7.69962
G1 X71.561 Y161.455 E8.52809
G1 X69.454 Y161.059 E8.56361
G1 X67.635 Y159.923 E8.59914
G1 X66.353 Y158.205 E8.63467
G1 X65.764 Y155.658 E8.67797
G1 X65.764 Y90.658 E9.75498
G1 X66.161 Y88.551 E9.79051
G1 X67.296 Y86.732 E9.82604
G1 X68.991 Y85.468 E9.86107
G1 X69.389 Y85.716 F4500.000
G1 F2700
G1 X71.561 Y85.260 E9.89785
G1 X121.561 Y85.260 E10.72632
G1 X123.591 Y85.656 E10.76059
G1 X125.324 Y86.787 E10.79487
G1 X126.503 Y88.486 E10.82914
G1 X126.960 Y90.658 E10.86593
G1 X126.960 Y155.658 E11.94293
G1 X126.563 Y157.689 E11.97721
G1 X125.433 Y159.421 E12.01148
G1 X123.734 Y160.600 E12.04576
G1 X121.561 Y161.057 E12.08254
G1 X71.561 Y161.057 E12.91101
G1 X69.531 Y160.661 E12.94528
G1 X67.799 Y159.530 E12.97955
G1 X66.619 Y157.831 E13.01383
G1 X66.163 Y155.658 E13.05061
G1 X66.163 Y90.658 E14.12762
G1 X66.559 Y88.628 E14.16189
G1 X67.690 Y86.896 E14.19617
G1 X69.364 Y85.733 E14.22994
G1 E13.22994 F2400.00000
G92 E0
G1 X121.351 Y155.448 F4500.000
G1 E1.00000 F2400.00000
G1 F1800
G1 X71.771 Y155.448 E1.82151
G1 X71.771 Y90.868 E2.89156
G1 X121.351 Y90.868 E3.71307
G1 X121.351 Y155.418 E4.78262
G1 X121.160 Y155.388 F4500.000
G1 X120.953 Y155.050 F4500.000
G1 F2700
G1 X72.170 Y155.050 E5.59092
G1 X72.170 Y91.267 E6.64776
G1 X120.953 Y91.267 E7.45607
G1 X120.953 Y155.020 E8.51241
G1 X120.554 Y154.651 F4500.000
G1 F2700
G1 X72.568 Y154.651 E9.30751
G1 X72.568 Y91.665 E10.35114
G1 X120.554 Y91.665 E11.14623
G1 X120.554 Y154.621 E12.18937
G1 X120.156 Y154.253 F4500.000
G1 F2700
G1 X72.967 Y154.253 E12.97126
G1 X72.967 Y92.064 E14.00169
G1 X120.156 Y92.064 E14.78358
G1 X120.156 Y154.223 E15.81351
G1 X119.757 Y153.854 F4500.000
G1 F2700
G1 X73.365 Y153.854 E16.58219
G1 X73.365 Y92.462 E17.59941
G1 X119.757 Y92.462 E18.36809
G1 X119.757 Y153.824 E19.38481
G1 X119.358 Y153.456 F4500.000
G1 F2700
G1 X73.764 Y153.456 E20.14029
G1 X73.764 Y92.861 E21.14430
G1 X119.358 Y92.861 E21.89977
G1 X119.358 Y153.426 E22.90329
G1 E21.90329 F2400.00000
G92 E0
G1 X110.471 Y115.768 F4500.000
G1 E1.00000 F2400.00000
G1 F1800
G1 X105.351 Y115.768 E1.08484
G1 X105.351 Y101.948 E1.31382
G1 X110.471 Y101.948 E1.39866
G1 X110.471 Y115.738 E1.62715
G1 X110.495 Y115.967 F4500.000
G1 X110.870 Y116.167 F4500.000
G1 F2700
G1 X104.953 Y116.167 E1.72519
G1 X104.953 Y101.550 E1.96739
G1 X110.870 Y101.550 E2.06543
G1 X110.870 Y116.137 E2.30713
G1 X111.268 Y116.565 F4500.000
G1 F2700
G1 X104.554 Y116.565 E2.41838
G1 X104.554 Y101.151 E2.67378
G1 X111.268 Y101.151 E2.78503
G1 X111.268 Y116.535 E3.03994
G1 X111.667 Y116.964 F4500.000
G1 F2700
G1 X104.156 Y116.964 E3.16439
G1 X104.156 Y100.753 E3.43300
G1 X111.667 Y100.753 E3.55746
G1 X111.667 Y116.934 E3.82557
G1 X112.065 Y117.362 F4500.000
G1 F2700
G1 X103.757 Y117.362 E3.96323
G1 X103.757 Y100.354 E4.24505
G1 X112.065 Y100.354 E4.38271
G1 X112.065 Y117.332 E4.66403
G1 X112.464 Y117.761 F4500.000
G1 F2700
G1 X103.358 Y117.761 E4.81491
G1 X103.358 Y99.956 E5.10993
G1 X112.464 Y99.956 E5.26080
G1 X112.464 Y117.731 E5.55533
G1 E4.55533 F2400.00000
G92 E0
G1 X110.471 Y130.548 F4500.000
G1 E1.00000 F2400.00000
G1 F1800
G1 X110.471 Y144.368 E1.22899
G1 X105.351 Y144.368 E1.31382
G1 X105.351 Y130.548 E1.54281
G1 X110.441 Y130.548 E1.62715
G1 X110.655 Y130.469 F4500.000
G1 X110.870 Y130.150 F4500.000
G1 F2700
G1 X110.870 Y144.767 E1.86935
G1 X104.953 Y144.767 E1.96739
G1 X104.953 Y130.150 E2.20958
G1 X110.840 Y130.150 E2.30713
G1 X111.268 Y129.751 F4500.000
G1 F2700
G1 X111.268 Y145.165 E2.56253
G1 X104.554 Y145.165 E2.67378
G1 X104.554 Y129.751 E2.92918
G1 X111.238 Y129.751 E3.03993
G1 X111.667 Y129.353 F4500.000
G1 F2700
G1 X111.667 Y145.564 E3.30854
G1 X104.156 Y145.564 E3.43300
G1 X104.156 Y129.353 E3.70161
G1 X111.637 Y129.353 E3.82557
G1 X112.065 Y128.954 F4500.000
G1 F2700
G1 X112.065 Y145.962 E4.10739
G1 X103.757 Y145.962 E4.24505
G1 X103.757 Y128.954 E4.52687
G1 X112.035 Y128.954 E4.66403
G1 X112.464 Y128.556 F4500.000
G1 F2700
G1 X112.464 Y146.361 E4.95906
G1 X103.358 Y146.361 E5.10993
G1 X103.358 Y128.556 E5.40495
G1 X112.434 Y128.556 E5.55532
G1 E4.55532 F2400.00000
G92 E0
G1 X103.002 Y128.308 F4500.000
G1 E1.00000 F2400.00000
G1 F2700
G1 X78.210 Y153.099 E1.58275
G1 X78.776 Y153.099 E1.59215
G1 X103.002 Y128.873 E2.16160
G1 X103.002 Y129.438 E2.17100
G1 X79.341 Y153.099 E2.72717
G1 X79.906 Y153.099 E2.73657
G1 X103.002 Y130.004 E3.27945
G1 X103.002 Y130.569 E3.28884
G1 X80.472 Y153.099 E3.81843
G1 X81.037 Y153.099 E3.82783
G1 X103.002 Y131.134 E4.34413
G1 X103.002 Y131.700 E4.35353
G1 X81.603 Y153.099 E4.85654
G1 X82.168 Y153.099 E4.86594
G1 X103.002 Y132.265 E5.35566
G1 X103.002 Y132.831 E5.36506
G1 X82.733 Y153.099 E5.84149
G1 X83.299 Y153.099 E5.85089
G1 X103.002 Y133.396 E6.31403
G1 X103.002 Y133.961 E6.32342
G1 X83.864 Y153.099 E6.77328
G1 X84.430 Y153.099 E6.78267
G1 X103.002 Y134.527 E7.21924
G1 X103.002 Y135.092 E7.22863
G1 X84.995 Y153.099 E7.65191
G1 X85.560 Y153.099 E7.66131
G1 X103.002 Y135.657 E8.07129
G1 X103.002 Y136.223 E8.08069
G1 X86.126 Y153.099 E8.47738
G1 X86.691 Y153.099 E8.48678
G1 X103.002 Y136.788 E8.87018
G1 X103.002 Y137.354 E8.87958
G1 X87.256 Y153.099 E9.24970
G1 X87.822 Y153.099 E9.25909
G1 X103.002 Y137.919 E9.61592
G1 X103.002 Y138.484 E9.62532
G1 X88.387 Y153.099 E9.96885
G1 X88.953 Y153.099 E9.97825
G1 X103.002 Y139.050 E10.30850
G1 X103.002 Y139.615 E10.31789
G1 X89.518 Y153.099 E10.63485
G1 X90.083 Y153.099 E10.64425
G1 X103.002 Y140.180 E10.94792
G1 X103.002 Y140.746 E10.95731
G1 X90.649 Y153.099 E11.24769
G1 X91.214 Y153.099 E11.25709
G1 X103.002 Y141.311 E11.53418
G1 X103.002 Y141.877 E11.54357
G1 X91.779 Y153.099 E11.80737
G1 X92.345 Y153.099 E11.81677
G1 X103.002 Y142.442 E12.06728
G1 X103.002 Y143.007 E12.07668
G1 X92.910 Y153.099 E12.31390
G1 X93.476 Y153.099 E12.32329
G1 X103.002 Y143.573 E12.54722
G1 X103.002 Y144.138 E12.55662
G1 X94.041 Y153.099 E12.76726
G1 X94.606 Y153.099 E12.77666
G1 X103.002 Y144.703 E12.97401
G1 X103.002 Y145.269 E12.98341
G1 X95.172 Y153.099 E13.16747
G1 X95.737 Y153.099 E13.17687
G1 X103.002 Y145.834 E13.34764
G1 X103.002 Y146.400 E13.35703
G1 X96.302 Y153.099 E13.51452
G1 X96.868 Y153.099 E13.52391
G1 X103.250 Y146.717 E13.67393
G1 X103.815 Y146.717 E13.68333
G1 X97.433 Y153.099 E13.83334
G1 X97.999 Y153.099 E13.84274
G1 X104.381 Y146.717 E13.99276
G1 X104.946 Y146.717 E14.00215
G1 X98.564 Y153.099 E14.15217
G1 X99.129 Y153.099 E14.16157
G1 X105.511 Y146.717 E14.31158
G1 X106.077 Y146.717 E14.32098
G1 X99.695 Y153.099 E14.47099
G1 X100.260 Y153.099 E14.48039
G1 X106.642 Y146.717 E14.63041
G1 X107.208 Y146.717 E14.63980
G1 X100.825 Y153.099 E14.78982
G1 X101.391 Y153.099 E14.79922
G1 X107.773 Y146.717 E14.94923
G1 X108.338 Y146.717 E14.95863
G1 X101.956 Y153.099 E15.10865
G1 X102.522 Y153.099 E15.11804
G1 X108.904 Y146.717 E15.26806
G1 X109.469 Y146.717 E15.27746
G1 X103.087 Y153.099 E15.42747
G1 X103.652 Y153.099 E15.43687
G1 X110.034 Y146.717 E15.58689
G1 X110.600 Y146.717 E15.59628
G1 X104.218 Y153.099 E15.74630
G1 X104.783 Y153.099 E15.75570
G1 X111.165 Y146.717 E15.90571
G1 X111.731 Y146.717 E15.91511
G1 X105.348 Y153.099 E16.06512
G1 X105.914 Y153.099 E16.07452
G1 X112.296 Y146.717 E16.22454
G1 X112.861 Y146.717 E16.23393
G1 X106.479 Y153.099 E16.38395
G1 X107.045 Y153.099 E16.39335
G1 X119.002 Y141.142 E16.67442
G1 X119.002 Y141.707 E16.68382
G1 X107.610 Y153.099 E16.95160
G1 X108.175 Y153.099 E16.96100
G1 X119.002 Y142.273 E17.21549
G1 X119.002 Y142.838 E17.22488
G1 X108.741 Y153.099 E17.46609
G1 X109.306 Y153.099 E17.47548
G1 X119.002 Y143.403 E17.70340
G1 X119.002 Y143.969 E17.71279
G1 X109.871 Y153.099 E17.92742
G1 X110.437 Y153.099 E17.93681
G1 X119.002 Y144.534 E18.13815
G1 X119.002 Y145.099 E18.14755
G1 X111.002 Y153.099 E18.33559
G1 X111.568 Y153.099 E18.34499
G1 X119.002 Y145.665 E18.51974
G1 X119.002 Y146.230 E18.52914
G1 X112.133 Y153.099 E18.69060
G1 X112.698 Y153.099 E18.70000
G1 X119.002 Y146.796 E18.84818
G1 X119.002 Y147.361 E18.85757
G1 X113.264 Y153.099 E18.99246
G1 X113.829 Y153.099 E19.00186
G1 X119.002 Y147.926 E19.12345
G1 X119.002 Y148.492 E19.13285
G1 X114.395 Y153.099 E19.24116
G1 X114.960 Y153.099 E19.25056
G1 X119.002 Y149.057 E19.34557
G1 X119.002 Y149.622 E19.35497
G1 X115.525 Y153.099 E19.43670
G1 X116.091 Y153.099 E19.44610
G1 X119.002 Y150.188 E19.51453
G1 X119.002 Y150.753 E19.52393
G1 X116.656 Y153.099 E19.57908
G1 X117.221 Y153.099 E19.58848
G1 X119.002 Y151.319 E19.63034
G1 X119.002 Y151.884 E19.63973
G1 X117.787 Y153.099 E19.66830
G1 X118.352 Y153.099 E19.67770
G1 X119.002 Y152.449 E19.69298
G1 X119.002 Y153.015 E19.70238
G1 X118.918 Y153.099 E19.70437
G1 E18.70437 F2400.00000
G92 E0
G1 X112.820 Y146.759 F4500.000
G1 E1.00000 F2400.00000
G1 F2700
G1 X119.002 Y140.576 E1.14531
G1 X119.002 Y140.011 E1.15471
G1 X112.820 Y146.193 E1.30003
G1 X112.820 Y145.628 E1.30942
G1 X119.002 Y139.446 E1.45474
G1 X119.002 Y138.880 E1.46414
G1 X112.820 Y145.062 E1.60945
G1 X112.820 Y144.497 E1.61885
G1 X119.002 Y138.315 E1.76416
G1 X119.002 Y137.750 E1.77356
G1 X112.820 Y143.932 E1.91887
G1 X112.820 Y143.366 E1.92827
G1 X119.002 Y137.184 E2.07358
G1 X119.002 Y136.619 E2.08298
G1 X112.820 Y142.801 E2.22830
G1 X112.820 Y142.236 E2.23769
G1 X119.002 Y136.053 E2.38301
G1 X119.002 Y135.488 E2.39241
G1 X112.820 Y141.670 E2.53772
G1 X112.820 Y141.105 E2.54712
G1 X119.002 Y134.923 E2.69243
G1 X119.002 Y134.357 E2.70183
G1 X112.820 Y140.539 E2.84714
G1 X112.820 Y139.974 E2.85654
G1 X119.002 Y133.792 E3.00186
G1 X119.002 Y133.227 E3.01125
G1 X112.820 Y139.409 E3.15657
G1 X112.820 Y138.843 E3.16596
G1 X119.002 Y132.661 E3.31128
G1 X119.002 Y132.096 E3.32068
G1 X112.820 Y138.278 E3.46599
G1 X112.820 Y137.712 E3.47539
G1 X119.002 Y131.530 E3.62070
G1 X119.002 Y130.965 E3.63010
G1 X112.820 Y137.147 E3.77541
G1 X112.820 Y136.582 E3.78481
G1 X119.002 Y130.400 E3.93013
G1 X119.002 Y129.834 E3.93952
G1 X112.820 Y136.016 E4.08484
G1 X112.820 Y135.451 E4.09423
G1 X119.002 Y129.269 E4.23955
G1 X119.002 Y128.704 E4.24895
G1 X112.820 Y134.886 E4.39426
G1 X112.820 Y134.320 E4.40366
G1 X119.002 Y128.138 E4.54897
G1 X119.002 Y127.573 E4.55837
G1 X112.820 Y133.755 E4.70368
G1 X112.820 Y133.189 E4.71308
G1 X119.002 Y127.007 E4.85840
G1 X119.002 Y126.442 E4.86779
G1 X112.820 Y132.624 E5.01311
G1 X112.820 Y132.059 E5.02250
G1 X119.002 Y125.877 E5.16782
G1 X119.002 Y125.311 E5.17722
G1 X112.820 Y131.493 E5.32253
G1 X112.820 Y130.928 E5.33193
G1 X119.002 Y124.746 E5.47724
G1 X119.002 Y124.180 E5.48664
G1 X112.820 Y130.363 E5.63195
G1 X112.820 Y129.797 E5.64135
G1 X119.002 Y123.615 E5.78667
G1 X119.002 Y123.050 E5.79606
G1 X112.820 Y129.232 E5.94138
G1 X112.820 Y128.666 E5.95078
G1 X119.002 Y122.484 E6.09609
G1 X119.002 Y121.919 E6.10549
G1 X112.722 Y128.199 E6.25311
G1 X112.156 Y128.199 E6.26251
G1 X119.002 Y121.354 E6.42342
G1 X119.002 Y120.788 E6.43282
G1 X111.591 Y128.199 E6.60703
G1 X111.026 Y128.199 E6.61642
G1 X119.002 Y120.223 E6.80392
G1 X119.002 Y119.657 E6.81332
G1 X110.460 Y128.199 E7.01410
G1 X109.895 Y128.199 E7.02350
G1 X119.002 Y119.092 E7.23757
G1 X119.002 Y118.527 E7.24697
G1 X109.330 Y128.199 E7.47433
G1 X108.764 Y128.199 E7.48373
G1 X119.002 Y117.961 E7.72438
G1 X119.002 Y117.396 E7.73378
G1 X108.199 Y128.199 E7.98772
G1 X107.633 Y128.199 E7.99712
G1 X119.002 Y116.831 E8.26435
G1 X119.002 Y116.265 E8.27374
G1 X107.068 Y128.199 E8.55427
G1 X106.503 Y128.199 E8.56366
G1 X119.002 Y115.700 E8.85747
G1 X119.002 Y115.134 E8.86687
G1 X105.937 Y128.199 E9.17397
G1 X105.372 Y128.199 E9.18337
G1 X119.002 Y114.569 E9.50376
G1 X119.002 Y114.004 E9.51315
G1 X104.806 Y128.199 E9.84683
G1 X104.241 Y128.199 E9.85623
G1 X119.002 Y113.438 E10.20320
G1 X119.002 Y112.873 E10.21260
G1 X103.676 Y128.199 E10.57286
G1 X103.110 Y128.199 E10.58225
G1 X119.002 Y112.308 E10.95580
G1 X119.002 Y111.742 E10.96520
G1 X112.820 Y117.924 E11.11051
G1 X112.820 Y117.359 E11.11991
G1 X119.002 Y111.177 E11.26522
G1 X119.002 Y110.611 E11.27462
G1 X112.820 Y116.794 E11.41994
G1 X112.820 Y116.228 E11.42933
G1 X119.002 Y110.046 E11.57465
G1 X119.002 Y109.481 E11.58405
G1 X112.820 Y115.663 E11.72936
G1 X112.820 Y115.097 E11.73876
G1 X119.002 Y108.915 E11.88407
G1 X119.002 Y108.350 E11.89347
G1 X112.820 Y114.532 E12.03878
G1 X112.820 Y113.967 E12.04818
G1 X119.002 Y107.785 E12.19349
G1 X119.002 Y107.219 E12.20289
G1 X112.820 Y113.401 E12.34821
G1 X112.820 Y112.836 E12.35760
G1 X119.002 Y106.654 E12.50292
G1 X119.002 Y106.088 E12.51232
G1 X112.820 Y112.271 E12.65763
G1 X112.820 Y111.705 E12.66703
G1 X119.002 Y105.523 E12.81234
G1 X119.002 Y104.958 E12.82174
G1 X112.820 Y111.140 E12.96705
G1 X112.820 Y110.574 E12.97645
G1 X119.002 Y104.392 E13.12177
G1 X119.002 Y103.827 E13.13116
G1 X112.820 Y110.009 E13.27648
G1 X112.820 Y109.444 E13.28587
G1 X119.002 Y103.262 E13.43119
G1 X119.002 Y102.696 E13.44059
G1 X112.820 Y108.878 E13.58590
G1 X112.820 Y108.313 E13.59530
G1 X119.002 Y102.131 E13.74061
G1 X119.002 Y101.565 E13.75001
G1 X112.820 Y107.748 E13.89532
G1 X112.820 Y107.182 E13.90472
G1 X119.002 Y101.000 E14.05004
G1 X119.002 Y100.435 E14.05943
G1 X112.820 Y106.617 E14.20475
G1 X112.820 Y106.051 E14.21414
G1 X119.002 Y99.869 E14.35946
G1 X119.002 Y99.304 E14.36886
G1 X112.820 Y105.486 E14.51417
G1 X112.820 Y104.921 E14.52357
G1 X119.002 Y98.739 E14.66888
G1 X119.002 Y98.173 E14.67828
G1 X112.820 Y104.355 E14.82359
G1 X112.820 Y103.790 E14.83299
G1 X119.002 Y97.608 E14.97831
G1 X119.002 Y97.042 E14.98770
G1 X112.820 Y103.225 E15.13302
G1 X112.820 Y102.659 E15.14241
G1 X119.002 Y96.477 E15.28773
G1 X119.002 Y95.912 E15.29713
G1 X112.820 Y102.094 E15.44244
G1 X112.820 Y101.528 E15.45184
G1 X119.002 Y95.346 E15.59715
G1 X119.002 Y94.781 E15.60655
G1 X112.820 Y100.963 E15.75186
G1 X112.820 Y100.398 E15.76126
G1 X119.002 Y94.216 E15.90658
G1 X119.002 Y93.650 E15.91597
G1 X112.820 Y99.832 E16.06129
G1 X112.820 Y99.599 E16.06516
G1 X112.488 Y99.599 E16.07069
G1 X118.870 Y93.217 E16.22070
G1 X118.304 Y93.217 E16.23010
G1 X111.922 Y99.599 E16.38011
G1 X111.357 Y99.599 E16.38951
G1 X117.739 Y93.217 E16.53953
G1 X117.174 Y93.217 E16.54892
G1 X110.791 Y99.599 E16.69894
G1 X110.226 Y99.599 E16.70834
G1 X116.608 Y93.217 E16.85835
G1 X116.043 Y93.217 E16.86775
G1 X109.661 Y99.599 E17.01777
G1 X109.095 Y99.599 E17.02716
G1 X115.477 Y93.217 E17.17718
G1 X114.912 Y93.217 E17.18658
G1 X108.530 Y99.599 E17.33659
