; generated by Slic3r 1.3.0-dev on 2018-05-27 at 22:52:21

; external perimeters extrusion width = 0.42mm (3.02mm^3/s)
; perimeters extrusion width = 0.42mm (4.52mm^3/s)
; infill extrusion width = 0.42mm (6.03mm^3/s)
; solid infill extrusion width = 0.42mm (1.51mm^3/s)
; top infill extrusion width = 0.42mm (1.13mm^3/s)
; support material extrusion width = 0.31mm (3.20mm^3/s)

M107
M190 S100 ; set bed temperature and wait for it to be reached
M104 S210 ; set temperature
G28 ; home all axes
G1 Z5 F5000 ; lift nozzle

; Filament gcode

M109 S210 ; set temperature and wait for it to be reached
G21 ; set units to millimeters
G90 ; use absolute coordinates
M82 ; use absolute distances for extrusion
G92 E0
G1 Z5.100 F7800.000
G1 E-1.00000 F2400.00000
G92 E0
G1 X69.745 Y63.189 F7800.000
G1 E1.00000 F2400.00000
G1 F2700
G1 X71.504 Y61.671 E1.03850
G1 X73.671 Y60.834 E1.07699
G1 X75.000 Y60.703 E1.09912
G1 X125.000 Y60.703 E1.92759
G1 X127.289 Y61.100 E1.96609
G1 X129.311 Y62.245 E2.00458
G1 X130.829 Y64.004 E2.04308
G1 X131.666 Y66.171 E2.08157
G1 X131.797 Y67.500 E2.10370
G1 X131.797 Y132.500 E3.18071
G1 X131.400 Y134.789 E3.21921
G1 X130.255 Y136.811 E3.25770
G1 X128.496 Y138.329 E3.29620
G1 X126.329 Y139.166 E3.33469
G1 X125.000 Y139.297 E3.35682
G1 X75.000 Y139.297 E4.18529
G1 X72.711 Y138.900 E4.22379
G1 X70.689 Y137.755 E4.26228
G1 X69.171 Y135.996 E4.30078
G1 X68.334 Y133.829 E4.33927
G1 X68.203 Y132.500 E4.36140
G1 X68.203 Y67.500 E5.43841
G1 X68.600 Y65.211 E5.47691
G1 X69.730 Y63.215 E5.51491
G1 X70.140 Y63.338 F7800.000
G1 F2700
G1 X71.884 Y61.911 E5.55225
G1 X75.000 Y61.101 E5.60559
G1 X125.000 Y61.101 E6.43406
G1 X127.218 Y61.498 E6.47140
G1 X129.162 Y62.640 E6.50874
G1 X130.589 Y64.384 E6.54608
G1 X131.399 Y67.500 E6.59943
G1 X131.399 Y132.500 E7.67644
G1 X131.002 Y134.718 E7.71378
G1 X129.860 Y136.662 E7.75112
G1 X128.116 Y138.089 E7.78846
G1 X125.000 Y138.899 E7.84181
G1 X75.000 Y138.899 E8.67028
G1 X72.782 Y138.502 E8.70762
G1 X70.838 Y137.360 E8.74496
G1 X69.411 Y135.616 E8.78230
G1 X68.601 Y132.500 E8.83564
G1 X68.601 Y67.500 E9.91265
G1 X68.998 Y65.282 E9.94999
G1 X70.125 Y63.364 E9.98684
G1 X71.542 Y64.741 F7800.000
G1 F2700
G1 X73.179 Y63.104 E10.02694
G1 X126.821 Y63.104 E10.95618
G1 X129.396 Y65.679 E11.01928
G1 X129.396 Y134.321 E12.20836
G1 X126.821 Y136.896 E12.27146
G1 X73.179 Y136.896 E13.20070
G1 X70.604 Y134.321 E13.26379
G1 X70.604 Y65.679 E14.45288
G1 X71.521 Y64.762 E14.47535
G1 X71.837 Y65.035 F7800.000
G1 F2700
G1 X73.352 Y63.520 E14.51246
G1 X126.648 Y63.520 E15.43572
G1 X128.980 Y65.852 E15.49284
G1 X128.980 Y134.148 E16.67594
G1 X126.648 Y136.480 E16.73306
G1 X73.352 Y136.480 E17.65632
G1 X71.020 Y134.148 E17.71343
G1 X71.020 Y65.852 E18.89654
G1 X71.815 Y65.056 E18.91602
G1 X72.131 Y65.330 F7800.000
G1 F2700
G1 X73.524 Y63.937 E18.95015
G1 X126.476 Y63.937 E19.86743
G1 X128.563 Y66.024 E19.91856
G1 X128.563 Y133.976 E21.09569
G1 X126.476 Y136.063 E21.14682
G1 X73.524 Y136.063 E22.06411
G1 X71.437 Y133.976 E22.11524
G1 X71.437 Y66.024 E23.29237
G1 X72.110 Y65.351 E23.30886
G1 X72.426 Y65.624 F7800.000
G1 F2700
G1 X73.697 Y64.354 E23.33999
G1 X126.303 Y64.354 E24.25130
G1 X128.146 Y66.197 E24.29645
G1 X128.146 Y133.803 E25.46760
G1 X126.303 Y135.646 E25.51275
G1 X73.697 Y135.646 E26.42406
G1 X71.854 Y133.803 E26.46921
G1 X71.854 Y66.197 E27.64036
G1 X72.405 Y65.646 E27.65386
G1 X72.720 Y65.919 F7800.000
G1 F2700
G1 X73.869 Y64.770 E27.68200
G1 X126.131 Y64.770 E28.58733
G1 X127.730 Y66.369 E28.62650
G1 X127.730 Y133.631 E29.79167
G1 X126.131 Y135.230 E29.83085
G1 X73.869 Y135.230 E30.73617
G1 X72.270 Y133.631 E30.77535
G1 X72.270 Y66.369 E31.94051
G1 X72.699 Y65.940 E31.95102
G1 X73.015 Y66.214 F7800.000
G1 F2700
G1 X74.042 Y65.187 E31.97618
G1 X125.958 Y65.187 E32.87552
G1 X127.313 Y66.542 E32.90872
G1 X127.313 Y133.458 E34.06791
G1 X125.958 Y134.813 E34.10110
G1 X74.042 Y134.813 E35.00045
G1 X72.687 Y133.458 E35.03364
G1 X72.687 Y66.542 E36.19283
G1 X72.994 Y66.235 E36.20035
G1 X73.310 Y66.508 F7800.000
G1 F2700
G1 X74.214 Y65.604 E36.22252
G1 X125.786 Y65.604 E37.11588
G1 X126.896 Y66.714 E37.14310
G1 X126.896 Y133.286 E38.29631
G1 X125.786 Y134.396 E38.32353
G1 X74.214 Y134.396 E39.21689
G1 X73.104 Y133.286 E39.24411
G1 X73.104 Y66.714 E40.39732
G1 X73.288 Y66.530 E40.40185
G1 X73.604 Y66.803 F7800.000
G1 F2700
G1 X74.387 Y66.020 E40.42102
G1 X125.613 Y66.020 E41.30841
G1 X126.480 Y66.887 E41.32964
G1 X126.480 Y133.113 E42.47687
G1 X125.613 Y133.980 E42.49811
G1 X74.387 Y133.980 E43.38550
G1 X73.520 Y133.113 E43.40673
G1 X73.520 Y66.887 E44.55396
G1 X73.583 Y66.824 E44.55550
G1 X73.937 Y67.060 F7800.000
G1 F2700
G1 X74.560 Y66.437 E44.57076
G1 X125.440 Y66.437 E45.45217
G1 X126.063 Y67.060 E45.46742
G1 X126.063 Y132.940 E46.60867
G1 X125.440 Y133.563 E46.62393
G1 X74.560 Y133.563 E47.50534
G1 X73.937 Y132.940 E47.52059
G1 X73.937 Y67.090 E48.66132
G1 X74.354 Y67.232 F7800.000
G1 F2700
G1 X74.732 Y66.854 E48.67060
G1 X125.268 Y66.854 E49.54603
G1 X125.646 Y67.232 E49.55531
G1 X125.646 Y132.768 E50.69058
G1 X125.268 Y133.146 E50.69985
G1 X74.732 Y133.146 E51.57528
G1 X74.354 Y132.768 E51.58456
G1 X74.354 Y67.262 E52.71931
G1 X74.770 Y67.405 F7800.000
G1 F2700
G1 X74.905 Y67.270 E52.72261
G1 X125.095 Y67.270 E53.59205
G1 X125.230 Y67.405 E53.59535
G1 X125.230 Y132.595 E54.72464
G1 X125.095 Y132.730 E54.72794
G1 X74.905 Y132.730 E55.59739
G1 X74.770 Y132.595 E55.60069
G1 X74.770 Y67.435 E56.72946
G1 E55.72946 F2400.00000
G92 E0
G1 X124.790 Y132.290 F7800.000
G1 E1.00000 F2400.00000
G1 F1800
G1 X75.210 Y132.290 E1.82151
G1 X75.210 Y67.710 E2.89156
G1 X124.790 Y67.710 E3.71307
G1 X124.790 Y132.260 E4.78262
G1 X124.599 Y132.230 F7800.000
G1 X124.391 Y131.891 F7800.000
G1 F2700
G1 X75.609 Y131.891 E5.59092
G1 X75.609 Y68.109 E6.64776
G1 X124.391 Y68.109 E7.45607
G1 X124.391 Y131.861 E8.51241
G1 X123.993 Y131.493 F7800.000
G1 F2700
G1 X76.007 Y131.493 E9.30751
G1 X76.007 Y68.507 E10.35114
G1 X123.993 Y68.507 E11.14623
G1 X123.993 Y131.463 E12.18937
G1 E11.18937 F2400.00000
G92 E0
G1 X113.910 Y92.610 F7800.000
G1 E1.00000 F2400.00000
G1 F1800
G1 X108.790 Y92.610 E1.08484
G1 X108.790 Y78.790 E1.31382
G1 X113.910 Y78.790 E1.39866
G1 X113.910 Y92.580 E1.62715
G1 X113.934 Y92.809 F7800.000
G1 X114.309 Y93.009 F7800.000
G1 F2700
G1 X108.391 Y93.009 E1.72519
G1 X108.391 Y78.391 E1.96739
G1 X114.309 Y78.391 E2.06543
G1 X114.309 Y92.979 E2.30713
G1 X114.707 Y93.407 F7800.000
G1 F2700
G1 X107.993 Y93.407 E2.41838
G1 X107.993 Y77.993 E2.67378
G1 X114.707 Y77.993 E2.78503
G1 X114.707 Y93.377 E3.03994
G1 E2.03994 F2400.00000
G92 E0
G1 X113.910 Y107.390 F7800.000
G1 E1.00000 F2400.00000
G1 F1800
G1 X113.910 Y121.210 E1.22899
G1 X108.790 Y121.210 E1.31382
G1 X108.790 Y107.390 E1.54281
G1 X113.880 Y107.390 E1.62715
G1 X114.094 Y107.311 F7800.000
G1 X114.309 Y106.991 F7800.000
G1 F2700
G1 X114.309 Y121.609 E1.86935
G1 X108.391 Y121.609 E1.96739
G1 X108.391 Y106.991 E2.20958
G1 X114.279 Y106.991 E2.30713
G1 X114.707 Y106.593 F7800.000
G1 F2700
G1 X114.707 Y122.007 E2.56253
G1 X107.993 Y122.007 E2.67378
G1 X107.993 Y106.593 E2.92918
G1 X114.677 Y106.593 E3.03994
G1 E2.03994 F2400.00000
G92 E0
G1 X115.063 Y93.394 F7800.000
G1 E1.00000 F2400.00000
G1 F900
G1 X123.637 Y84.820 E1.20096
G1 X123.637 Y84.257 E1.21030
G1 X115.063 Y92.830 E1.41126
G1 X115.063 Y92.266 E1.42061
G1 X123.637 Y83.693 E1.62157
G1 X123.637 Y83.129 E1.63091
G1 X115.063 Y91.702 E1.83187
G1 X115.063 Y91.139 E1.84122
G1 X123.637 Y82.565 E2.04218
G1 X123.637 Y82.001 E2.05152
G1 X115.063 Y90.575 E2.25248
G1 X115.063 Y90.011 E2.26183
G1 X123.637 Y81.438 E2.46279
G1 X123.637 Y80.874 E2.47213
G1 X115.063 Y89.447 E2.67309
G1 X115.063 Y88.883 E2.68244
G1 X123.637 Y80.310 E2.88340
G1 X123.637 Y79.746 E2.89274
G1 X115.063 Y88.320 E3.09370
G1 X115.063 Y87.756 E3.10305
G1 X123.637 Y79.182 E3.30401
G1 X123.637 Y78.619 E3.31335
G1 X115.063 Y87.192 E3.51431
G1 X115.063 Y86.628 E3.52366
G1 X123.637 Y78.055 E3.72462
G1 X123.637 Y77.491 E3.73396
G1 X115.063 Y86.064 E3.93492
G1 X115.063 Y85.501 E3.94427
G1 X123.637 Y76.927 E4.14523
G1 X123.637 Y76.363 E4.15457
G1 X115.063 Y84.937 E4.35553
G1 X115.063 Y84.373 E4.36488
G1 X123.637 Y75.800 E4.56584
G1 X123.637 Y75.236 E4.57518
G1 X115.063 Y83.809 E4.77614
G1 X115.063 Y83.245 E4.78549
G1 X123.637 Y74.672 E4.98645
G1 X123.637 Y74.108 E4.99579
G1 X115.063 Y82.682 E5.19675
G1 X115.063 Y82.118 E5.20610
G1 X123.637 Y73.544 E5.40706
G1 X123.637 Y72.981 E5.41640
G1 X115.063 Y81.554 E5.61736
G1 X115.063 Y80.990 E5.62671
G1 X123.637 Y72.417 E5.82767
G1 X123.637 Y71.853 E5.83701
G1 X115.063 Y80.426 E6.03797
G1 X115.063 Y79.863 E6.04732
G1 X123.637 Y71.289 E6.24828
G1 X123.637 Y70.725 E6.25762
G1 X115.063 Y79.299 E6.45858
G1 X115.063 Y78.735 E6.46793
G1 X123.637 Y70.162 E6.66889
G1 X123.637 Y69.598 E6.67823
G1 X115.063 Y78.171 E6.87919
G1 X115.063 Y77.637 E6.88805
G1 X115.034 Y77.637 E6.88853
G1 X123.637 Y69.034 E7.09018
G1 X123.637 Y68.863 E7.09301
G1 X123.244 Y68.863 E7.09953
G1 X114.470 Y77.637 E7.30518
G1 X113.906 Y77.637 E7.31452
G1 X122.680 Y68.863 E7.52017
G1 X122.116 Y68.863 E7.52951
G1 X113.343 Y77.637 E7.73516
G1 X112.779 Y77.637 E7.74451
G1 X121.552 Y68.863 E7.95016
G1 X120.988 Y68.863 E7.95950
G1 X112.215 Y77.637 E8.16515
G1 X111.651 Y77.637 E8.17449
G1 X120.425 Y68.863 E8.38014
G1 X119.861 Y68.863 E8.38949
G1 X111.087 Y77.637 E8.59513
G1 X110.524 Y77.637 E8.60448
G1 X119.297 Y68.863 E8.81013
G1 X118.733 Y68.863 E8.81947
G1 X109.960 Y77.637 E9.02512
G1 X109.396 Y77.637 E9.03446
G1 X118.169 Y68.863 E9.24011
G1 X117.606 Y68.863 E9.24946
G1 X108.832 Y77.637 E9.45511
G1 X108.268 Y77.637 E9.46445
G1 X117.042 Y68.863 E9.67010
G1 X116.478 Y68.863 E9.67944
G1 X107.705 Y77.637 E9.88509
G1 X107.552 Y77.637 E9.88762
G1 X107.552 Y77.789 E9.89015
G1 E8.89015 F2400.00000
G92 E0
G1 X76.448 Y68.863 F7800.000
G1 E1.00000 F2400.00000
G1 F900
G1 X76.363 Y68.948 E1.00199
G1 X76.363 Y69.512 E1.01133
G1 X77.012 Y68.863 E1.02653
G1 X77.576 Y68.863 E1.03588
G1 X76.363 Y70.076 E1.06430
G1 X76.363 Y70.639 E1.07364
G1 X78.139 Y68.863 E1.11528
G1 X78.703 Y68.863 E1.12462
G1 X76.363 Y71.203 E1.17947
G1 X76.363 Y71.767 E1.18881
G1 X79.267 Y68.863 E1.25688
G1 X79.831 Y68.863 E1.26622
G1 X76.363 Y72.331 E1.34750
G1 X76.363 Y72.895 E1.35685
G1 X80.395 Y68.863 E1.45134
G1 X80.958 Y68.863 E1.46069
G1 X76.363 Y73.458 E1.56840
G1 X76.363 Y74.022 E1.57774
G1 X81.522 Y68.863 E1.69867
G1 X82.086 Y68.863 E1.70802
G1 X76.363 Y74.586 E1.84216
G1 X76.363 Y75.150 E1.85150
G1 X82.650 Y68.863 E1.99886
G1 X83.214 Y68.863 E2.00821
G1 X76.363 Y75.714 E2.16878
G1 X76.363 Y76.277 E2.17812
G1 X83.777 Y68.863 E2.35191
G1 X84.341 Y68.863 E2.36126
G1 X76.363 Y76.841 E2.54826
G1 X76.363 Y77.405 E2.55761
G1 X84.905 Y68.863 E2.75783
G1 X85.469 Y68.863 E2.76717
G1 X76.363 Y77.969 E2.98061
G1 X76.363 Y78.533 E2.98995
G1 X86.033 Y68.863 E3.21660
G1 X86.596 Y68.863 E3.22595
G1 X76.363 Y79.096 E3.46581
G1 X76.363 Y79.660 E3.47516
G1 X87.160 Y68.863 E3.72824
G1 X87.724 Y68.863 E3.73759
G1 X76.363 Y80.224 E4.00388
G1 X76.363 Y80.788 E4.01323
G1 X88.288 Y68.863 E4.29274
G1 X88.852 Y68.863 E4.30209
G1 X76.363 Y81.352 E4.59481
G1 X76.363 Y81.915 E4.60416
G1 X89.416 Y68.863 E4.91010
G1 X89.979 Y68.863 E4.91945
G1 X76.363 Y82.479 E5.23861
G1 X76.363 Y83.043 E5.24795
G1 X90.543 Y68.863 E5.58033
G1 X91.107 Y68.863 E5.58967
G1 X76.363 Y83.607 E5.93526
G1 X76.363 Y84.171 E5.94461
G1 X91.671 Y68.863 E6.30342
G1 X92.235 Y68.863 E6.31276
G1 X76.363 Y84.734 E6.68478
G1 X76.363 Y85.298 E6.69413
G1 X92.798 Y68.863 E7.07936
G1 X93.362 Y68.863 E7.08871
G1 X76.363 Y85.862 E7.48716
G1 X76.363 Y86.426 E7.49651
G1 X93.926 Y68.863 E7.90817
G1 X94.490 Y68.863 E7.91752
G1 X76.363 Y86.990 E8.34240
G1 X76.363 Y87.553 E8.35175
G1 X95.054 Y68.863 E8.78985
G1 X95.617 Y68.863 E8.79919
G1 X76.363 Y88.117 E9.25051
G1 X76.363 Y88.681 E9.25985
G1 X96.181 Y68.863 E9.72438
G1 X96.745 Y68.863 E9.73373
G1 X76.363 Y89.245 E10.21147
G1 X76.363 Y89.809 E10.22082
G1 X97.309 Y68.863 E10.71178
G1 X97.873 Y68.863 E10.72113
G1 X76.363 Y90.373 E11.22530
G1 X76.363 Y90.936 E11.23465
G1 X98.436 Y68.863 E11.75204
G1 X99.000 Y68.863 E11.76138
G1 X76.363 Y91.500 E12.29199
G1 X76.363 Y92.064 E12.30134
G1 X99.564 Y68.863 E12.84516
G1 X100.128 Y68.863 E12.85451
G1 X76.363 Y92.628 E13.41155
G1 X76.363 Y93.192 E13.42089
G1 X100.692 Y68.863 E13.99114
G1 X101.255 Y68.863 E14.00049
G1 X76.363 Y93.755 E14.58396
G1 X76.363 Y94.319 E14.59330
G1 X101.819 Y68.863 E15.18999
G1 X102.383 Y68.863 E15.19934
G1 X76.363 Y94.883 E15.80924
G1 X76.363 Y95.447 E15.81858
G1 X102.947 Y68.863 E16.44170
G1 X103.511 Y68.863 E16.45104
G1 X76.363 Y96.011 E17.08738
G1 X76.363 Y96.574 E17.09672
G1 X104.074 Y68.863 E17.74627
G1 X104.638 Y68.863 E17.75561
G1 X76.363 Y97.138 E18.41838
G1 X76.363 Y97.702 E18.42772
G1 X105.202 Y68.863 E19.10370
G1 X105.766 Y68.863 E19.11304
G1 X76.363 Y98.266 E19.80224
G1 X76.363 Y98.830 E19.81158
G1 X106.330 Y68.863 E20.51399
G1 X106.893 Y68.863 E20.52334
G1 X76.363 Y99.393 E21.23896
G1 X76.363 Y99.957 E21.24831
G1 X107.457 Y68.863 E21.97715
G1 X108.021 Y68.863 E21.98650
G1 X76.363 Y100.521 E22.72855
G1 X76.363 Y101.085 E22.73790
G1 X108.585 Y68.863 E23.49317
G1 X109.149 Y68.863 E23.50251
G1 X76.363 Y101.649 E24.27100
G1 X76.363 Y102.212 E24.28035
G1 X109.712 Y68.863 E25.06205
G1 X110.276 Y68.863 E25.07139
G1 X76.363 Y102.776 E25.86631
G1 X76.363 Y103.340 E25.87566
G1 X110.840 Y68.863 E26.68379
G1 X111.404 Y68.863 E26.69314
G1 X76.363 Y103.904 E27.51449
G1 X76.363 Y104.468 E27.52383
G1 X111.968 Y68.863 E28.35840
G1 X112.531 Y68.863 E28.36774
G1 X76.363 Y105.031 E29.21552
G1 X76.363 Y105.595 E29.22487
G1 X113.095 Y68.863 E30.08586
G1 X113.659 Y68.863 E30.09521
G1 X76.363 Y106.159 E30.96942
G1 X76.363 Y106.723 E30.97877
G1 X114.223 Y68.863 E31.86619
G1 X114.787 Y68.863 E31.87554
G1 X76.363 Y107.287 E32.77618
G1 X76.363 Y107.850 E32.78553
G1 X115.350 Y68.863 E33.69938
G1 X115.914 Y68.863 E33.70873
G1 X76.363 Y108.414 E34.63580
G1 X76.363 Y108.978 E34.64515
G1 X107.637 Y77.705 E35.37820
G1 X107.637 Y78.268 E35.38754
G1 X76.363 Y109.542 E36.12059
G1 X76.363 Y110.106 E36.12994
G1 X107.637 Y78.832 E36.86299
G1 X107.637 Y79.396 E36.87233
G1 X76.363 Y110.669 E37.60538
G1 X76.363 Y111.233 E37.61473
G1 X107.637 Y79.960 E38.34778
G1 X107.637 Y80.524 E38.35712
G1 X76.363 Y111.797 E39.09017
G1 X76.363 Y112.361 E39.09952
G1 X107.637 Y81.087 E39.83257
G1 X107.637 Y81.651 E39.84191
G1 X76.363 Y112.925 E40.57496
G1 X76.363 Y113.488 E40.58431
G1 X107.637 Y82.215 E41.31736
G1 X107.637 Y82.779 E41.32670
G1 X76.363 Y114.052 E42.05975
G1 X76.363 Y114.616 E42.06910
G1 X107.637 Y83.343 E42.80215
G1 X107.637 Y83.906 E42.81149
G1 X76.363 Y115.180 E43.54454
G1 X76.363 Y115.744 E43.55389
G1 X107.637 Y84.470 E44.28694
G1 X107.637 Y85.034 E44.29628
G1 X76.363 Y116.307 E45.02933
G1 X76.363 Y116.871 E45.03868
G1 X107.637 Y85.598 E45.77173
G1 X107.637 Y86.162 E45.78107
G1 X76.363 Y117.435 E46.51412
G1 X76.363 Y117.999 E46.52347
G1 X107.637 Y86.725 E47.25652
G1 X107.637 Y87.289 E47.26586
G1 X76.363 Y118.563 E47.99891
G1 X76.363 Y119.126 E48.00826
G1 X107.637 Y87.853 E48.74131
G1 X107.637 Y88.417 E48.75065
G1 X76.363 Y119.690 E49.48370
G1 X76.363 Y120.254 E49.49305
G1 X107.637 Y88.981 E50.22610
G1 X107.637 Y89.544 E50.23544
G1 X76.363 Y120.818 E50.96849
G1 X76.363 Y121.382 E50.97784
G1 X107.637 Y90.108 E51.71089
G1 X107.637 Y90.672 E51.72023
G1 X76.363 Y121.945 E52.45328
G1 X76.363 Y122.509 E52.46263
G1 X107.637 Y91.236 E53.19568
G1 X107.637 Y91.800 E53.20502
G1 X76.363 Y123.073 E53.93807
G1 X76.363 Y123.637 E53.94741
G1 X107.637 Y92.363 E54.68047
G1 X107.637 Y92.927 E54.68981
G1 X76.363 Y124.201 E55.42286
G1 X76.363 Y124.764 E55.43220
G1 X107.637 Y93.491 E56.16525
G1 X107.637 Y93.763 E56.16977
G1 X107.928 Y93.763 E56.17460
G1 X76.363 Y125.328 E56.91448
G1 X76.363 Y125.892 E56.92383
G1 X108.492 Y93.763 E57.67692
G1 X109.056 Y93.763 E57.68627
G1 X76.363 Y126.456 E58.45258
G1 X76.363 Y127.020 E58.46193
G1 X109.620 Y93.763 E59.24145
G1 X110.183 Y93.763 E59.25080
G1 X76.363 Y127.583 E60.04354
G1 X76.363 Y128.147 E60.05289
