; generated by Slic3r 1.3.0-dev on 2018-06-09 at 15:36:39

; external perimeters extrusion width = 0.42mm (5.33mm^3/s)
; perimeters extrusion width = 0.42mm (5.33mm^3/s)
; infill extrusion width = 0.42mm (8.53mm^3/s)
; solid infill extrusion width = 0.42mm (2.13mm^3/s)
; top infill extrusion width = 0.42mm (1.60mm^3/s)
; support material extrusion width = 0.31mm (4.42mm^3/s)

M107
M190 S100 ; set bed temperature and wait for it to be reached
M104 S210 ; set temperature
G28 ; home all axes
G1 Z5 F5000 ; lift nozzle

; Filament gcode

M109 S210 ; set temperature and wait for it to be reached
G21 ; set units to millimeters
G90 ; use absolute coordinates
M82 ; use absolute distances for extrusion
G92 E0
G1 Z5.150 F7800.000
G1 E-1.00000 F2400.00000
G92 E0
G1 X80.766 Y80.597 F7800.000
G1 E1.00000 F2400.00000
G1 F2700
G1 X82.524 Y79.084 E1.05610
G1 X84.689 Y78.252 E1.11220
G1 X86.000 Y78.124 E1.14404
G1 X114.000 Y78.124 E1.82122
G1 X116.285 Y78.521 E1.87732
G1 X118.303 Y79.666 E1.93342
G1 X119.816 Y81.424 E1.98952
G1 X120.648 Y83.589 E2.04562
G1 X120.776 Y84.900 E2.07746
G1 X120.776 Y115.100 E2.80785
G1 X120.379 Y117.385 E2.86394
G1 X119.234 Y119.403 E2.92004
G1 X117.476 Y120.916 E2.97614
G1 X115.311 Y121.748 E3.03224
G1 X114.000 Y121.876 E3.06409
G1 X86.000 Y121.876 E3.74126
G1 X83.715 Y121.479 E3.79736
G1 X81.697 Y120.334 E3.85346
G1 X80.184 Y118.576 E3.90956
G1 X79.352 Y116.411 E3.96566
G1 X79.224 Y115.100 E3.99751
G1 X79.224 Y84.900 E4.72789
G1 X79.621 Y82.615 E4.78399
G1 X80.744 Y80.636 E4.83900
G1 X81.150 Y80.742 F7800.000
G1 F2700
G1 X82.894 Y79.318 E4.89346
G1 X86.000 Y78.512 E4.97106
G1 X114.000 Y78.512 E5.64823
G1 X116.216 Y78.909 E5.70269
G1 X118.158 Y80.050 E5.75715
G1 X119.582 Y81.794 E5.81161
G1 X120.388 Y84.900 E5.88920
G1 X120.388 Y115.100 E6.61959
G1 X119.991 Y117.316 E6.67405
G1 X118.850 Y119.258 E6.72850
G1 X117.106 Y120.682 E6.78296
G1 X114.000 Y121.488 E6.86056
G1 X86.000 Y121.488 E7.53774
G1 X83.784 Y121.091 E7.59219
G1 X81.842 Y119.950 E7.64665
G1 X80.418 Y118.206 E7.70111
G1 X79.612 Y115.100 E7.77871
G1 X79.612 Y84.900 E8.50909
G1 X80.009 Y82.684 E8.56355
G1 X81.128 Y80.781 E8.61692
G1 E7.61692 F2400.00000
G92 E0
G1 X84.358 Y83.951 F7800.000
G1 E1.00000 F2400.00000
G1 F2700
G1 X85.241 Y83.068 E1.03114
G1 X114.759 Y83.068 E1.76746
G1 X115.832 Y84.141 E1.80533
G1 X115.832 Y115.859 E2.59653
G1 X114.759 Y116.932 E2.63439
G1 X85.241 Y116.932 E3.37072
G1 X84.168 Y115.859 E3.40858
G1 X84.168 Y84.141 E4.19979
G1 X84.327 Y83.982 E4.20539
G1 X84.641 Y84.233 F7800.000
G1 F2700
G1 X85.407 Y83.468 E4.23239
G1 X114.593 Y83.468 E4.96045
G1 X115.432 Y84.307 E4.99005
G1 X115.432 Y115.693 E5.77299
G1 X114.593 Y116.532 E5.80259
G1 X85.407 Y116.532 E6.53064
G1 X84.568 Y115.693 E6.56024
G1 X84.568 Y84.307 E7.34318
G1 X84.609 Y84.265 E7.34465
G1 X84.968 Y84.472 F7800.000
G1 F2700
G1 X85.572 Y83.868 E7.36598
G1 X114.428 Y83.868 E8.08577
G1 X115.032 Y84.472 E8.10710
G1 X115.032 Y115.528 E8.88177
G1 X114.428 Y116.132 E8.90310
G1 X85.572 Y116.132 E9.62290
G1 X84.968 Y115.528 E9.64423
G1 X84.968 Y84.517 E10.41778
G1 X85.368 Y84.638 F7800.000
G1 F2700
G1 X85.738 Y84.268 E10.43084
G1 X114.262 Y84.268 E11.14237
G1 X114.632 Y84.638 E11.15543
G1 X114.632 Y115.362 E11.92184
G1 X114.262 Y115.732 E11.93490
G1 X85.738 Y115.732 E12.64643
G1 X85.368 Y115.362 E12.65950
G1 X85.368 Y84.683 E13.42478
G1 X85.768 Y84.804 F7800.000
G1 F2700
G1 X85.904 Y84.668 E13.42958
G1 X114.096 Y84.668 E14.13284
G1 X114.232 Y84.804 E14.13764
G1 X114.232 Y115.196 E14.89578
G1 X114.096 Y115.332 E14.90058
G1 X85.904 Y115.332 E15.60384
G1 X85.768 Y115.196 E15.60863
G1 X85.768 Y84.849 E16.36565
G1 E15.36565 F2400.00000
G92 E0
G1 X113.790 Y114.890 F7800.000
G1 E1.00000 F2400.00000
G1 F2250
G1 X86.210 Y114.890 E1.66702
G1 X86.210 Y85.110 E2.38724
G1 X113.790 Y85.110 E3.05426
G1 X113.790 Y114.845 E3.77340
G1 X113.501 Y114.809 F7800.000
G1 X113.402 Y114.502 F7800.000
G1 F2250
G1 X86.598 Y114.502 E4.42166
G1 X86.598 Y85.498 E5.12313
G1 X113.402 Y85.498 E5.77139
G1 X113.402 Y114.457 E6.47177
G1 E5.47177 F2400.00000
G92 E0
G1 X103.986 Y100.486 F7800.000
G1 E1.00000 F2400.00000
G1 F2250
G1 X103.986 Y85.886 E1.35310
G1 X113.014 Y85.886 E1.57146
G1 X113.014 Y114.114 E2.25417
G1 X86.986 Y114.114 E2.88367
G1 X86.986 Y100.486 E3.21328
G1 X103.941 Y100.486 E3.62334
G1 X103.210 Y99.710 F7800.000
G1 F2250
G1 X87.790 Y99.710 E3.99627
G1 X87.790 Y86.690 E4.31115
G1 X103.210 Y86.690 E4.68408
G1 X103.210 Y99.665 E4.99788
G1 X103.296 Y99.997 F7800.000
G1 X103.598 Y100.098 F7800.000
G1 F2250
G1 X87.402 Y100.098 E5.38957
G1 X87.402 Y86.302 E5.72322
G1 X103.598 Y86.302 E6.11491
G1 X103.598 Y100.053 E6.44746
G1 E5.44746 F2400.00000
G92 E0
G1 X103.792 Y85.900 F7800.000
G1 E1.00000 F2400.00000
G1 F900
G1 X87.208 Y85.900 E1.39753
G1 X87.122 Y85.918 E1.39964
G1 F900
G1 X87.036 Y85.936 E1.40214
G1 X87.000 Y86.108 E1.40715
G1 F900
G1 X87.000 Y100.292 E1.74715
G1 X87.415 Y100.832 F7800.000
G1 F900
G1 X87.332 Y100.915 E1.74999
G1 X87.332 Y101.467 E1.76344
G1 X87.967 Y100.832 E1.78530
G1 X88.519 Y100.832 E1.79875
G1 X87.332 Y102.019 E1.83963
G1 X87.332 Y102.571 E1.85308
G1 X89.072 Y100.832 E1.91298
G1 X89.624 Y100.832 E1.92642
G1 X87.332 Y103.124 E2.00534
G1 X87.332 Y103.676 E2.01879
G1 X90.176 Y100.832 E2.11673
G1 X90.728 Y100.832 E2.13018
G1 X87.332 Y104.228 E2.24714
G1 X87.332 Y104.781 E2.26059
G1 X91.281 Y100.832 E2.39657
G1 X91.833 Y100.832 E2.41002
G1 X87.332 Y105.333 E2.56503
G1 X87.332 Y105.885 E2.57847
G1 X92.385 Y100.832 E2.75250
G1 X92.937 Y100.832 E2.76594
G1 X87.332 Y106.437 E2.95899
G1 X87.332 Y106.990 E2.97244
G1 X93.490 Y100.832 E3.18450
G1 X94.042 Y100.832 E3.19795
G1 X87.332 Y107.542 E3.42903
G1 X87.332 Y108.094 E3.44248
G1 X94.594 Y100.832 E3.69258
G1 X95.146 Y100.832 E3.70603
G1 X87.332 Y108.646 E3.97515
G1 X87.332 Y109.199 E3.98860
G1 X95.699 Y100.832 E4.27674
G1 X96.251 Y100.832 E4.29019
G1 X87.332 Y109.751 E4.59735
G1 X87.332 Y110.303 E4.61080
G1 X96.803 Y100.832 E4.93699
G1 X97.355 Y100.832 E4.95044
G1 X87.332 Y110.855 E5.29564
G1 X87.332 Y111.408 E5.30909
G1 X97.908 Y100.832 E5.67331
G1 X98.460 Y100.832 E5.68676
G1 X87.332 Y111.960 E6.07000
G1 X87.332 Y112.512 E6.08345
G1 X99.012 Y100.832 E6.48572
G1 X99.564 Y100.832 E6.49917
G1 X87.332 Y113.064 E6.92045
G1 X87.332 Y113.617 E6.93390
G1 X100.117 Y100.832 E7.37420
G1 X100.669 Y100.832 E7.38765
G1 X87.734 Y113.768 E7.83316
G1 X88.286 Y113.768 E7.84661
G1 X101.221 Y100.832 E8.29211
G1 X101.774 Y100.832 E8.30556
G1 X88.838 Y113.768 E8.75107
G1 X89.390 Y113.768 E8.76451
G1 X102.326 Y100.832 E9.21002
G1 X102.878 Y100.832 E9.22347
G1 X89.943 Y113.768 E9.66897
G1 X90.495 Y113.768 E9.68242
G1 X103.430 Y100.832 E10.12793
G1 X103.983 Y100.832 E10.14138
G1 X91.047 Y113.768 E10.58688
G1 E9.58688 F2400.00000
G92 E0
G1 X112.585 Y113.768 F7800.000
G1 E1.00000 F2400.00000
G1 F900
G1 X112.668 Y113.685 E1.00284
G1 X112.668 Y113.133 E1.01629
G1 X112.033 Y113.768 E1.03815
G1 X111.481 Y113.768 E1.05160
G1 X112.668 Y112.581 E1.09247
G1 X112.668 Y112.029 E1.10592
G1 X110.929 Y113.768 E1.16582
G1 X110.376 Y113.768 E1.17927
G1 X112.668 Y111.476 E1.25819
G1 X112.668 Y110.924 E1.27164
G1 X109.824 Y113.768 E1.36958
G1 X109.272 Y113.768 E1.38303
G1 X112.668 Y110.372 E1.49999
G1 X112.668 Y109.819 E1.51344
G1 X108.719 Y113.768 E1.64942
G1 X108.167 Y113.768 E1.66287
G1 X112.668 Y109.267 E1.81787
G1 X112.668 Y108.715 E1.83131
G1 X107.615 Y113.768 E2.00533
G1 X107.063 Y113.768 E2.01878
G1 X112.668 Y108.163 E2.21182
G1 X112.668 Y107.610 E2.22527
G1 X106.510 Y113.768 E2.43733
G1 X105.958 Y113.768 E2.45078
G1 X112.668 Y107.058 E2.68186
G1 X112.668 Y106.506 E2.69531
G1 X105.406 Y113.768 E2.94541
G1 X104.854 Y113.768 E2.95886
G1 X112.668 Y105.954 E3.22798
G1 X112.668 Y105.401 E3.24143
G1 X104.301 Y113.768 E3.52957
G1 X103.749 Y113.768 E3.54302
G1 X112.668 Y104.849 E3.85019
G1 X112.668 Y104.297 E3.86363
G1 X103.197 Y113.768 E4.18982
G1 X102.645 Y113.768 E4.20327
G1 X112.668 Y103.745 E4.54847
G1 X112.668 Y103.192 E4.56192
G1 X102.092 Y113.768 E4.92614
G1 X101.540 Y113.768 E4.93959
G1 X112.668 Y102.640 E5.32283
G1 X112.668 Y102.088 E5.33628
G1 X100.988 Y113.768 E5.73854
G1 X100.436 Y113.768 E5.75199
G1 X112.668 Y101.536 E6.17327
G1 X112.668 Y100.983 E6.18672
G1 X99.883 Y113.768 E6.62703
G1 X99.331 Y113.768 E6.64047
G1 X112.668 Y100.431 E7.09980
G1 X112.668 Y99.879 E7.11325
G1 X98.779 Y113.768 E7.59159
G1 X98.227 Y113.768 E7.60504
G1 X112.668 Y99.327 E8.10240
G1 X112.668 Y98.774 E8.11585
G1 X97.674 Y113.768 E8.63224
G1 X97.122 Y113.768 E8.64569
G1 X112.668 Y98.222 E9.18109
G1 X112.668 Y97.670 E9.19454
G1 X96.570 Y113.768 E9.74896
G1 X96.017 Y113.768 E9.76241
G1 X112.668 Y97.117 E10.33586
G1 X112.668 Y96.565 E10.34931
G1 X95.465 Y113.768 E10.94177
G1 X94.913 Y113.768 E10.95522
G1 X112.668 Y96.013 E11.56670
G1 X112.668 Y95.461 E11.58015
G1 X94.361 Y113.768 E12.21066
G1 X93.808 Y113.768 E12.22411
G1 X112.668 Y94.908 E12.87363
G1 X112.668 Y94.356 E12.88708
G1 X93.256 Y113.768 E13.55563
G1 X92.704 Y113.768 E13.56908
G1 X112.668 Y93.804 E14.25664
G1 X112.668 Y93.252 E14.27009
G1 X92.152 Y113.768 E14.97668
G1 X91.599 Y113.768 E14.99013
G1 X112.668 Y92.699 E15.71573
G1 X112.668 Y92.147 E15.72918
G1 X104.332 Y100.483 E16.01626
G1 X104.332 Y99.930 E16.02971
G1 X112.668 Y91.595 E16.31679
G1 X112.668 Y91.043 E16.33023
G1 X104.332 Y99.378 E16.61731
G1 X104.332 Y98.826 E16.63076
G1 X112.668 Y90.490 E16.91784
G1 X112.668 Y89.938 E16.93129
G1 X104.332 Y98.274 E17.21837
G1 X104.332 Y97.721 E17.23182
G1 X112.668 Y89.386 E17.51889
G1 X112.668 Y88.834 E17.53234
G1 X104.332 Y97.169 E17.81942
G1 X104.332 Y96.617 E17.83287
G1 X112.668 Y88.281 E18.11995
G1 X112.668 Y87.729 E18.13340
G1 X104.332 Y96.064 E18.42047
G1 X104.332 Y95.512 E18.43392
G1 X112.668 Y87.177 E18.72100
G1 X112.668 Y86.624 E18.73445
G1 X104.332 Y94.960 E19.02153
G1 X104.332 Y94.408 E19.03498
G1 X112.508 Y86.232 E19.31654
G1 X111.955 Y86.232 E19.32999
G1 X104.332 Y93.855 E19.59254
G1 X104.332 Y93.303 E19.60599
G1 X111.403 Y86.232 E19.84951
G1 X110.851 Y86.232 E19.86296
G1 X104.332 Y92.751 E20.08747
G1 X104.332 Y92.199 E20.10092
G1 X110.299 Y86.232 E20.30640
G1 X109.746 Y86.232 E20.31985
G1 X104.332 Y91.646 E20.50632
G1 X104.332 Y91.094 E20.51977
G1 X109.194 Y86.232 E20.68721
G1 X108.642 Y86.232 E20.70066
G1 X104.332 Y90.542 E20.84909
G1 X104.332 Y89.990 E20.86253
G1 X108.090 Y86.232 E20.99194
G1 X107.537 Y86.232 E21.00539
G1 X104.332 Y89.437 E21.11577
G1 X104.332 Y88.885 E21.12922
G1 X106.985 Y86.232 E21.22059
G1 X106.433 Y86.232 E21.23404
G1 X104.332 Y88.333 E21.30638
G1 X104.332 Y87.781 E21.31983
G1 X105.881 Y86.232 E21.37315
G1 X105.328 Y86.232 E21.38660
G1 X104.332 Y87.228 E21.42090
G1 X104.332 Y86.676 E21.43435
G1 X104.776 Y86.232 E21.44964
G1 Z5.150 F7800.000
G1 Z5.450 F7800.000
G1 E20.44964 F2400.00000
G92 E0
G1 X85.535 Y105.353 F7800.000
G1 E1.00000 F2400.00000
G1 F3600
G1 X85.535 Y104.473 E1.02696
G1 X84.445 Y104.473 E1.06035
G1 X84.445 Y110.277 E1.23816
G1 X85.535 Y110.277 E1.27155
G1 X85.535 Y105.353 E1.42240
G1 X85.167 Y106.427 F7800.000
G1 F3600
G1 X85.167 Y104.842 E1.47096
G1 X84.813 Y104.842 E1.48178
G1 X84.813 Y106.223 E1.52410
G1 X85.167 Y106.427 E1.53659
G1 Z5.450 F7800.000
G1 E0.53659 F2400.00000
G92 E0
G1 X113.790 Y114.890 F7800.000
G1 E1.00000 F2400.00000
G1 F3000
G1 X86.210 Y114.890 E2.22331
G1 X86.210 Y85.110 E3.54419
G1 X113.790 Y85.110 E4.76750
G1 X113.790 Y114.845 E6.08639
G1 X113.501 Y114.809 F7800.000
G1 X113.434 Y114.534 F7800.000
G1 F3000
G1 X86.566 Y114.534 E7.27815
G1 X86.566 Y85.466 E8.56749
G1 X113.434 Y85.466 E9.75925
G1 X113.434 Y114.489 E11.04659
G1 E10.04659 F2400.00000
G92 E0
G1 X103.921 Y100.421 F7800.000
G1 E1.00000 F2400.00000
G1 F3000
G1 X103.921 Y85.821 E1.64758
G1 X113.079 Y85.821 E2.05376
G1 X113.079 Y114.179 E3.31155
G1 X86.921 Y114.179 E4.47177
G1 X86.921 Y100.421 E5.08198
G1 X103.876 Y100.421 E5.83401
G1 X103.210 Y99.710 F7800.000
G1 F3000
G1 X87.790 Y99.710 E6.51797
G1 X87.790 Y86.690 E7.09546
G1 X103.210 Y86.690 E7.77942
G1 X103.210 Y99.665 E8.35492
G1 X103.296 Y99.997 F7800.000
G1 X103.566 Y100.066 F7800.000
G1 F3000
G1 X87.434 Y100.066 E9.07042
G1 X87.434 Y86.334 E9.67946
G1 X103.566 Y86.334 E10.39496
G1 X103.566 Y100.021 E11.00201
G1 E10.00201 F2400.00000
G92 E0
G1 X103.743 Y85.900 F7800.000
G1 E1.00000 F2400.00000
G1 F1200
G1 X87.257 Y85.900 E1.92281
G1 X87.150 Y85.922 E1.92888
G1 F1200
G1 X87.044 Y85.944 E1.93615
G1 X87.000 Y86.157 E1.95068
G1 F1200
G1 X87.000 Y100.243 E2.73916
G1 E1.73916 F2400.00000
G92 E0
G1 X87.315 Y113.861 F7800.000
G1 E1.00000 F2400.00000
G1 F1200
G1 X87.239 Y113.785 E1.00476
G1 X87.239 Y113.280 E1.02731
G1 X87.820 Y113.861 E1.06397
G1 X88.326 Y113.861 E1.08652
G1 X87.239 Y112.774 E1.15507
G1 X87.239 Y112.268 E1.17762
G1 X88.832 Y113.861 E1.27805
G1 X89.337 Y113.861 E1.30060
G1 X87.239 Y111.763 E1.43293
G1 X87.239 Y111.257 E1.45548
G1 X89.843 Y113.861 E1.61970
G1 X90.349 Y113.861 E1.64225
G1 X87.239 Y110.751 E1.83835
G1 X87.239 Y110.246 E1.86090
G1 X90.854 Y113.861 E2.08890
G1 X91.360 Y113.861 E2.11144
G1 X87.239 Y109.740 E2.37133
G1 X87.239 Y109.234 E2.39388
G1 X91.866 Y113.861 E2.68565
G1 X92.371 Y113.861 E2.70820
G1 X87.239 Y108.729 E3.03186
G1 X87.239 Y108.223 E3.05441
G1 X92.877 Y113.861 E3.40996
G1 X93.382 Y113.861 E3.43251
G1 X87.239 Y107.718 E3.81995
G1 X87.239 Y107.212 E3.84250
G1 X93.888 Y113.861 E4.26182
G1 X94.394 Y113.861 E4.28437
G1 X87.239 Y106.706 E4.73559
G1 X87.239 Y106.201 E4.75814
G1 X94.899 Y113.861 E5.24124
G1 X95.405 Y113.861 E5.26379
G1 X87.239 Y105.695 E5.77879
G1 X87.239 Y105.189 E5.80134
G1 X95.911 Y113.861 E6.34822
G1 X96.416 Y113.861 E6.37077
G1 X87.239 Y104.684 E6.94954
G1 X87.239 Y104.178 E6.97209
G1 X96.922 Y113.861 E7.58275
G1 X97.428 Y113.861 E7.60530
G1 X87.239 Y103.672 E8.24785
G1 X87.239 Y103.167 E8.27040
G1 X97.933 Y113.861 E8.94484
G1 X98.439 Y113.861 E8.96739
G1 X87.239 Y102.661 E9.67372
G1 X87.239 Y102.155 E9.69627
G1 X98.945 Y113.861 E10.43448
G1 X99.450 Y113.861 E10.45703
G1 X87.239 Y101.650 E11.22714
G1 X87.239 Y101.144 E11.24969
G1 X99.956 Y113.861 E12.05168
G1 X100.461 Y113.861 E12.07423
G1 X87.340 Y100.739 E12.90177
G1 X87.845 Y100.739 E12.92432
G1 X100.967 Y113.861 E13.75186
G1 X101.473 Y113.861 E13.77441
G1 X88.351 Y100.739 E14.60195
G1 X88.857 Y100.739 E14.62450
G1 X101.978 Y113.861 E15.45204
G1 X102.484 Y113.861 E15.47459
G1 X89.362 Y100.739 E16.30213
G1 X89.868 Y100.739 E16.32468
G1 X102.990 Y113.861 E17.15222
G1 X103.495 Y113.861 E17.17477
G1 X90.374 Y100.739 E18.00231
G1 X90.879 Y100.739 E18.02486
G1 X104.001 Y113.861 E18.85240
G1 X104.507 Y113.861 E18.87495
G1 X91.385 Y100.739 E19.70249
G1 X91.890 Y100.739 E19.72504
G1 X105.012 Y113.861 E20.55258
G1 X105.518 Y113.861 E20.57513
G1 X92.396 Y100.739 E21.40267
G1 X92.902 Y100.739 E21.42522
G1 X106.023 Y113.861 E22.25276
G1 X106.529 Y113.861 E22.27531
G1 X93.407 Y100.739 E23.10285
G1 X93.913 Y100.739 E23.12540
G1 X107.035 Y113.861 E23.95294
G1 X107.540 Y113.861 E23.97549
G1 X94.419 Y100.739 E24.80303
G1 X94.924 Y100.739 E24.82558
G1 X108.046 Y113.861 E25.65312
G1 X108.552 Y113.861 E25.67567
G1 X95.430 Y100.739 E26.50321
G1 X95.936 Y100.739 E26.52576
G1 X109.057 Y113.861 E27.35330
G1 X109.563 Y113.861 E27.37585
G1 X96.441 Y100.739 E28.20339
G1 X96.947 Y100.739 E28.22594
G1 X110.069 Y113.861 E29.05348
G1 X110.574 Y113.861 E29.07603
G1 X97.453 Y100.739 E29.90357
G1 X97.958 Y100.739 E29.92612
G1 X111.080 Y113.861 E30.75366
G1 X111.586 Y113.861 E30.77621
G1 X98.464 Y100.739 E31.60375
G1 X98.969 Y100.739 E31.62630
G1 X112.091 Y113.861 E32.45384
G1 X112.597 Y113.861 E32.47639
G1 X99.475 Y100.739 E33.30394
G1 X99.981 Y100.739 E33.32648
G1 X112.761 Y113.519 E34.13248
G1 X112.761 Y113.014 E34.15503
G1 X100.486 Y100.739 E34.92914
G1 X100.992 Y100.739 E34.95169
G1 X112.761 Y112.508 E35.69391
G1 X112.761 Y112.002 E35.71646
G1 X101.498 Y100.739 E36.42679
G1 X102.003 Y100.739 E36.44934
G1 X112.761 Y111.497 E37.12778
G1 X112.761 Y110.991 E37.15033
G1 X102.509 Y100.739 E37.79689
G1 X103.015 Y100.739 E37.81944
G1 X112.761 Y110.485 E38.43410
G1 X112.761 Y109.980 E38.45665
G1 X103.520 Y100.739 E39.03943
G1 X104.026 Y100.739 E39.06198
