; generated by Slic3r 1.3.0-dev on 2018-06-09 at 12:23:46

; external perimeters extrusion width = 0.42mm (5.33mm^3/s)
; perimeters extrusion width = 0.42mm (5.33mm^3/s)
; infill extrusion width = 0.42mm (8.53mm^3/s)
; solid infill extrusion width = 0.42mm (2.13mm^3/s)
; top infill extrusion width = 0.42mm (1.60mm^3/s)
; support material extrusion width = 0.31mm (4.42mm^3/s)

M107
M190 S100 ; set bed temperature and wait for it to be reached
M104 S210 ; set temperature
G28 ; home all axes
G1 Z5 F5000 ; lift nozzle

; Filament gcode

M109 S210 ; set temperature and wait for it to be reached
G21 ; set units to millimeters
G90 ; use absolute coordinates
M82 ; use absolute distances for extrusion
G92 E0
G1 Z5.150 F7800.000
G1 E-1.00000 F2400.00000
G92 E0
G1 X62.594 Y44.343 F7800.000
G1 E1.00000 F2400.00000
G1 F2700
G1 X64.456 Y42.959 E1.05610
G1 X67.506 Y42.235 E1.13190
G1 X132.506 Y42.235 E2.70392
G1 X134.791 Y42.632 E2.76002
G1 X136.809 Y43.776 E2.81612
G1 X138.322 Y45.534 E2.87222
G1 X139.264 Y48.523 E2.94801
G1 X144.376 Y119.468 E4.66824
G1 X144.418 Y122.043 E4.73053
G1 X144.367 Y122.960 E4.75274
G1 X144.075 Y125.303 E4.80984
G1 X143.923 Y126.112 E4.82975
G1 X143.282 Y128.670 E4.89354
G1 X143.059 Y129.389 E4.91174
G1 X141.883 Y132.541 E4.99311
G1 X141.636 Y133.119 E5.00831
G1 X140.105 Y136.289 E5.09345
G1 X139.885 Y136.707 E5.10488
G1 X137.599 Y140.679 E5.21571
G1 X135.709 Y143.557 E5.29898
G1 X135.394 Y143.999 E5.31210
G1 X133.555 Y146.364 E5.38455
G1 X133.117 Y146.872 E5.40078
G1 X131.249 Y148.838 E5.46636
G1 X130.685 Y149.367 E5.48508
G1 X128.730 Y151.002 E5.54671
G1 X128.047 Y151.503 E5.56719
G1 X125.961 Y152.844 E5.62716
G1 X125.182 Y153.275 E5.64870
G1 X122.913 Y154.342 E5.70935
G1 X122.076 Y154.670 E5.73107
G1 X119.552 Y155.469 E5.79511
G1 X118.865 Y155.648 E5.81228
G1 X114.847 Y156.460 E5.91140
G1 X109.635 Y157.226 E6.03882
G1 X109.184 Y157.277 E6.04980
G1 X103.979 Y157.688 E6.17607
G1 X103.522 Y157.708 E6.18715
G1 X98.314 Y157.765 E6.31310
G1 X97.853 Y157.754 E6.32425
G1 X92.629 Y157.456 E6.45079
G1 X92.172 Y157.414 E6.46190
G1 X86.919 Y156.754 E6.58993
G1 X86.472 Y156.683 E6.60088
G1 X81.212 Y155.661 E6.73048
G1 X80.488 Y155.478 E6.74854
G1 X78.128 Y154.742 E6.80833
G1 X77.293 Y154.420 E6.82997
G1 X74.871 Y153.295 E6.89456
G1 X74.074 Y152.858 E6.91653
G1 X72.025 Y151.547 E6.97537
G1 X71.346 Y151.051 E6.99571
G1 X69.395 Y149.430 E7.05706
G1 X68.824 Y148.897 E7.07593
G1 X66.927 Y146.909 E7.14240
G1 X66.477 Y146.388 E7.15905
G1 X64.575 Y143.939 E7.23403
G1 X64.246 Y143.476 E7.24778
G1 X62.176 Y140.291 E7.33966
G1 X61.945 Y139.909 E7.35044
G1 X59.750 Y135.988 E7.45912
G1 X59.516 Y135.531 E7.47153
G1 X58.111 Y132.505 E7.55222
G1 X57.914 Y132.037 E7.56450
G1 X57.166 Y130.049 E7.61588
G1 X56.985 Y129.495 E7.62998
G1 X56.269 Y126.944 E7.69404
G1 X56.102 Y126.182 E7.71292
G1 X55.725 Y123.819 E7.77078
G1 X55.643 Y122.932 E7.79234
G1 X55.584 Y120.699 E7.84636
G1 X55.599 Y120.035 E7.86242
G1 X60.748 Y48.524 E9.59639
G1 X61.308 Y46.273 E9.65249
G1 X62.569 Y44.380 E9.70750
G1 X62.967 Y44.515 F7800.000
G1 F2700
G1 X64.809 Y43.220 E9.76196
G1 X67.506 Y42.622 E9.82876
G1 X132.506 Y42.622 E11.40078
G1 X134.722 Y43.019 E11.45523
G1 X136.663 Y44.161 E11.50969
G1 X138.088 Y45.904 E11.56415
G1 X138.877 Y48.551 E11.63094
G1 X143.989 Y119.496 E13.35118
G1 X144.030 Y122.047 E13.41290
G1 X143.982 Y122.912 E13.43384
G1 X143.690 Y125.255 E13.49094
G1 X143.547 Y126.017 E13.50971
G1 X142.906 Y128.576 E13.57350
G1 X142.696 Y129.253 E13.59065
G1 X141.520 Y132.406 E13.67202
G1 X141.287 Y132.951 E13.68635
G1 X139.756 Y136.121 E13.77150
G1 X139.549 Y136.515 E13.78227
G1 X137.274 Y140.466 E13.89253
G1 X135.385 Y143.345 E13.97579
G1 X135.088 Y143.761 E13.98817
G1 X133.249 Y146.125 E14.06062
G1 X132.836 Y146.605 E14.07592
G1 X130.968 Y148.571 E14.14150
G1 X130.436 Y149.070 E14.15915
G1 X128.481 Y150.705 E14.22078
G1 X127.838 Y151.177 E14.24008
G1 X125.752 Y152.518 E14.30005
G1 X125.017 Y152.924 E14.32036
G1 X122.748 Y153.991 E14.38101
G1 X121.959 Y154.300 E14.40148
G1 X119.435 Y155.100 E14.46552
G1 X118.787 Y155.268 E14.48171
G1 X114.791 Y156.076 E14.58031
G1 X109.579 Y156.842 E14.70772
G1 X109.154 Y156.890 E14.71807
G1 X103.949 Y157.301 E14.84434
G1 X103.517 Y157.320 E14.85479
G1 X98.310 Y157.377 E14.98074
G1 X97.875 Y157.367 E14.99125
G1 X92.651 Y157.069 E15.11780
G1 X92.220 Y157.029 E15.12827
G1 X86.968 Y156.370 E15.25629
G1 X86.546 Y156.302 E15.26662
G1 X81.286 Y155.280 E15.39622
G1 X80.603 Y155.108 E15.41324
G1 X78.243 Y154.372 E15.47303
G1 X77.456 Y154.068 E15.49343
G1 X75.034 Y152.944 E15.55802
G1 X74.283 Y152.532 E15.57873
G1 X72.234 Y151.221 E15.63757
G1 X71.594 Y150.753 E15.65675
G1 X69.643 Y149.131 E15.71809
G1 X69.105 Y148.629 E15.73589
G1 X67.207 Y146.641 E15.80236
G1 X66.784 Y146.150 E15.81805
G1 X64.881 Y143.702 E15.89303
G1 X64.571 Y143.265 E15.90599
G1 X62.283 Y139.720 E16.00803
G1 X60.088 Y135.799 E16.11671
G1 X59.868 Y135.368 E16.12841
G1 X58.463 Y132.342 E16.20910
G1 X58.277 Y131.901 E16.22068
G1 X57.529 Y129.912 E16.27206
G1 X57.358 Y129.390 E16.28535
G1 X56.643 Y126.840 E16.34941
G1 X56.485 Y126.120 E16.36721
G1 X56.108 Y123.758 E16.42507
G1 X56.031 Y122.921 E16.44540
G1 X55.971 Y120.689 E16.49941
G1 X55.986 Y120.063 E16.51456
G1 X61.134 Y48.551 E18.24852
G1 X61.689 Y46.369 E18.30298
G1 X62.942 Y44.552 E18.35635
G1 E17.35635 F2400.00000
G92 E0
G1 X70.556 Y100.842 F7800.000
G1 E1.00000 F2400.00000
G1 F2700
G1 X66.747 Y100.842 E1.09503
G1 X65.673 Y99.769 E1.13289
G1 X65.673 Y48.251 E2.41801
G1 X66.747 Y47.178 E2.45587
G1 X133.265 Y47.178 E4.11517
G1 X134.338 Y48.251 E4.15303
G1 X134.338 Y99.769 E5.43815
G1 X133.265 Y100.842 E5.47601
G1 X129.455 Y100.842 E5.57104
G1 X129.338 Y100.960 E5.57517
G1 X129.338 Y103.154 E5.62990
G1 X129.372 Y103.231 E5.63201
G1 X131.267 Y104.958 E5.69597
G1 X133.587 Y107.449 E5.78087
G1 X135.473 Y109.874 E5.85753
G1 X137.070 Y112.418 E5.93244
G1 X138.252 Y114.902 E6.00106
G1 X139.032 Y117.312 E6.06424
G1 X139.449 Y119.863 E6.12872
G1 X139.469 Y122.287 E6.18920
G1 X139.142 Y124.856 E6.25380
G1 X138.445 Y127.613 E6.32475
G1 X137.203 Y130.931 E6.41312
G1 X135.610 Y134.225 E6.50439
G1 X133.511 Y137.895 E6.60987
G1 X131.514 Y140.935 E6.70059
G1 X129.625 Y143.365 E6.77737
G1 X127.630 Y145.470 E6.84971
G1 X125.516 Y147.246 E6.91858
G1 X123.133 Y148.776 E6.98922
G1 X120.641 Y149.939 E7.05781
G1 X117.921 Y150.795 E7.12896
G1 X114.205 Y151.556 E7.22357
G1 X108.887 Y152.339 E7.35767
G1 X103.603 Y152.758 E7.48989
G1 X98.166 Y152.821 E7.62551
G1 X92.819 Y152.513 E7.75913
G1 X87.505 Y151.846 E7.89271
G1 X82.008 Y150.774 E8.03242
G1 X79.429 Y149.961 E8.09987
G1 X76.898 Y148.786 E8.16949
G1 X74.642 Y147.353 E8.23617
G1 X72.514 Y145.594 E8.30503
G1 X70.410 Y143.392 E8.38102
G1 X68.412 Y140.815 E8.46236
G1 X66.273 Y137.520 E8.56033
G1 X64.046 Y133.543 E8.67405
G1 X62.580 Y130.393 E8.76072
G1 X61.755 Y128.197 E8.81922
G1 X60.992 Y125.455 E8.89023
G1 X60.586 Y122.861 E8.95573
G1 X60.531 Y120.360 E9.01813
G1 X60.868 Y117.792 E9.08273
G1 X61.555 Y115.435 E9.14397
G1 X62.618 Y113.025 E9.20969
G1 X64.157 Y110.428 E9.28498
G1 X66.012 Y107.942 E9.36235
G1 X68.339 Y105.364 E9.44898
G1 X70.640 Y103.238 E9.52714
G1 X70.673 Y103.161 E9.52923
G1 X70.673 Y100.960 E9.58415
G1 X70.588 Y100.874 E9.58716
G1 X70.956 Y100.442 F7800.000
G1 F2700
G1 X66.912 Y100.442 E9.68804
G1 X66.073 Y99.603 E9.71763
G1 X66.073 Y48.417 E10.99449
G1 X66.912 Y47.578 E11.02408
G1 X133.099 Y47.578 E12.67511
G1 X133.938 Y48.417 E12.70471
G1 X133.938 Y99.603 E13.98156
G1 X133.099 Y100.442 E14.01115
G1 X129.055 Y100.442 E14.11203
G1 X128.938 Y100.560 E14.11616
G1 X128.938 Y103.331 E14.18529
G1 X128.972 Y103.408 E14.18739
G1 X130.980 Y105.237 E14.25515
G1 X133.276 Y107.701 E14.33918
G1 X135.152 Y110.112 E14.41536
G1 X136.714 Y112.601 E14.48867
G1 X137.841 Y114.953 E14.55373
G1 X138.640 Y117.393 E14.61777
G1 X139.049 Y119.883 E14.68071
G1 X139.070 Y122.251 E14.73979
G1 X138.751 Y124.770 E14.80314
G1 X138.066 Y127.484 E14.87295
G1 X136.839 Y130.766 E14.96036
G1 X135.259 Y134.033 E15.05087
G1 X133.166 Y137.691 E15.15602
G1 X131.193 Y140.696 E15.24568
G1 X129.269 Y143.165 E15.32378
G1 X127.348 Y145.186 E15.39333
G1 X125.269 Y146.931 E15.46103
G1 X122.951 Y148.420 E15.52976
G1 X120.508 Y149.561 E15.59703
G1 X117.830 Y150.406 E15.66706
G1 X114.130 Y151.163 E15.76127
G1 X108.835 Y151.943 E15.89478
G1 X103.572 Y152.360 E16.02649
G1 X98.182 Y152.421 E16.16093
G1 X92.862 Y152.115 E16.29388
G1 X87.562 Y151.450 E16.42712
G1 X82.117 Y150.389 E16.56550
G1 X79.586 Y149.593 E16.63169
G1 X77.079 Y148.429 E16.70064
G1 X74.868 Y147.023 E16.76601
G1 X72.779 Y145.294 E16.83365
G1 X70.719 Y143.138 E16.90802
G1 X68.742 Y140.590 E16.98847
G1 X66.619 Y137.319 E17.08575
G1 X64.399 Y133.354 E17.19911
G1 X62.946 Y130.231 E17.28503
G1 X62.138 Y128.081 E17.34232
G1 X61.403 Y125.461 E17.41019
G1 X60.986 Y122.837 E17.47648
G1 X60.929 Y120.395 E17.53741
G1 X61.256 Y117.888 E17.60047
G1 X61.927 Y115.584 E17.66033
G1 X62.979 Y113.197 E17.72541
G1 X64.484 Y110.659 E17.79900
G1 X66.370 Y108.137 E17.87757
G1 X68.629 Y105.639 E17.96158
G1 X71.040 Y103.413 E18.04343
G1 X71.073 Y103.337 E18.04552
G1 X71.073 Y100.560 E18.11479
G1 X70.988 Y100.474 E18.11780
G1 X71.356 Y100.042 F7800.000
G1 F2700
G1 X67.078 Y100.042 E18.22452
G1 X66.473 Y99.438 E18.24586
G1 X66.473 Y48.583 E19.51444
G1 X67.078 Y47.978 E19.53577
G1 X132.933 Y47.978 E21.17853
G1 X133.538 Y48.583 E21.19986
G1 X133.538 Y99.438 E22.46845
G1 X132.933 Y100.042 E22.48978
G1 X128.655 Y100.042 E22.59650
G1 X128.538 Y100.160 E22.60063
G1 X128.538 Y103.507 E22.68415
G1 X128.572 Y103.585 E22.68625
G1 X130.693 Y105.516 E22.75782
G1 X132.966 Y107.954 E22.84096
G1 X134.830 Y110.350 E22.91668
G1 X136.358 Y112.784 E22.98838
G1 X137.475 Y115.114 E23.05283
G1 X138.248 Y117.474 E23.11477
G1 X138.642 Y119.823 E23.17420
G1 X138.672 Y122.215 E23.23386
G1 X138.360 Y124.685 E23.29597
G1 X137.688 Y127.354 E23.36464
G1 X136.475 Y130.600 E23.45107
G1 X134.909 Y133.840 E23.54083
G1 X132.822 Y137.487 E23.64565
G1 X130.873 Y140.457 E23.73426
G1 X128.972 Y142.897 E23.81142
G1 X127.066 Y144.902 E23.88044
G1 X125.022 Y146.616 E23.94697
G1 X122.769 Y148.063 E24.01377
G1 X120.374 Y149.184 E24.07972
G1 X117.739 Y150.016 E24.14865
G1 X114.055 Y150.770 E24.24245
G1 X108.784 Y151.546 E24.37537
G1 X103.540 Y151.961 E24.50658
G1 X98.198 Y152.021 E24.63984
G1 X92.905 Y151.717 E24.77210
G1 X87.618 Y151.054 E24.90501
G1 X82.225 Y150.004 E25.04206
G1 X79.742 Y149.225 E25.10699
G1 X77.259 Y148.072 E25.17527
G1 X75.093 Y146.692 E25.23933
G1 X73.043 Y144.994 E25.30575
G1 X71.029 Y142.885 E25.37849
G1 X69.073 Y140.365 E25.45807
G1 X66.965 Y137.118 E25.55464
G1 X64.751 Y133.165 E25.66765
G1 X63.312 Y130.069 E25.75281
G1 X62.521 Y127.965 E25.80890
G1 X61.791 Y125.364 E25.87627
G1 X61.385 Y122.813 E25.94071
G1 X61.328 Y120.430 E26.00017
G1 X61.629 Y118.062 E26.05972
G1 X62.298 Y115.733 E26.12016
G1 X63.369 Y113.314 E26.18615
G1 X64.781 Y110.935 E26.25516
G1 X66.642 Y108.436 E26.33289
G1 X68.920 Y105.914 E26.41766
G1 X71.440 Y103.589 E26.50320
G1 X71.473 Y103.512 E26.50529
G1 X71.473 Y100.160 E26.58892
G1 X71.388 Y100.074 E26.59193
G1 X71.756 Y99.642 F7800.000
G1 F2700
G1 X67.244 Y99.642 E26.70449
G1 X66.873 Y99.272 E26.71756
G1 X66.873 Y48.748 E27.97788
G1 X67.244 Y48.378 E27.99094
G1 X132.768 Y48.378 E29.62544
G1 X133.138 Y48.748 E29.63850
G1 X133.138 Y99.272 E30.89882
G1 X132.768 Y99.642 E30.91189
G1 X128.255 Y99.642 E31.02445
G1 X128.138 Y99.760 E31.02858
G1 X128.138 Y103.684 E31.12649
G1 X128.172 Y103.762 E31.12860
G1 X130.407 Y105.795 E31.20396
G1 X132.656 Y108.207 E31.28623
G1 X134.508 Y110.588 E31.36147
G1 X136.003 Y112.967 E31.43156
G1 X137.109 Y115.275 E31.49541
G1 X137.856 Y117.555 E31.55526
G1 X138.245 Y119.874 E31.61392
G1 X138.273 Y122.179 E31.67142
G1 X137.969 Y124.600 E31.73228
G1 X137.309 Y127.225 E31.79980
G1 X136.110 Y130.435 E31.88527
G1 X134.558 Y133.647 E31.97428
G1 X132.478 Y137.283 E32.07877
G1 X130.552 Y140.217 E32.16632
G1 X128.675 Y142.628 E32.24254
G1 X126.784 Y144.618 E32.31102
G1 X124.775 Y146.301 E32.37638
G1 X122.586 Y147.707 E32.44127
G1 X120.241 Y148.807 E32.50590
G1 X117.649 Y149.626 E32.57371
G1 X113.981 Y150.377 E32.66711
G1 X108.732 Y151.149 E32.79944
G1 X103.509 Y151.562 E32.93015
G1 X98.214 Y151.622 E33.06222
G1 X92.948 Y151.320 E33.19381
G1 X87.675 Y150.657 E33.32638
G1 X82.334 Y149.619 E33.46211
G1 X79.899 Y148.856 E33.52577
G1 X77.440 Y147.715 E33.59338
G1 X75.287 Y146.339 E33.65712
G1 X73.308 Y144.693 E33.72133
G1 X71.339 Y142.631 E33.79246
G1 X69.404 Y140.140 E33.87114
G1 X67.310 Y136.917 E33.96701
G1 X65.104 Y132.976 E34.07967
G1 X63.678 Y129.907 E34.16408
G1 X62.904 Y127.848 E34.21896
G1 X62.180 Y125.267 E34.28583
G1 X61.785 Y122.789 E34.34842
G1 X61.727 Y120.466 E34.40641
G1 X62.024 Y118.128 E34.46519
G1 X62.670 Y115.882 E34.52348
G1 X63.719 Y113.508 E34.58823
G1 X65.119 Y111.148 E34.65667
G1 X66.957 Y108.682 E34.73338
G1 X69.230 Y106.169 E34.81793
G1 X71.840 Y103.764 E34.90645
G1 X71.873 Y103.687 E34.90854
G1 X71.873 Y99.760 E35.00652
G1 X71.788 Y99.674 E35.00953
G1 X72.156 Y99.242 F7800.000
G1 F2700
G1 X67.409 Y99.242 E35.12794
G1 X67.273 Y99.106 E35.13274
G1 X67.273 Y48.914 E36.38480
G1 X67.409 Y48.778 E36.38959
G1 X132.602 Y48.778 E38.01582
G1 X132.738 Y48.914 E38.02062
G1 X132.738 Y99.106 E39.27267
G1 X132.602 Y99.242 E39.27747
G1 X127.855 Y99.242 E39.39588
G1 X127.738 Y99.360 E39.40002
G1 X127.738 Y103.861 E39.51231
G1 X127.772 Y103.939 E39.51442
G1 X130.120 Y106.074 E39.59359
G1 X132.346 Y108.459 E39.67498
G1 X134.186 Y110.825 E39.74975
G1 X135.640 Y113.139 E39.81791
G1 X136.742 Y115.436 E39.88147
G1 X137.460 Y117.619 E39.93879
G1 X137.848 Y119.925 E39.99713
G1 X137.874 Y122.143 E40.05245
G1 X137.578 Y124.514 E40.11207
G1 X136.930 Y127.096 E40.17845
G1 X135.746 Y130.269 E40.26295
G1 X134.207 Y133.455 E40.35120
G1 X132.134 Y137.080 E40.45537
G1 X130.231 Y139.978 E40.54186
G1 X128.378 Y142.360 E40.61714
G1 X126.502 Y144.335 E40.68509
G1 X124.528 Y145.986 E40.74928
G1 X122.404 Y147.350 E40.81225
G1 X120.107 Y148.429 E40.87556
G1 X117.558 Y149.236 E40.94225
G1 X113.906 Y149.984 E41.03525
G1 X108.673 Y150.753 E41.16719
G1 X103.462 Y151.165 E41.29759
G1 X98.230 Y151.222 E41.42809
G1 X92.991 Y150.922 E41.55900
G1 X87.731 Y150.261 E41.69124
G1 X82.443 Y149.234 E41.82563
G1 X80.055 Y148.488 E41.88803
G1 X77.621 Y147.358 E41.95498
G1 X75.533 Y146.023 E42.01678
G1 X73.572 Y144.393 E42.08040
G1 X71.648 Y142.378 E42.14990
G1 X69.735 Y139.915 E42.22770
G1 X67.656 Y136.715 E42.32287
G1 X65.457 Y132.787 E42.43517
G1 X64.044 Y129.746 E42.51884
G1 X63.287 Y127.732 E42.57250
G1 X62.568 Y125.170 E42.63887
G1 X62.184 Y122.765 E42.69962
G1 X62.126 Y120.501 E42.75613
G1 X62.422 Y118.176 E42.81460
G1 X63.041 Y116.031 E42.87027
G1 X64.069 Y113.702 E42.93379
G1 X65.464 Y111.351 E43.00198
G1 X67.278 Y108.921 E43.07763
G1 X69.501 Y106.464 E43.16026
G1 X72.240 Y103.939 E43.25319
G1 X72.273 Y103.863 E43.25528
G1 X72.273 Y99.360 E43.36761
G1 X72.188 Y99.274 E43.37062
G1 E42.37062 F2400.00000
G92 E0
G1 X127.296 Y98.800 F7800.000
G1 E1.00000 F2400.00000
G1 F2250
G1 X127.296 Y104.103 E1.12825
G1 X129.806 Y106.385 E1.21030
G1 X132.006 Y108.742 E1.28828
G1 X133.827 Y111.084 E1.36002
G1 X135.256 Y113.358 E1.42497
G1 X136.334 Y115.608 E1.48531
G1 X137.032 Y117.734 E1.53942
G1 X137.408 Y119.973 E1.59435
G1 X137.433 Y122.110 E1.64603
G1 X137.144 Y124.426 E1.70247
G1 X136.510 Y126.958 E1.76560
G1 X135.341 Y130.090 E1.84645
G1 X133.818 Y133.245 E1.93118
G1 X131.755 Y136.851 E2.03166
G1 X129.874 Y139.717 E2.11456
G1 X128.047 Y142.067 E2.18656
G1 X126.194 Y144.016 E2.25160
G1 X124.260 Y145.634 E2.31256
G1 X122.197 Y146.959 E2.37189
G1 X119.953 Y148.014 E2.43185
G1 X117.453 Y148.807 E2.49528
G1 X113.826 Y149.549 E2.58481
G1 X108.627 Y150.313 E2.71189
G1 X103.438 Y150.723 E2.83779
G1 X98.245 Y150.780 E2.96339
G1 X93.035 Y150.482 E3.08959
G1 X87.797 Y149.824 E3.21726
G1 X82.557 Y148.806 E3.34636
G1 X80.222 Y148.078 E3.40553
G1 X77.832 Y146.969 E3.46924
G1 X75.800 Y145.670 E3.52756
G1 X73.869 Y144.065 E3.58829
G1 X71.987 Y142.093 E3.65421
