; generated by Slic3r 1.3.0-dev on 2018-06-09 at 12:22:32

; external perimeters extrusion width = 0.42mm (5.33mm^3/s)
; perimeters extrusion width = 0.42mm (5.33mm^3/s)
; infill extrusion width = 0.42mm (8.53mm^3/s)
; solid infill extrusion width = 0.42mm (2.13mm^3/s)
; top infill extrusion width = 0.42mm (1.60mm^3/s)
; support material extrusion width = 0.31mm (4.42mm^3/s)

M107
M190 S100 ; set bed temperature and wait for it to be reached
M104 S210 ; set temperature
G28 ; home all axes
G1 Z5 F5000 ; lift nozzle

; Filament gcode

M109 S210 ; set temperature and wait for it to be reached
G21 ; set units to millimeters
G90 ; use absolute coordinates
M82 ; use absolute distances for extrusion
G92 E0
G1 Z5.150 F7800.000
G1 E-1.00000 F2400.00000
G92 E0
G1 X62.587 Y44.345 F7800.000
G1 E1.00000 F2400.00000
G1 F2700
G1 X64.450 Y42.962 E1.05610
G1 X67.499 Y42.237 E1.13189
G1 X132.499 Y42.237 E2.70391
G1 X134.784 Y42.634 E2.76001
G1 X136.802 Y43.779 E2.81611
G1 X138.315 Y45.537 E2.87221
G1 X139.257 Y48.526 E2.94801
G1 X144.401 Y119.946 E4.67976
G1 X144.417 Y120.567 E4.69479
G1 X144.374 Y122.766 E4.74799
G1 X144.298 Y123.649 E4.76942
G1 X143.945 Y125.972 E4.82625
G1 X143.785 Y126.732 E4.84503
G1 X143.103 Y129.236 E4.90778
G1 X142.892 Y129.884 E4.92427
G1 X141.809 Y132.705 E4.99734
G1 X141.584 Y133.225 E5.01105
G1 X140.145 Y136.204 E5.09107
G1 X139.920 Y136.630 E5.10271
G1 X137.630 Y140.620 E5.21397
G1 X137.387 Y141.010 E5.22509
G1 X135.409 Y143.971 E5.31121
G1 X135.066 Y144.440 E5.32526
G1 X133.194 Y146.779 E5.39772
G1 X132.733 Y147.298 E5.41451
G1 X130.856 Y149.206 E5.47924
G1 X130.279 Y149.729 E5.49808
G1 X128.345 Y151.287 E5.55814
G1 X127.664 Y151.770 E5.57833
G1 X125.629 Y153.032 E5.63624
G1 X124.836 Y153.453 E5.65795
G1 X122.439 Y154.531 E5.72152
G1 X121.645 Y154.830 E5.74204
G1 X119.482 Y155.492 E5.79673
G1 X118.794 Y155.664 E5.81390
G1 X113.608 Y156.673 E5.94167
G1 X113.167 Y156.744 E5.95248
G1 X107.988 Y157.402 E6.07874
G1 X107.537 Y157.444 E6.08969
G1 X102.385 Y157.751 E6.21450
G1 X101.931 Y157.763 E6.22550
G1 X96.795 Y157.723 E6.34971
G1 X96.342 Y157.705 E6.36067
G1 X91.211 Y157.322 E6.48511
G1 X90.765 Y157.273 E6.49597
G1 X85.236 Y156.478 E6.63105
G1 X81.156 Y155.654 E6.73171
G1 X80.458 Y155.474 E6.74916
G1 X77.967 Y154.687 E6.81234
G1 X77.141 Y154.366 E6.83376
G1 X74.899 Y153.319 E6.89361
G1 X74.128 Y152.896 E6.91487
G1 X72.065 Y151.583 E6.97403
G1 X71.385 Y151.089 E6.99435
G1 X69.452 Y149.491 E7.05500
G1 X68.889 Y148.969 E7.07358
G1 X67.041 Y147.050 E7.13801
G1 X66.601 Y146.545 E7.15421
G1 X64.784 Y144.240 E7.22517
G1 X64.464 Y143.798 E7.23838
G1 X62.387 Y140.653 E7.32954
G1 X60.363 Y137.162 E7.42712
G1 X60.152 Y136.771 E7.43787
G1 X58.577 Y133.591 E7.52369
G1 X58.335 Y133.042 E7.53820
G1 X57.119 Y129.920 E7.61924
G1 X56.894 Y129.233 E7.63672
G1 X56.199 Y126.671 E7.70092
G1 X56.037 Y125.894 E7.72012
G1 X55.689 Y123.547 E7.77749
G1 X55.617 Y122.661 E7.79900
G1 X55.582 Y120.492 E7.85146
G1 X55.599 Y119.897 E7.86584
G1 X60.741 Y48.526 E9.59643
G1 X61.301 Y46.275 E9.65253
G1 X62.563 Y44.382 E9.70754
G1 X62.960 Y44.518 F7800.000
G1 F2700
G1 X64.802 Y43.222 E9.76200
G1 X67.499 Y42.625 E9.82879
G1 X132.499 Y42.625 E11.40081
G1 X134.715 Y43.022 E11.45527
G1 X136.656 Y44.163 E11.50973
G1 X138.081 Y45.907 E11.56418
G1 X138.870 Y48.554 E11.63098
G1 X144.014 Y119.974 E13.36273
G1 X144.029 Y120.559 E13.37690
G1 X143.986 Y122.759 E13.43011
G1 X143.915 Y123.591 E13.45031
G1 X143.562 Y125.914 E13.50714
G1 X143.410 Y126.630 E13.52484
G1 X142.729 Y129.134 E13.58759
G1 X142.530 Y129.745 E13.60313
G1 X141.447 Y132.566 E13.67620
G1 X141.235 Y133.056 E13.68913
G1 X139.796 Y136.035 E13.76915
G1 X139.584 Y136.436 E13.78012
G1 X137.293 Y140.426 E13.89139
G1 X137.065 Y140.795 E13.90187
G1 X135.087 Y143.756 E13.98799
G1 X134.763 Y144.198 E14.00124
G1 X132.891 Y146.537 E14.07369
G1 X132.457 Y147.026 E14.08953
G1 X130.580 Y148.934 E14.15426
G1 X130.035 Y149.427 E14.17201
G1 X128.102 Y150.985 E14.23208
G1 X127.460 Y151.440 E14.25110
G1 X125.425 Y152.702 E14.30902
G1 X124.677 Y153.100 E14.32948
G1 X122.280 Y154.177 E14.39306
G1 X121.531 Y154.459 E14.41240
G1 X119.369 Y155.121 E14.46710
G1 X118.720 Y155.283 E14.48328
G1 X113.534 Y156.293 E14.61105
G1 X113.118 Y156.359 E14.62124
G1 X107.939 Y157.017 E14.74750
G1 X107.514 Y157.057 E14.75783
G1 X102.362 Y157.364 E14.88264
G1 X101.934 Y157.375 E14.89300
G1 X96.798 Y157.336 E15.01721
G1 X96.371 Y157.318 E15.02755
G1 X91.240 Y156.935 E15.15199
G1 X90.819 Y156.889 E15.16222
G1 X85.681 Y156.161 E15.28774
G1 X81.233 Y155.274 E15.39742
G1 X80.575 Y155.104 E15.41386
G1 X78.084 Y154.317 E15.47704
G1 X77.305 Y154.014 E15.49725
G1 X75.063 Y152.967 E15.55709
G1 X74.337 Y152.569 E15.57714
G1 X72.273 Y151.256 E15.63630
G1 X71.632 Y150.790 E15.65545
G1 X69.699 Y149.192 E15.71610
G1 X69.168 Y148.700 E15.73361
G1 X67.320 Y146.781 E15.79804
G1 X66.905 Y146.305 E15.81332
G1 X65.089 Y144.000 E15.88428
G1 X64.787 Y143.584 E15.89673
G1 X62.929 Y140.790 E15.97787
G1 X60.698 Y136.968 E16.08490
G1 X58.925 Y133.419 E16.18085
G1 X58.697 Y132.901 E16.19453
G1 X57.481 Y129.779 E16.27557
G1 X57.268 Y129.132 E16.29204
G1 X56.574 Y126.570 E16.35624
G1 X56.421 Y125.837 E16.37434
G1 X56.073 Y123.490 E16.43171
G1 X56.004 Y122.655 E16.45199
G1 X55.970 Y120.486 E16.50446
G1 X55.986 Y119.925 E16.51802
G1 X61.127 Y48.554 E18.24860
G1 X61.683 Y46.372 E18.30306
G1 X62.935 Y44.555 E18.35643
G1 E17.35643 F2400.00000
G92 E0
G1 X70.549 Y100.845 F7800.000
G1 E1.00000 F2400.00000
G1 F2700
G1 X66.740 Y100.845 E1.09503
G1 X65.667 Y99.772 E1.13289
G1 X65.667 Y48.254 E2.41801
G1 X66.740 Y47.181 E2.45587
G1 X133.258 Y47.181 E4.11517
G1 X134.331 Y48.254 E4.15303
G1 X134.331 Y99.772 E5.43815
G1 X133.258 Y100.845 E5.47601
G1 X129.448 Y100.845 E5.57104
G1 X129.331 Y100.962 E5.57517
G1 X129.331 Y103.163 E5.63008
G1 X129.365 Y103.240 E5.63217
G1 X131.627 Y105.327 E5.70895
G1 X133.931 Y107.870 E5.79456
G1 X135.776 Y110.325 E5.87116
G1 X137.317 Y112.893 E5.94585
G1 X138.433 Y115.394 E6.01419
G1 X139.121 Y117.725 E6.07481
G1 X139.468 Y120.260 E6.13864
G1 X139.430 Y122.728 E6.20021
G1 X139.028 Y125.384 E6.26721
G1 X138.293 Y128.070 E6.33669
G1 X137.150 Y131.040 E6.41606
G1 X135.649 Y134.140 E6.50198
G1 X133.327 Y138.185 E6.61833
G1 X131.277 Y141.257 E6.71046
G1 X129.305 Y143.727 E6.78930
G1 X127.218 Y145.847 E6.86351
G1 X125.199 Y147.474 E6.92818
G1 X122.973 Y148.862 E6.99364
G1 X120.360 Y150.045 E7.06519
G1 X117.989 Y150.779 E7.12708
G1 X112.574 Y151.836 E7.26472
G1 X107.334 Y152.502 E7.39647
G1 X102.061 Y152.818 E7.52826
G1 X96.741 Y152.777 E7.66097
G1 X91.489 Y152.383 E7.79236
G1 X86.241 Y151.638 E7.92458
G1 X82.088 Y150.799 E8.03026
G1 X79.399 Y149.955 E8.10057
G1 X76.937 Y148.814 E8.16826
G1 X74.579 Y147.315 E8.23797
G1 X72.486 Y145.577 E8.30582
G1 X70.570 Y143.588 E8.37470
G1 X68.644 Y141.152 E8.45219
G1 X66.677 Y138.196 E8.54074
G1 X64.624 Y134.657 E8.64282
G1 X62.989 Y131.361 E8.73459
G1 X61.708 Y128.081 E8.82243
G1 X60.957 Y125.327 E8.89363
G1 X60.570 Y122.763 E8.95832
G1 X60.524 Y120.344 E9.01867
G1 X60.863 Y117.789 E9.08295
G1 X61.608 Y115.278 E9.14830
G1 X62.701 Y112.855 E9.21461
G1 X64.203 Y110.351 E9.28744
G1 X66.043 Y107.898 E9.36393
G1 X68.261 Y105.439 E9.44653
G1 X70.634 Y103.216 E9.52765
G1 X70.667 Y103.140 E9.52972
G1 X70.667 Y100.962 E9.58403
G1 X70.581 Y100.877 E9.58705
G1 X70.949 Y100.445 F7800.000
G1 F2700
G1 X66.905 Y100.445 E9.68792
G1 X66.067 Y99.606 E9.71752
G1 X66.067 Y48.420 E10.99437
G1 X66.905 Y47.581 E11.02397
G1 X133.092 Y47.581 E12.67499
G1 X133.931 Y48.420 E12.70459
G1 X133.931 Y99.606 E13.98144
G1 X133.092 Y100.445 E14.01104
G1 X129.048 Y100.445 E14.11191
G1 X128.931 Y100.562 E14.11605
G1 X128.931 Y103.339 E14.18531
G1 X128.965 Y103.416 E14.18740
G1 X131.337 Y105.603 E14.26789
G1 X133.575 Y108.066 E14.35091
G1 X135.450 Y110.557 E14.42869
G1 X136.916 Y112.990 E14.49954
G1 X138.062 Y115.545 E14.56940
G1 X138.733 Y117.823 E14.62862
G1 X139.070 Y120.298 E14.69094
G1 X139.030 Y122.707 E14.75105
G1 X138.639 Y125.290 E14.81621
G1 X137.916 Y127.936 E14.88464
G1 X136.786 Y130.873 E14.96314
G1 X135.299 Y133.947 E15.04832
G1 X132.984 Y137.980 E15.16433
G1 X130.949 Y141.028 E15.25573
G1 X128.999 Y143.469 E15.33368
G1 X126.958 Y145.542 E15.40625
G1 X124.958 Y147.154 E15.47033
G1 X122.773 Y148.515 E15.53454
G1 X120.207 Y149.676 E15.60478
G1 X117.882 Y150.393 E15.66548
G1 X112.517 Y151.440 E15.80184
G1 X107.291 Y152.104 E15.93326
G1 X102.044 Y152.418 E16.06438
G1 X96.764 Y152.378 E16.19609
G1 X91.538 Y151.986 E16.32682
G1 X86.314 Y151.244 E16.45843
G1 X82.178 Y150.409 E16.56370
G1 X79.532 Y149.578 E16.63289
G1 X77.118 Y148.457 E16.69928
G1 X74.824 Y146.998 E16.76709
G1 X72.766 Y145.291 E16.83378
G1 X70.865 Y143.318 E16.90213
G1 X68.963 Y140.910 E16.97867
G1 X67.020 Y137.990 E17.06616
G1 X64.973 Y134.462 E17.16792
G1 X63.352 Y131.191 E17.25898
G1 X62.085 Y127.945 E17.34590
G1 X61.346 Y125.234 E17.41601
G1 X60.968 Y122.717 E17.47949
G1 X60.924 Y120.353 E17.53848
G1 X61.257 Y117.859 E17.60124
G1 X61.978 Y115.430 E17.66444
G1 X63.100 Y112.955 E17.73222
G1 X64.530 Y110.583 E17.80132
G1 X66.305 Y108.209 E17.87526
G1 X68.540 Y105.725 E17.95862
G1 X71.034 Y103.389 E18.04384
G1 X71.067 Y103.313 E18.04591
G1 X71.067 Y100.562 E18.11453
G1 X70.981 Y100.477 E18.11754
G1 X71.349 Y100.045 F7800.000
G1 F2700
G1 X67.071 Y100.045 E18.22426
G1 X66.467 Y99.440 E18.24559
G1 X66.467 Y48.585 E19.51418
G1 X67.071 Y47.981 E19.53551
G1 X132.926 Y47.981 E21.17827
G1 X133.531 Y48.585 E21.19960
G1 X133.531 Y99.440 E22.46819
G1 X132.926 Y100.045 E22.48952
G1 X128.648 Y100.045 E22.59624
G1 X128.531 Y100.162 E22.60037
G1 X128.531 Y103.514 E22.68399
G1 X128.565 Y103.591 E22.68608
G1 X131.047 Y105.878 E22.77028
G1 X133.272 Y108.329 E22.85285
G1 X135.124 Y110.789 E22.92967
G1 X136.567 Y113.185 E22.99944
G1 X137.691 Y115.696 E23.06806
G1 X138.345 Y117.920 E23.12589
G1 X138.671 Y120.335 E23.18669
G1 X138.631 Y122.686 E23.24533
G1 X138.250 Y125.196 E23.30866
G1 X137.538 Y127.802 E23.37606
G1 X136.422 Y130.707 E23.45367
G1 X134.949 Y133.754 E23.53811
G1 X132.640 Y137.775 E23.65377
G1 X130.621 Y140.799 E23.74446
G1 X128.693 Y143.212 E23.82151
G1 X126.698 Y145.238 E23.89245
G1 X124.716 Y146.835 E23.95594
G1 X122.574 Y148.168 E24.01889
G1 X120.055 Y149.306 E24.08783
G1 X117.775 Y150.008 E24.14733
G1 X112.460 Y151.044 E24.28242
G1 X107.247 Y151.706 E24.41350
G1 X102.027 Y152.019 E24.54396
G1 X96.787 Y151.979 E24.67466
G1 X91.588 Y151.589 E24.80472
G1 X86.388 Y150.851 E24.93573
G1 X82.267 Y150.019 E25.04060
G1 X79.665 Y149.200 E25.10866
G1 X77.299 Y148.100 E25.17374
G1 X75.069 Y146.682 E25.23966
G1 X73.046 Y145.006 E25.30519
G1 X71.160 Y143.047 E25.37301
G1 X69.282 Y140.669 E25.44861
G1 X67.363 Y137.784 E25.53504
G1 X65.323 Y134.267 E25.63648
G1 X63.714 Y131.022 E25.72683
G1 X62.462 Y127.810 E25.81281
G1 X61.735 Y125.140 E25.88183
G1 X61.360 Y122.604 E25.94580
G1 X61.329 Y120.283 E26.00369
G1 X61.651 Y117.928 E26.06298
G1 X62.348 Y115.582 E26.12403
G1 X63.448 Y113.151 E26.19059
G1 X64.856 Y110.814 E26.25865
G1 X66.620 Y108.456 E26.33211
G1 X68.820 Y106.011 E26.41416
G1 X71.434 Y103.563 E26.50349
G1 X71.467 Y103.486 E26.50556
G1 X71.467 Y100.162 E26.58849
G1 X71.381 Y100.077 E26.59150
G1 X71.749 Y99.645 F7800.000
G1 F2700
G1 X67.237 Y99.645 E26.70406
G1 X66.867 Y99.275 E26.71713
G1 X66.867 Y48.751 E27.97745
G1 X67.237 Y48.381 E27.99051
G1 X132.761 Y48.381 E29.62501
G1 X133.131 Y48.751 E29.63807
G1 X133.131 Y99.275 E30.89839
G1 X132.761 Y99.645 E30.91145
G1 X128.248 Y99.645 E31.02402
G1 X128.131 Y99.762 E31.02815
G1 X128.131 Y103.690 E31.12612
G1 X128.165 Y103.767 E31.12822
G1 X130.757 Y106.154 E31.21612
G1 X132.970 Y108.591 E31.29824
G1 X134.798 Y111.021 E31.37410
G1 X136.218 Y113.381 E31.44280
G1 X137.321 Y115.846 E31.51017
G1 X137.957 Y118.017 E31.56661
G1 X138.273 Y120.373 E31.62589
G1 X138.231 Y122.665 E31.68308
G1 X137.861 Y125.102 E31.74456
G1 X137.161 Y127.668 E31.81092
G1 X136.059 Y130.540 E31.88766
G1 X134.598 Y133.561 E31.97136
G1 X132.296 Y137.570 E32.08667
G1 X130.294 Y140.569 E32.17664
G1 X128.387 Y142.954 E32.25279
G1 X126.438 Y144.934 E32.32210
G1 X124.475 Y146.516 E32.38500
G1 X122.374 Y147.821 E32.44670
G1 X119.902 Y148.936 E32.51433
G1 X117.668 Y149.622 E32.57264
G1 X112.403 Y150.648 E32.70644
G1 X107.203 Y151.309 E32.83720
G1 X101.988 Y151.619 E32.96752
G1 X96.831 Y151.580 E33.09616
G1 X91.658 Y151.194 E33.22556
G1 X86.479 Y150.461 E33.35603
G1 X82.357 Y149.629 E33.46094
G1 X79.798 Y148.823 E33.52788
G1 X77.480 Y147.743 E33.59166
G1 X75.346 Y146.389 E33.65470
G1 X73.353 Y144.745 E33.71916
G1 X71.435 Y142.754 E33.78812
G1 X69.587 Y140.407 E33.86263
G1 X67.706 Y137.578 E33.94737
G1 X65.662 Y134.053 E34.04901
G1 X64.076 Y130.852 E34.13813
G1 X62.838 Y127.675 E34.22318
G1 X62.124 Y125.047 E34.29111
G1 X61.760 Y122.584 E34.35322
G1 X61.727 Y120.322 E34.40965
G1 X62.045 Y117.998 E34.46818
G1 X62.718 Y115.734 E34.52708
G1 X63.797 Y113.347 E34.59242
G1 X65.183 Y111.046 E34.65943
G1 X66.935 Y108.703 E34.73242
G1 X69.100 Y106.297 E34.81315
G1 X71.830 Y103.752 E34.90625
G1 X71.867 Y103.672 E34.90844
G1 X71.867 Y99.762 E35.00598
G1 X71.781 Y99.677 E35.00899
G1 X72.149 Y99.245 F7800.000
G1 F2700
G1 X67.403 Y99.245 E35.12740
G1 X67.267 Y99.109 E35.13220
G1 X67.267 Y48.917 E36.38425
G1 X67.403 Y48.781 E36.38905
G1 X132.595 Y48.781 E38.01528
G1 X132.731 Y48.917 E38.02008
G1 X132.731 Y99.109 E39.27213
G1 X132.595 Y99.245 E39.27693
G1 X127.848 Y99.245 E39.39534
G1 X127.731 Y99.362 E39.39947
G1 X127.731 Y103.865 E39.51180
G1 X127.765 Y103.942 E39.51389
G1 X130.466 Y106.429 E39.60550
G1 X132.668 Y108.853 E39.68717
G1 X134.472 Y111.253 E39.76208
G1 X135.869 Y113.576 E39.82970
G1 X136.950 Y115.997 E39.89582
G1 X137.568 Y118.115 E39.95087
G1 X137.874 Y120.411 E40.00864
G1 X137.831 Y122.644 E40.06436
G1 X137.472 Y125.008 E40.12401
G1 X136.784 Y127.535 E40.18933
G1 X135.695 Y130.374 E40.26519
G1 X134.248 Y133.368 E40.34815
G1 X131.953 Y137.365 E40.46312
G1 X129.966 Y140.340 E40.55236
G1 X128.081 Y142.696 E40.62762
G1 X126.178 Y144.630 E40.69530
G1 X124.234 Y146.197 E40.75760
G1 X122.175 Y147.475 E40.81804
G1 X119.750 Y148.566 E40.88438
G1 X117.561 Y149.237 E40.94148
G1 X112.346 Y150.252 E41.07401
G1 X107.159 Y150.911 E41.20443
G1 X101.984 Y151.219 E41.33375
G1 X96.833 Y151.180 E41.46225
G1 X91.694 Y150.796 E41.59080
G1 X86.541 Y150.066 E41.72062
G1 X82.447 Y149.239 E41.82483
G1 X79.931 Y148.445 E41.89064
G1 X77.661 Y147.386 E41.95312
G1 X75.560 Y146.050 E42.01524
G1 X73.616 Y144.444 E42.07813
G1 X71.743 Y142.498 E42.14550
G1 X69.915 Y140.179 E42.21916
G1 X68.049 Y137.372 E42.30324
G1 X66.018 Y133.870 E42.40424
G1 X64.439 Y130.682 E42.49297
G1 X63.215 Y127.540 E42.57710
G1 X62.514 Y124.954 E42.64393
G1 X62.159 Y122.565 E42.70419
G1 X62.126 Y120.362 E42.75915
G1 X62.443 Y118.050 E42.81736
G1 X63.088 Y115.887 E42.87367
G1 X64.146 Y113.543 E42.93780
G1 X65.509 Y111.277 E43.00376
G1 X67.257 Y108.942 E43.07653
G1 X69.379 Y106.583 E43.15568
G1 X71.951 Y104.174 E43.24357
G1 X72.230 Y103.937 E43.25271
G1 X72.267 Y103.857 E43.25490
G1 X72.267 Y99.362 E43.36703
G1 X72.181 Y99.277 E43.37004
G1 E42.37004 F2400.00000
G92 E0
G1 X127.289 Y98.803 F7800.000
G1 E1.00000 F2400.00000
G1 F2250
G1 X127.289 Y104.105 E1.12823
G1 X130.149 Y106.737 E1.22224
G1 X132.330 Y109.139 E1.30070
G1 X134.108 Y111.505 E1.37229
G1 X135.480 Y113.787 E1.43668
G1 X136.537 Y116.157 E1.49943
G1 X137.137 Y118.215 E1.55128
G1 X137.433 Y120.444 E1.60567
G1 X137.390 Y122.614 E1.65815
G1 X137.041 Y124.910 E1.71432
G1 X136.366 Y127.392 E1.77652
G1 X135.291 Y130.194 E1.84910
G1 X133.858 Y133.158 E1.92872
G1 X131.575 Y137.135 E2.03964
G1 X129.606 Y140.083 E2.12537
G1 X127.746 Y142.407 E2.19735
G1 X125.886 Y144.297 E2.26150
G1 X123.972 Y145.840 E2.32095
G1 X121.960 Y147.087 E2.37820
G1 X119.587 Y148.154 E2.44112
G1 X117.448 Y148.809 E2.49523
G1 X112.280 Y149.815 E2.62257
G1 X107.115 Y150.471 E2.74849
G1 X101.977 Y150.777 E2.87296
G1 X96.855 Y150.738 E2.99683
G1 X91.738 Y150.356 E3.12093
G1 X86.613 Y149.629 E3.24613
G1 X82.551 Y148.809 E3.34634
G1 X80.084 Y148.030 E3.40891
G1 X77.867 Y146.995 E3.46809
