; generated by Slic3r 1.3.0-dev on 2018-06-02 at 10:33:24

; external perimeters extrusion width = 0.42mm (4.27mm^3/s)
; perimeters extrusion width = 0.42mm (6.40mm^3/s)
; infill extrusion width = 0.42mm (8.53mm^3/s)
; solid infill extrusion width = 0.42mm (2.13mm^3/s)
; top infill extrusion width = 0.42mm (1.60mm^3/s)
; support material extrusion width = 0.31mm (4.42mm^3/s)

M107
M190 S100 ; set bed temperature and wait for it to be reached
M104 S210 ; set temperature
G28 ; home all axes
G1 Z5 F5000 ; lift nozzle

; Filament gcode

M109 S210 ; set temperature and wait for it to be reached
G21 ; set units to millimeters
G90 ; use absolute coordinates
M82 ; use absolute distances for extrusion
G92 E0
G1 Z5.150 F7800.000
G1 E-1.00000 F2400.00000
G92 E0
G1 X77.926 Y100.931 F7800.000
G1 E1.00000 F2400.00000
G1 F2394.59
G1 X103.211 Y75.483 E1.86762
G1 X105.026 Y74.219 E1.92111
G1 X107.583 Y73.663 E1.98439
G1 X116.022 Y73.663 E2.18849
G1 X118.198 Y74.060 E2.24197
G1 X120.093 Y75.199 E2.29546
G1 X121.465 Y76.934 E2.34894
G1 X122.105 Y78.835 E2.39746
G1 X128.166 Y116.091 E3.31033
G1 X128.230 Y116.974 E3.33175
G1 X128.230 Y120.884 E3.42630
G1 X128.120 Y122.041 E3.45441
G1 X127.247 Y126.606 E3.56681
G1 X126.531 Y128.530 E3.61646
G1 X125.633 Y130.086 E3.65992
G1 X124.201 Y131.772 E3.71341
G1 X123.094 Y132.496 E3.74540
G1 X120.899 Y133.614 E3.80498
G1 X118.781 Y134.249 E3.85846
G1 X116.351 Y134.033 E3.91745
G1 X114.644 Y133.518 E3.96058
G1 X83.404 Y122.444 E4.76217
G1 X82.813 Y122.199 E4.77766
G1 X81.673 Y121.656 E4.80820
G1 X80.952 Y121.256 E4.82812
G1 X80.197 Y120.729 E4.85039
G1 X79.596 Y120.210 E4.86959
G1 X79.344 Y119.957 E4.87824
G1 X78.646 Y119.072 E4.90550
G1 X78.171 Y118.343 E4.92654
G1 X77.307 Y116.263 E4.98101
G1 X76.270 Y111.391 E5.10148
G1 X76.134 Y110.107 E5.13270
G1 X76.134 Y105.275 E5.24957
G1 X76.531 Y103.099 E5.30306
G1 X77.901 Y100.969 E5.36432
G1 X78.201 Y101.204 F7800.000
G1 F2394.59
G1 X103.486 Y75.756 E6.23194
G1 X105.250 Y74.543 E6.28370
G1 X107.583 Y74.051 E6.34138
G1 X116.022 Y74.051 E6.54547
G1 X118.125 Y74.448 E6.59723
G1 X119.940 Y75.583 E6.64899
G1 X121.216 Y77.301 E6.70075
G1 X121.723 Y78.897 E6.74127
G1 X127.782 Y116.147 E7.65398
G1 X127.842 Y116.974 E7.67405
G1 X127.842 Y120.884 E7.76859
G1 X127.739 Y121.968 E7.79494
G1 X126.867 Y126.533 E7.90733
G1 X126.196 Y128.336 E7.95386
G1 X125.297 Y129.892 E7.99732
G1 X123.902 Y131.515 E8.04908
G1 X122.918 Y132.150 E8.07741
G1 X120.723 Y133.269 E8.13698
G1 X118.669 Y133.870 E8.18874
G1 X116.461 Y133.661 E8.24238
G1 X114.773 Y133.153 E8.28502
G1 X83.534 Y122.078 E9.08660
G1 X82.980 Y121.849 E9.10112
G1 X81.840 Y121.306 E9.13166
G1 X81.152 Y120.924 E9.15068
G1 X80.431 Y120.420 E9.17195
G1 X79.868 Y119.934 E9.18994
G1 X79.626 Y119.691 E9.19823
G1 X78.970 Y118.861 E9.22381
G1 X78.496 Y118.132 E9.24485
G1 X77.686 Y116.183 E9.29590
G1 X76.649 Y111.310 E9.41637
G1 X76.522 Y110.107 E9.44563
G1 X76.522 Y105.275 E9.56250
G1 X76.919 Y103.172 E9.61426
G1 X78.176 Y101.242 E9.66997
G1 X78.476 Y101.478 F7800.000
G1 F2394.59
G1 X103.761 Y76.029 E10.53759
G1 X105.472 Y74.870 E10.58756
G1 X107.583 Y74.439 E10.63968
G1 X116.022 Y74.439 E10.84377
G1 X118.050 Y74.835 E10.89375
G1 X119.780 Y75.966 E10.94373
G1 X120.957 Y77.664 E10.99370
G1 X121.340 Y78.960 E11.02638
G1 X127.399 Y116.202 E11.93892
G1 X127.454 Y116.974 E11.95764
G1 X127.454 Y120.884 E12.05219
G1 X127.358 Y121.895 E12.07677
G1 X126.486 Y126.460 E12.18916
G1 X125.860 Y128.142 E12.23256
G1 X124.961 Y129.698 E12.27602
G1 X122.742 Y131.805 E12.35003
G1 X120.547 Y132.923 E12.40960
G1 X118.560 Y133.491 E12.45958
G1 X116.571 Y133.289 E12.50792
G1 X114.903 Y132.787 E12.55006
G1 X83.664 Y121.713 E13.35165
G1 X83.146 Y121.499 E13.36519
G1 X82.007 Y120.956 E13.39573
G1 X81.352 Y120.591 E13.41384
G1 X80.665 Y120.110 E13.43412
G1 X80.140 Y119.657 E13.45090
G1 X79.909 Y119.424 E13.45884
G1 X79.295 Y118.649 E13.48274
G1 X78.821 Y117.920 E13.50378
G1 X78.066 Y116.102 E13.55140
G1 X77.028 Y111.230 E13.67187
G1 X76.910 Y110.107 E13.69916
G1 X76.910 Y105.275 E13.81603
G1 X77.306 Y103.247 E13.86601
G1 X78.451 Y101.515 E13.91622
G1 E12.91622 F2400.00000
G92 E0
G1 X118.408 Y119.556 F7800.000
G1 E1.00000 F2400.00000
G1 F1800
G1 X117.196 Y119.556 E1.02932
G1 X117.196 Y117.976 E1.06753
G1 X118.408 Y117.976 E1.09686
G1 X118.408 Y119.511 E1.13398
G1 X118.122 Y119.465 F7800.000
G1 X118.020 Y119.168 F7800.000
G1 F1596.39
G1 X117.583 Y119.168 E1.14454
G1 X117.583 Y118.363 E1.16400
G1 X118.020 Y118.363 E1.17456
G1 X118.020 Y119.123 E1.19293
G1 Z5.150 F7800.000
G1 X118.752 Y120.369 F7800.000
G1 F2394.59
G1 X118.504 Y120.369 E1.19723
G1 X118.504 Y120.800 E1.20468
G1 X118.752 Y120.369 E1.21329
G1 X119.204 Y120.369 E1.22111
G1 X118.735 Y121.182 E1.23736
G1 X119.261 Y120.269 F7800.000
G1 F2394.59
G1 X119.222 Y120.269 E1.23805
G1 X119.222 Y120.338 E1.23923
G1 X119.261 Y120.269 E1.24060
G1 X119.713 Y120.269 E1.24842
G1 X119.186 Y121.182 E1.26668
G1 X119.637 Y121.182 E1.27450
G1 X122.066 Y116.974 E1.35866
G1 X122.066 Y117.756 E1.37221
G1 X120.089 Y121.182 E1.44074
G1 X120.540 Y121.182 E1.44856
G1 X122.066 Y118.538 E1.50145
G1 X122.066 Y119.320 E1.51499
G1 X120.992 Y121.182 E1.55224
G1 X121.443 Y121.182 E1.56006
G1 X122.066 Y120.102 E1.58166
G1 X122.066 Y120.884 E1.59521
G1 X121.894 Y121.182 E1.60118
G1 E0.60118 F2400.00000
G92 E0
G1 X120.004 Y119.765 F7800.000
G1 E1.00000 F2400.00000
G1 F2394.59
G1 X121.976 Y116.349 E1.06833
G1 X121.525 Y116.349 E1.07615
G1 X120.004 Y118.983 E1.12884
G1 X120.004 Y118.201 E1.14239
G1 X121.073 Y116.349 E1.17944
G1 X120.622 Y116.349 E1.18726
G1 X120.004 Y117.420 E1.20867
G1 X120.004 Y117.262 E1.21141
G1 X119.644 Y117.262 E1.21765
G1 X120.170 Y116.349 E1.23590
G1 X119.719 Y116.349 E1.24372
G1 X119.222 Y117.211 E1.26095
G1 X119.222 Y117.162 E1.26179
G1 X118.799 Y117.162 E1.26913
G1 X119.268 Y116.349 E1.28538
G1 X118.816 Y116.349 E1.29320
G1 X118.504 Y116.890 E1.30402
G1 X118.504 Y116.349 E1.31340
G1 X118.816 Y116.349 E1.31881
G1 X116.993 Y117.162 F7800.000
G1 F2394.59
G1 X117.100 Y116.977 E1.32250
G1 X117.100 Y116.349 E1.33338
G1 X117.011 Y116.349 E1.33492
G1 X116.542 Y117.162 E1.35117
G1 X116.382 Y117.162 E1.35394
G1 X116.382 Y117.262 E1.35567
G1 X116.033 Y117.262 E1.36173
G1 X116.559 Y116.349 E1.37998
G1 X116.108 Y116.349 E1.38780
G1 E0.38780 F2400.00000
G92 E0
G1 X113.851 Y116.349 F7800.000
G1 E1.00000 F2400.00000
G1 F2394.59
G1 X113.537 Y116.349 E1.00544
G1 X113.537 Y116.893 E1.01485
G1 X113.851 Y116.349 E1.02573
G1 X114.302 Y116.349 E1.03355
G1 X113.537 Y117.675 E1.06006
G1 X113.537 Y118.457 E1.07361
G1 X114.754 Y116.349 E1.11577
G1 X115.205 Y116.349 E1.12359
G1 X113.537 Y119.238 E1.18138
G1 X113.537 Y120.020 E1.19493
G1 X115.657 Y116.349 E1.26836
G1 X116.108 Y116.349 E1.27618
G1 X113.537 Y120.802 E1.36526
G1 X113.537 Y121.182 E1.37184
G1 X113.769 Y121.182 E1.37586
G1 X115.600 Y118.011 E1.43929
G1 X115.600 Y118.793 E1.45283
G1 X114.221 Y121.182 E1.50061
G1 X114.672 Y121.182 E1.50843
G1 X115.600 Y119.575 E1.54058
G1 X115.600 Y120.269 E1.55261
G1 X115.650 Y120.269 E1.55348
G1 X115.123 Y121.182 E1.57173
G1 X115.575 Y121.182 E1.57955
G1 X116.102 Y120.269 E1.59781
G1 X116.382 Y120.269 E1.60266
G1 X116.382 Y120.369 E1.60439
G1 X116.495 Y120.369 E1.60636
G1 X116.026 Y121.182 E1.62261
G1 X116.478 Y121.182 E1.63043
G1 X116.947 Y120.369 E1.64668
G1 X117.100 Y120.369 E1.64933
G1 X117.100 Y120.886 E1.65829
G1 X116.929 Y121.182 E1.66420
G1 X117.825 Y120.425 F7800.000
G1 F2394.59
G1 X117.742 Y120.425 E1.66619
G1 X117.742 Y120.567 E1.66964
G1 X117.825 Y120.425 E1.67363
G1 X117.861 Y120.425 E1.67451
G1 X117.861 Y121.825 E1.70837
G1 X117.912 Y121.825 E1.70960
G1 X115.049 Y126.783 E1.84807
G1 X115.155 Y126.888 E1.85166
G1 X115.365 Y127.047 E1.85805
G1 X115.689 Y127.226 E1.86700
G1 X118.808 Y121.825 E2.01784
G1 X119.703 Y121.825 E2.03950
G1 X116.392 Y127.561 E2.19969
G1 X116.703 Y127.709 E2.20804
G1 X116.851 Y127.499 E2.21424
G1 X117.217 Y127.682 E2.22414
G1 X120.599 Y121.825 E2.38772
G1 X121.263 Y121.825 E2.40378
G1 X121.263 Y122.226 E2.41348
G1 X118.265 Y127.419 E2.55851
G1 X118.683 Y127.372 E2.56869
G1 X118.918 Y127.692 E2.57829
G1 X119.034 Y127.638 E2.58140
G1 X121.263 Y123.777 E2.68922
G1 X121.269 Y124.657 E2.71050
G1 X121.250 Y125.002 E2.71887
G1 X121.194 Y125.448 E2.72973
G1 X120.295 Y127.004 E2.77319
G1 E1.77319 F2400.00000
G92 E0
G1 X117.912 Y128.029 F7800.000
G1 E1.00000 F2400.00000
G1 F2394.59
G1 X118.101 Y128.123 E1.00509
G1 X118.101 Y127.703 E1.01524
G1 X117.912 Y128.029 E1.02434
G1 E0.02434 F2400.00000
G92 E0
G1 X114.575 Y126.054 F7800.000
G1 E1.00000 F2400.00000
G1 F2394.59
G1 X117.017 Y121.825 E1.11811
G1 X116.121 Y121.825 E1.13977
G1 X114.348 Y124.895 E1.22551
G1 X114.341 Y123.357 E1.26271
G1 X115.225 Y121.825 E1.30550
G1 Z5.150 F7800.000
G1 E0.30550 F2400.00000
G92 E0
G1 X87.169 Y108.481 F7800.000
G1 E1.00000 F2400.00000
G1 F1800
G1 X85.956 Y108.481 E1.02932
G1 X85.956 Y106.901 E1.06753
G1 X87.169 Y106.901 E1.09686
G1 X87.169 Y108.436 E1.13398
G1 X86.883 Y108.391 F7800.000
G1 X86.781 Y108.093 F7800.000
G1 F1596.39
G1 X86.344 Y108.093 E1.14454
G1 X86.344 Y107.289 E1.16400
G1 X86.781 Y107.289 E1.17456
G1 X86.781 Y108.048 E1.19293
G1 Z5.150 F7800.000
G1 X87.513 Y109.295 F7800.000
G1 F2394.59
G1 X87.265 Y109.295 E1.19723
G1 X87.265 Y109.725 E1.20468
G1 X87.513 Y109.295 E1.21329
G1 X87.964 Y109.295 E1.22111
G1 X87.495 Y110.107 E1.23736
G1 X88.022 Y109.195 F7800.000
G1 F2394.59
G1 X87.983 Y109.195 E1.23805
G1 X87.983 Y109.264 E1.23923
G1 X88.022 Y109.195 E1.24060
G1 X88.473 Y109.195 E1.24842
G1 X87.947 Y110.107 E1.26668
G1 X88.398 Y110.107 E1.27450
G1 X90.827 Y105.900 E1.35867
G1 X90.827 Y106.682 E1.37221
G1 X88.849 Y110.107 E1.44074
G1 X89.301 Y110.107 E1.44856
G1 X90.827 Y107.464 E1.50145
G1 X90.827 Y108.246 E1.51499
G1 X89.752 Y110.107 E1.55224
G1 X90.204 Y110.107 E1.56006
G1 X90.827 Y109.027 E1.58166
G1 X90.827 Y109.809 E1.59521
G1 X90.655 Y110.107 E1.60117
G1 E0.60117 F2400.00000
G92 E0
G1 X88.765 Y108.691 F7800.000
G1 E1.00000 F2400.00000
G1 F2394.59
G1 X90.737 Y105.275 E1.06833
G1 X90.285 Y105.275 E1.07615
G1 X88.765 Y107.909 E1.12885
G1 X88.765 Y107.127 E1.14239
G1 X89.834 Y105.275 E1.17944
G1 X89.383 Y105.275 E1.18726
G1 X88.765 Y106.345 E1.20867
G1 X88.765 Y106.187 E1.21141
G1 X88.404 Y106.187 E1.21765
G1 X88.931 Y105.275 E1.23590
G1 X88.480 Y105.275 E1.24372
G1 X87.983 Y106.136 E1.26095
G1 X87.983 Y106.087 E1.26180
G1 X87.559 Y106.087 E1.26913
G1 X88.028 Y105.275 E1.28538
G1 X87.577 Y105.275 E1.29320
G1 X87.265 Y105.816 E1.30402
G1 X87.265 Y105.275 E1.31340
G1 X87.577 Y105.275 E1.31881
G1 X85.754 Y106.087 F7800.000
G1 F2394.59
G1 X85.860 Y105.903 E1.32251
G1 X85.860 Y105.275 E1.33338
G1 X85.771 Y105.275 E1.33492
G1 X85.302 Y106.087 E1.35117
G1 X85.143 Y106.087 E1.35394
G1 X85.143 Y106.187 E1.35568
G1 X84.793 Y106.187 E1.36173
G1 X85.320 Y105.275 E1.37998
G1 X84.869 Y105.275 E1.38780
G1 E0.38780 F2400.00000
G92 E0
G1 X82.612 Y105.275 F7800.000
G1 E1.00000 F2400.00000
G1 F2394.59
G1 X82.298 Y105.275 E1.00544
G1 X82.298 Y105.819 E1.01486
G1 X82.612 Y105.275 E1.02573
G1 X83.063 Y105.275 E1.03355
G1 X82.298 Y106.601 E1.06007
G1 X82.298 Y107.382 E1.07361
G1 X83.514 Y105.275 E1.11577
G1 X83.966 Y105.275 E1.12359
G1 X82.298 Y108.164 E1.18138
G1 X82.298 Y108.946 E1.19493
G1 X84.417 Y105.275 E1.26837
G1 X84.869 Y105.275 E1.27619
G1 X82.298 Y109.728 E1.36526
G1 X82.298 Y110.107 E1.37184
G1 X82.530 Y110.107 E1.37586
G1 X84.360 Y106.937 E1.43929
G1 X84.360 Y107.719 E1.45283
G1 X82.981 Y110.107 E1.50062
G1 X83.433 Y110.107 E1.50844
G1 X84.360 Y108.501 E1.54058
G1 X84.360 Y109.195 E1.55261
G1 X84.411 Y109.195 E1.55348
G1 X83.884 Y110.107 E1.57174
G1 X84.336 Y110.107 E1.57956
G1 X84.862 Y109.195 E1.59781
G1 X85.143 Y109.195 E1.60266
G1 X85.143 Y109.295 E1.60439
G1 X85.256 Y109.295 E1.60636
G1 X84.787 Y110.107 E1.62261
G1 X85.238 Y110.107 E1.63043
G1 X85.707 Y109.295 E1.64668
G1 X85.860 Y109.295 E1.64934
G1 X85.860 Y109.812 E1.65829
G1 X85.690 Y110.107 E1.66420
G1 X86.586 Y109.350 F7800.000
G1 F2394.59
G1 X86.503 Y109.350 E1.66620
G1 X86.503 Y109.493 E1.66965
G1 X86.586 Y109.350 E1.67363
G1 X86.622 Y109.350 E1.67451
G1 X86.622 Y110.750 E1.70837
G1 X86.673 Y110.750 E1.70960
G1 X83.810 Y115.709 E1.84807
G1 X83.915 Y115.813 E1.85166
G1 X84.126 Y115.973 E1.85805
G1 X84.450 Y116.152 E1.86700
G1 X87.568 Y110.750 E2.01784
G1 X88.464 Y110.750 E2.03950
G1 X85.152 Y116.486 E2.19969
G1 X85.464 Y116.635 E2.20804
G1 X85.611 Y116.425 E2.21424
G1 X85.978 Y116.608 E2.22414
G1 X89.360 Y110.750 E2.38772
G1 X90.024 Y110.750 E2.40378
G1 X90.024 Y111.151 E2.41348
G1 X87.025 Y116.345 E2.55851
G1 X87.444 Y116.298 E2.56869
G1 X87.679 Y116.618 E2.57829
G1 X87.795 Y116.564 E2.58139
G1 X90.024 Y112.703 E2.68922
G1 X90.030 Y113.583 E2.71050
G1 X90.011 Y113.928 E2.71887
G1 X89.954 Y114.374 E2.72973
G1 X89.056 Y115.930 E2.77319
G1 E1.77319 F2400.00000
G92 E0
G1 X86.673 Y116.955 F7800.000
G1 E1.00000 F2400.00000
G1 F2394.59
G1 X86.861 Y117.049 E1.00509
G1 X86.861 Y116.629 E1.01524
G1 X86.673 Y116.955 E1.02434
G1 E0.02434 F2400.00000
G92 E0
G1 X83.335 Y114.980 F7800.000
G1 E1.00000 F2400.00000
G1 F2394.59
G1 X85.777 Y110.750 E1.11811
G1 X84.882 Y110.750 E1.13977
G1 X83.109 Y113.820 E1.22551
G1 X83.101 Y112.283 E1.26271
G1 X83.986 Y110.750 E1.30550
G1 Z5.150 F7800.000
G1 E0.30550 F2400.00000
G92 E0
G1 X111.242 Y83.033 F7800.000
G1 E1.00000 F2400.00000
G1 F1800
G1 X111.242 Y81.453 E1.03821
G1 X112.454 Y81.453 E1.06753
G1 X112.454 Y83.033 E1.10575
G1 X111.287 Y83.033 E1.13398
G1 X111.307 Y82.740 F7800.000
G1 X111.630 Y82.645 F7800.000
G1 F1596.39
G1 X111.630 Y81.841 E1.15343
G1 X112.066 Y81.841 E1.16400
G1 X112.066 Y82.645 E1.18345
G1 X111.675 Y82.645 E1.19293
G1 Z5.150 F7800.000
G1 X112.798 Y83.847 F7800.000
G1 F2394.59
G1 X112.550 Y83.847 E1.19723
G1 X112.550 Y84.277 E1.20468
G1 X112.798 Y83.847 E1.21329
G1 X113.250 Y83.847 E1.22111
G1 X112.781 Y84.659 E1.23736
G1 X113.308 Y83.747 F7800.000
G1 F2394.59
G1 X113.268 Y83.747 E1.23805
G1 X113.268 Y83.815 E1.23923
G1 X113.308 Y83.747 E1.24060
G1 X113.759 Y83.747 E1.24842
G1 X113.232 Y84.659 E1.26668
G1 X113.684 Y84.659 E1.27450
G1 X116.113 Y80.452 E1.35866
G1 X116.113 Y81.234 E1.37221
G1 X114.135 Y84.659 E1.44074
G1 X114.586 Y84.659 E1.44856
G1 X116.113 Y82.015 E1.50145
G1 X116.113 Y82.797 E1.51499
G1 X115.038 Y84.659 E1.55224
G1 X115.489 Y84.659 E1.56006
G1 X116.113 Y83.579 E1.58166
G1 X116.113 Y84.361 E1.59521
G1 X115.941 Y84.659 E1.60118
G1 E0.60118 F2400.00000
G92 E0
G1 X114.050 Y83.242 F7800.000
G1 E1.00000 F2400.00000
G1 F2394.59
G1 X116.022 Y79.827 E1.06833
G1 X115.571 Y79.827 E1.07615
G1 X114.050 Y82.461 E1.12884
G1 X114.050 Y81.679 E1.14239
G1 X115.119 Y79.827 E1.17944
G1 X114.668 Y79.827 E1.18726
G1 X114.050 Y80.897 E1.20867
G1 X114.050 Y80.739 E1.21141
G1 X113.690 Y80.739 E1.21765
G1 X114.217 Y79.827 E1.23590
G1 X113.765 Y79.827 E1.24372
G1 X113.268 Y80.688 E1.26095
G1 X113.268 Y80.639 E1.26179
G1 X112.845 Y80.639 E1.26913
G1 X113.314 Y79.827 E1.28538
G1 X112.862 Y79.827 E1.29320
G1 X112.550 Y80.368 E1.30402
G1 X112.550 Y79.827 E1.31340
G1 X112.862 Y79.827 E1.31881
G1 X111.039 Y80.639 F7800.000
G1 F2394.59
G1 X111.146 Y80.454 E1.32250
G1 X111.146 Y79.827 E1.33338
G1 X111.057 Y79.827 E1.33492
G1 X110.588 Y80.639 E1.35117
G1 X110.428 Y80.639 E1.35394
G1 X110.428 Y80.739 E1.35567
G1 X110.079 Y80.739 E1.36173
G1 X110.606 Y79.827 E1.37998
G1 X110.154 Y79.827 E1.38780
G1 E0.38780 F2400.00000
G92 E0
G1 X107.897 Y79.827 F7800.000
G1 E1.00000 F2400.00000
G1 F2394.59
G1 X107.583 Y79.827 E1.00544
G1 X107.583 Y80.370 E1.01485
G1 X107.897 Y79.827 E1.02573
G1 X108.349 Y79.827 E1.03355
G1 X107.583 Y81.152 E1.06007
G1 X107.583 Y81.934 E1.07361
G1 X108.800 Y79.827 E1.11577
G1 X109.251 Y79.827 E1.12359
G1 X107.583 Y82.716 E1.18138
G1 X107.583 Y83.498 E1.19493
G1 X109.703 Y79.827 E1.26836
G1 X110.154 Y79.827 E1.27619
G1 X107.583 Y84.279 E1.36526
G1 X107.583 Y84.659 E1.37184
G1 X107.816 Y84.659 E1.37586
G1 X109.646 Y81.489 E1.43929
G1 X109.646 Y82.271 E1.45283
G1 X108.267 Y84.659 E1.50061
G1 X108.718 Y84.659 E1.50844
G1 X109.646 Y83.052 E1.54058
G1 X109.646 Y83.747 E1.55261
