; generated by Slic3r 1.3.0-dev on 2018-06-03 at 15:28:56

; external perimeters extrusion width = 0.42mm (5.33mm^3/s)
; perimeters extrusion width = 0.42mm (5.33mm^3/s)
; infill extrusion width = 0.42mm (8.53mm^3/s)
; solid infill extrusion width = 0.42mm (2.13mm^3/s)
; top infill extrusion width = 0.42mm (1.60mm^3/s)
; support material extrusion width = 0.31mm (4.42mm^3/s)

M107
M190 S100 ; set bed temperature and wait for it to be reached
M104 S210 ; set temperature
G28 ; home all axes
G1 Z5 F5000 ; lift nozzle

; Filament gcode

M109 S210 ; set temperature and wait for it to be reached
G21 ; set units to millimeters
G90 ; use absolute coordinates
M82 ; use absolute distances for extrusion
G92 E0
G1 Z5.150 F7800.000
G1 E-1.00000 F2400.00000
G92 E0
G1 X71.806 Y80.566 F7800.000
G1 E1.00000 F2400.00000
G1 F2700
G1 X73.806 Y79.391 E1.05610
G1 X76.188 Y78.959 E1.11463
G1 X86.936 Y78.959 E1.37459
G1 X124.150 Y80.969 E2.27591
G1 X126.411 Y81.489 E2.33201
G1 X128.363 Y82.741 E2.38811
G1 X129.779 Y84.579 E2.44421
G1 X130.435 Y86.447 E2.49210
G1 X130.548 Y87.033 E2.50652
G1 X130.672 Y88.320 E2.53780
G1 X130.672 Y90.666 E2.59452
G1 X130.641 Y91.315 E2.61026
G1 X129.123 Y107.073 E2.99312
G1 X128.999 Y107.863 E3.01247
G1 X128.695 Y109.259 E3.04701
G1 X128.423 Y110.185 E3.07035
G1 X127.925 Y111.522 E3.10486
G1 X127.523 Y112.401 E3.12824
G1 X126.839 Y113.654 E3.16275
G1 X126.317 Y114.467 E3.18613
G1 X125.462 Y115.609 E3.22064
G1 X124.829 Y116.340 E3.24402
G1 X123.819 Y117.349 E3.27854
G1 X123.089 Y117.982 E3.30190
G1 X121.946 Y118.837 E3.33644
G1 X121.134 Y119.359 E3.35979
G1 X119.881 Y120.043 E3.39430
G1 X119.002 Y120.445 E3.41768
G1 X117.665 Y120.943 E3.45218
G1 X116.738 Y121.216 E3.47556
G1 X115.343 Y121.519 E3.51008
G1 X114.387 Y121.657 E3.53345
G1 X112.963 Y121.758 E3.56796
G1 X112.480 Y121.776 E3.57966
G1 X87.520 Y121.776 E4.18331
G1 X87.037 Y121.758 E4.19501
G1 X85.613 Y121.657 E4.22952
G1 X84.657 Y121.519 E4.25289
G1 X83.262 Y121.216 E4.28740
G1 X82.335 Y120.943 E4.31078
G1 X80.997 Y120.445 E4.34530
G1 X80.119 Y120.043 E4.36867
G1 X78.866 Y119.359 E4.40318
G1 X78.053 Y118.837 E4.42656
G1 X76.911 Y117.982 E4.46106
G1 X76.180 Y117.349 E4.48444
G1 X75.171 Y116.340 E4.51895
G1 X74.538 Y115.609 E4.54233
G1 X73.683 Y114.467 E4.57684
G1 X73.161 Y113.654 E4.60022
G1 X72.477 Y112.401 E4.63472
G1 X72.075 Y111.522 E4.65810
G1 X71.576 Y110.185 E4.69263
G1 X71.304 Y109.258 E4.71599
G1 X71.001 Y107.863 E4.75051
G1 X70.873 Y107.022 E4.77108
G1 X69.355 Y89.917 E5.18640
G1 X69.328 Y89.318 E5.20090
G1 X69.328 Y85.880 E5.28405
G1 X69.725 Y83.594 E5.34015
G1 X70.236 Y82.492 E5.36953
G1 X70.320 Y82.347 E5.37358
G1 X71.777 Y80.601 E5.42860
G1 X72.108 Y80.820 F7800.000
G1 F2700
G1 X74.066 Y79.709 E5.48305
G1 X76.188 Y79.347 E5.53510
G1 X86.936 Y79.347 E5.79505
G1 X124.129 Y81.356 E6.69587
G1 X126.321 Y81.872 E6.75032
G1 X128.197 Y83.117 E6.80478
G1 X129.525 Y84.936 E6.85924
G1 X130.054 Y86.521 E6.89965
G1 X130.168 Y87.106 E6.91408
G1 X130.284 Y88.320 E6.94357
G1 X130.284 Y90.666 E7.00029
G1 X130.255 Y91.278 E7.01512
G1 X128.737 Y107.036 E7.39798
G1 X128.620 Y107.781 E7.41623
G1 X128.316 Y109.176 E7.45076
G1 X128.060 Y110.050 E7.47277
G1 X127.561 Y111.386 E7.50728
G1 X127.183 Y112.215 E7.52932
G1 X126.499 Y113.468 E7.56383
G1 X126.006 Y114.234 E7.58587
G1 X125.151 Y115.377 E7.62038
G1 X124.554 Y116.065 E7.64242
G1 X123.545 Y117.075 E7.67695
G1 X122.857 Y117.671 E7.69897
G1 X121.714 Y118.527 E7.73350
G1 X120.948 Y119.019 E7.75552
G1 X119.695 Y119.703 E7.79003
G1 X118.866 Y120.081 E7.81207
G1 X117.530 Y120.580 E7.84657
G1 X116.655 Y120.837 E7.86862
G1 X115.271 Y121.138 E7.90287
G1 X114.359 Y121.270 E7.92516
G1 X112.480 Y121.388 E7.97069
G1 X87.520 Y121.388 E8.57435
G1 X87.064 Y121.372 E8.58538
G1 X85.641 Y121.270 E8.61989
G1 X84.739 Y121.140 E8.64193
G1 X83.345 Y120.837 E8.67643
G1 X82.470 Y120.580 E8.69847
G1 X81.133 Y120.081 E8.73300
G1 X80.305 Y119.703 E8.75502
G1 X79.052 Y119.019 E8.78953
G1 X78.285 Y118.526 E8.81157
G1 X77.143 Y117.671 E8.84608
G1 X76.455 Y117.074 E8.86812
G1 X75.446 Y116.065 E8.90263
G1 X74.849 Y115.377 E8.92467
G1 X73.994 Y114.234 E8.95918
G1 X73.501 Y113.468 E8.98122
G1 X72.817 Y112.216 E9.01572
G1 X72.439 Y111.386 E9.03777
G1 X71.940 Y110.049 E9.07229
G1 X71.683 Y109.175 E9.09431
G1 X71.380 Y107.781 E9.12883
G1 X71.259 Y106.988 E9.14823
G1 X69.741 Y89.882 E9.56355
G1 X69.716 Y89.318 E9.57722
G1 X69.716 Y85.880 E9.66036
G1 X70.572 Y82.686 E9.74033
G1 X70.656 Y82.541 E9.74439
G1 X72.079 Y80.854 E9.79776
G1 E8.79776 F2400.00000
G92 E0
G1 X87.352 Y91.299 F7800.000
G1 E1.00000 F2400.00000
G1 F2700
G1 X87.352 Y105.051 E1.34304
G1 X87.469 Y105.168 E1.34717
G1 X116.531 Y105.168 E2.07211
G1 X116.648 Y105.051 E2.07624
G1 X116.648 Y93.455 E2.36551
G1 X116.580 Y93.354 E2.36853
G1 X115.936 Y93.087 E2.38592
G1 X115.294 Y92.445 E2.40857
G1 X115.016 Y91.772 E2.42675
G1 X115.016 Y88.278 E2.51389
G1 X115.047 Y88.040 E2.51989
G1 X115.124 Y87.753 E2.52730
G1 X115.216 Y87.531 E2.53329
G1 X116.069 Y86.053 E2.57586
G1 X117.535 Y85.660 E2.61372
G1 X117.607 Y85.686 E2.61564
G1 X124.399 Y85.686 E2.78505
G1 X125.249 Y86.177 E2.80954
G1 X125.865 Y87.244 E2.84026
G1 X125.865 Y87.393 E2.84399
G1 X125.886 Y87.456 E2.84564
G1 X125.944 Y87.532 E2.84804
G1 X125.944 Y90.814 E2.92991
G1 X125.913 Y91.052 E2.93590
G1 X125.836 Y91.339 E2.94331
G1 X125.744 Y91.561 E2.94930
G1 X124.914 Y92.999 E2.99072
G1 X124.395 Y93.138 E3.00413
G1 X124.312 Y93.246 E3.00752
G1 X124.312 Y105.033 E3.30154
G1 X124.201 Y106.619 E3.34121
G1 X123.814 Y108.396 E3.38658
G1 X123.270 Y109.856 E3.42543
G1 X122.469 Y111.342 E3.46755
G1 X121.379 Y112.798 E3.51292
G1 X120.278 Y113.899 E3.55178
G1 X118.932 Y114.919 E3.59389
G1 X117.455 Y115.736 E3.63600
G1 X115.876 Y116.334 E3.67811
G1 X114.099 Y116.721 E3.72348
G1 X112.513 Y116.832 E3.76315
G1 X87.422 Y116.830 E4.38904
G1 X85.771 Y116.702 E4.43034
G1 X84.124 Y116.334 E4.47245
G1 X82.664 Y115.790 E4.51131
G1 X81.178 Y114.989 E4.55342
G1 X79.722 Y113.899 E4.59879
G1 X78.535 Y112.699 E4.64090
G1 X77.601 Y111.452 E4.67976
G1 X76.784 Y109.975 E4.72187
G1 X76.149 Y108.271 E4.76724
G1 X75.799 Y106.619 E4.80935
G1 X75.688 Y105.033 E4.84902
G1 X75.688 Y91.455 E5.18773
G1 X75.620 Y91.354 E5.19076
G1 X74.976 Y91.087 E5.20814
G1 X74.334 Y90.445 E5.23079
G1 X74.056 Y89.772 E5.24897
G1 X74.056 Y85.731 E5.34976
G1 X74.087 Y85.493 E5.35576
G1 X74.164 Y85.206 E5.36317
G1 X74.256 Y84.984 E5.36916
G1 X74.793 Y84.053 E5.39597
G1 X76.259 Y83.660 E5.43384
G1 X76.332 Y83.686 E5.43575
G1 X87.390 Y83.686 E5.71161
G1 X88.064 Y83.965 E5.72979
G1 X88.706 Y84.607 E5.75244
G1 X88.984 Y85.281 E5.77062
G1 X88.984 Y89.157 E5.86732
G1 X88.953 Y89.395 E5.87332
G1 X88.876 Y89.682 E5.88073
G1 X88.784 Y89.904 E5.88672
G1 X88.152 Y90.999 E5.91826
G1 X87.435 Y91.191 E5.93678
G1 X87.380 Y91.263 E5.93905
G1 X86.952 Y90.992 F7800.000
G1 F2700
G1 X86.952 Y105.451 E6.29972
G1 X87.069 Y105.568 E6.30385
G1 X116.931 Y105.568 E7.04874
G1 X117.048 Y105.451 E7.05288
G1 X117.048 Y93.083 E7.36139
G1 X116.931 Y92.966 E7.36552
G1 X116.689 Y92.966 E7.37154
G1 X116.163 Y92.748 E7.38575
G1 X115.634 Y92.218 E7.40443
G1 X115.416 Y91.692 E7.41864
G1 X115.416 Y88.304 E7.50315
G1 X115.440 Y88.118 E7.50783
G1 X115.503 Y87.882 E7.51393
G1 X115.575 Y87.708 E7.51862
G1 X116.333 Y86.397 E7.55640
G1 X117.479 Y86.090 E7.58600
G1 X117.576 Y86.111 E7.58850
G1 X117.668 Y86.086 E7.59087
G1 X124.291 Y86.086 E7.75608
G1 X124.956 Y86.470 E7.77523
G1 X125.465 Y87.351 E7.80060
G1 X125.465 Y87.529 E7.80505
G1 X125.486 Y87.592 E7.80670
G1 X125.544 Y87.668 E7.80910
G1 X125.544 Y90.788 E7.88692
G1 X125.520 Y90.974 E7.89161
G1 X125.457 Y91.210 E7.89771
G1 X125.385 Y91.384 E7.90239
G1 X124.651 Y92.656 E7.93902
G1 X123.995 Y92.831 E7.95596
G1 X123.912 Y92.939 E7.95934
G1 X123.912 Y105.026 E8.26085
G1 X123.803 Y106.576 E8.29963
G1 X123.435 Y108.270 E8.34286
G1 X122.858 Y109.796 E8.38355
G1 X122.125 Y111.138 E8.42169
G1 X121.086 Y112.525 E8.46493
G1 X120.005 Y113.606 E8.50307
G1 X118.704 Y114.590 E8.54376
G1 X117.276 Y115.378 E8.58445
G1 X115.750 Y115.955 E8.62514
G1 X114.056 Y116.323 E8.66837
G1 X112.506 Y116.432 E8.70715
G1 X87.443 Y116.430 E9.33233
G1 X85.842 Y116.309 E9.37238
G1 X84.250 Y115.955 E9.41307
G1 X82.817 Y115.420 E9.45122
G1 X81.382 Y114.645 E9.49190
G1 X79.995 Y113.606 E9.53514
G1 X78.847 Y112.448 E9.57583
G1 X77.930 Y111.224 E9.61397
G1 X77.142 Y109.796 E9.65466
G1 X76.536 Y108.172 E9.69789
G1 X76.197 Y106.576 E9.73858
G1 X76.088 Y105.026 E9.77736
G1 X76.088 Y91.083 E10.12516
G1 X75.971 Y90.966 E10.12929
G1 X75.729 Y90.966 E10.13531
G1 X75.203 Y90.748 E10.14952
G1 X74.674 Y90.218 E10.16820
G1 X74.456 Y89.692 E10.18241
G1 X74.456 Y85.757 E10.28056
G1 X74.480 Y85.571 E10.28525
G1 X74.543 Y85.335 E10.29135
G1 X74.615 Y85.161 E10.29603
G1 X75.057 Y84.397 E10.31806
G1 X76.203 Y84.090 E10.34766
G1 X76.301 Y84.111 E10.35016
G1 X76.393 Y84.086 E10.35253
G1 X87.311 Y84.086 E10.62488
G1 X87.837 Y84.304 E10.63910
G1 X88.366 Y84.834 E10.65777
G1 X88.584 Y85.360 E10.67199
G1 X88.584 Y89.131 E10.76605
G1 X88.560 Y89.317 E10.77073
G1 X88.497 Y89.553 E10.77684
G1 X88.425 Y89.727 E10.78152
G1 X87.889 Y90.656 E10.80827
G1 X87.035 Y90.884 E10.83032
G1 X86.980 Y90.956 E10.83258
G1 X86.552 Y90.622 F7800.000
G1 F2700
G1 X86.552 Y105.851 E11.21247
G1 X86.669 Y105.968 E11.21660
G1 X117.331 Y105.968 E11.98145
G1 X117.448 Y105.851 E11.98558
G1 X117.448 Y92.683 E12.31405
G1 X117.331 Y92.566 E12.31818
G1 X116.769 Y92.566 E12.33220
G1 X116.390 Y92.409 E12.34244
G1 X115.973 Y91.992 E12.35715
G1 X115.816 Y91.612 E12.36739
G1 X115.816 Y89.894 E12.41025
G1 X115.829 Y89.792 E12.41282
G1 X115.816 Y89.742 E12.41411
G1 X115.816 Y88.331 E12.44932
G1 X115.883 Y88.011 E12.45748
G1 X115.935 Y87.886 E12.46085
G1 X116.596 Y86.740 E12.49385
G1 X117.422 Y86.519 E12.51518
G1 X117.520 Y86.540 E12.51768
G1 X117.721 Y86.486 E12.52287
G1 X124.184 Y86.486 E12.68410
G1 X124.663 Y86.763 E12.69790
G1 X125.065 Y87.458 E12.71792
G1 X125.065 Y87.665 E12.72308
G1 X125.086 Y87.727 E12.72473
G1 X125.144 Y87.804 E12.72713
G1 X125.144 Y89.198 E12.76191
G1 X125.131 Y89.300 E12.76448
G1 X125.144 Y89.350 E12.76577
G1 X125.144 Y90.762 E12.80098
G1 X125.127 Y90.896 E12.80436
G1 X125.025 Y91.206 E12.81251
G1 X124.387 Y92.312 E12.84435
G1 X123.595 Y92.524 E12.86481
G1 X123.512 Y92.632 E12.86820
G1 X123.512 Y105.018 E13.17718
G1 X123.405 Y106.534 E13.21507
G1 X123.055 Y108.144 E13.25617
G1 X122.500 Y109.616 E13.29543
G1 X121.781 Y110.933 E13.33286
G1 X120.793 Y112.252 E13.37396
G1 X119.732 Y113.313 E13.41140
G1 X118.475 Y114.261 E13.45066
G1 X117.097 Y115.020 E13.48992
G1 X115.624 Y115.575 E13.52919
G1 X114.014 Y115.925 E13.57029
G1 X112.498 Y116.032 E13.60818
G1 X87.465 Y116.031 E14.23265
G1 X85.913 Y115.915 E14.27145
G1 X84.377 Y115.575 E14.31072
G1 X82.971 Y115.051 E14.34815
G1 X81.587 Y114.301 E14.38741
G1 X80.268 Y113.313 E14.42851
G1 X79.158 Y112.197 E14.46778
G1 X78.259 Y110.995 E14.50521
G1 X77.500 Y109.617 E14.54447
G1 X76.924 Y108.073 E14.58557
G1 X76.595 Y106.534 E14.62484
G1 X76.488 Y105.018 E14.66273
G1 X76.488 Y90.683 E15.02032
G1 X76.371 Y90.566 E15.02446
G1 X75.809 Y90.566 E15.03847
G1 X75.430 Y90.409 E15.04871
G1 X75.013 Y89.992 E15.06342
G1 X74.856 Y89.612 E15.07366
G1 X74.869 Y88.809 E15.09371
G1 X74.856 Y88.759 E15.09501
G1 X74.856 Y87.347 E15.13022
G1 X74.869 Y87.245 E15.13278
G1 X74.856 Y87.195 E15.13408
G1 X74.856 Y85.784 E15.16929
G1 X74.873 Y85.649 E15.17266
G1 X74.975 Y85.339 E15.18082
G1 X75.320 Y84.740 E15.19806
G1 X76.146 Y84.519 E15.21939
G1 X76.244 Y84.540 E15.22189
G1 X76.445 Y84.486 E15.22708
G1 X87.231 Y84.486 E15.49613
G1 X87.610 Y84.643 E15.50638
G1 X88.027 Y85.060 E15.52109
G1 X88.184 Y85.440 E15.53133
G1 X88.171 Y86.079 E15.54729
G1 X88.184 Y86.129 E15.54858
G1 X88.184 Y87.541 E15.58379
G1 X88.171 Y87.643 E15.58636
G1 X88.184 Y87.693 E15.58766
G1 X88.184 Y89.105 E15.62287
G1 X88.167 Y89.239 E15.62624
G1 X88.065 Y89.549 E15.63439
G1 X87.625 Y90.312 E15.65636
G1 X86.799 Y90.533 E15.67769
G1 X86.752 Y90.506 E15.67904
G1 X86.591 Y90.599 E15.68368
G1 X86.152 Y90.283 F7800.000
G1 F2700
G1 X86.152 Y106.251 E16.08199
G1 X86.269 Y106.368 E16.08612
G1 X117.731 Y106.368 E16.87093
G1 X117.848 Y106.251 E16.87506
G1 X117.848 Y92.223 E17.22499
G1 X117.794 Y92.130 E17.22766
G1 X117.696 Y92.073 E17.23050
G1 X117.588 Y92.073 E17.23318
G1 X117.502 Y92.123 E17.23566
G1 X117.341 Y92.166 E17.23981
G1 X116.849 Y92.166 E17.25211
G1 X116.616 Y92.070 E17.25838
G1 X116.312 Y91.765 E17.26912
G1 X116.216 Y91.533 E17.27539
G1 X116.216 Y89.920 E17.31562
G1 X116.260 Y89.714 E17.32088
G1 X116.241 Y89.623 E17.32321
G1 X116.216 Y89.589 E17.32427
G1 X116.216 Y88.357 E17.35500
G1 X116.263 Y88.140 E17.36055
G1 X116.860 Y87.084 E17.39081
G1 X117.366 Y86.948 E17.40387
G1 X117.419 Y86.979 E17.40543
G1 X117.527 Y86.979 E17.40810
G1 X117.613 Y86.929 E17.41058
G1 X117.774 Y86.886 E17.41474
G1 X124.077 Y86.886 E17.57197
G1 X124.370 Y87.056 E17.58043
G1 X124.665 Y87.565 E17.59510
G1 X124.665 Y87.801 E17.60098
G1 X124.686 Y87.863 E17.60262
G1 X124.744 Y87.940 E17.60503
G1 X124.744 Y89.172 E17.63576
G1 X124.700 Y89.378 E17.64103
G1 X124.719 Y89.470 E17.64335
G1 X124.744 Y89.503 E17.64441
G1 X124.734 Y90.818 E17.67720
G1 X124.666 Y91.029 E17.68274
G1 X124.123 Y91.969 E17.70980
G1 X123.618 Y92.104 E17.72287
G1 X123.514 Y92.092 E17.72547
G1 X123.180 Y92.230 E17.73449
G1 X123.112 Y92.331 E17.73752
G1 X123.112 Y105.011 E18.05383
G1 X123.007 Y106.491 E18.09083
G1 X122.675 Y108.017 E18.12979
G1 X122.142 Y109.437 E18.16763
G1 X121.437 Y110.729 E18.20435
G1 X120.500 Y111.980 E18.24332
G1 X119.460 Y113.021 E18.28004
G1 X118.247 Y113.932 E18.31788
G1 X116.917 Y114.662 E18.35572
G1 X115.497 Y115.195 E18.39356
G1 X113.971 Y115.527 E18.43252
G1 X112.491 Y115.632 E18.46952
G1 X87.486 Y115.631 E19.09328
G1 X85.985 Y115.521 E19.13084
G1 X84.503 Y115.195 E19.16868
G1 X83.124 Y114.681 E19.20540
G1 X81.791 Y113.957 E19.24324
G1 X80.540 Y113.020 E19.28220
G1 X79.470 Y111.946 E19.32004
G1 X78.588 Y110.767 E19.35676
G1 X77.858 Y109.437 E19.39460
G1 X77.312 Y107.974 E19.43357
G1 X76.993 Y106.491 E19.47141
G1 X76.888 Y105.011 E19.50841
G1 X76.888 Y90.229 E19.87717
G1 X76.731 Y90.108 E19.88209
G1 X76.517 Y90.166 E19.88762
G1 X75.889 Y90.166 E19.90330
G1 X75.656 Y90.070 E19.90957
G1 X75.352 Y89.765 E19.92031
G1 X75.256 Y89.533 E19.92658
G1 X75.256 Y88.937 E19.94145
G1 X75.300 Y88.731 E19.94671
G1 X75.281 Y88.639 E19.94904
G1 X75.256 Y88.606 E19.95010
G1 X75.256 Y87.373 E19.98083
G1 X75.300 Y87.167 E19.98610
G1 X75.281 Y87.076 E19.98842
G1 X75.256 Y87.042 E19.98948
G1 X75.256 Y85.810 E20.02022
G1 X75.334 Y85.516 E20.02780
G1 X75.584 Y85.084 E20.04026
G1 X76.090 Y84.948 E20.05333
G1 X76.144 Y84.979 E20.05488
G1 X76.251 Y84.979 E20.05755
G1 X76.337 Y84.929 E20.06003
G1 X76.498 Y84.886 E20.06419
G1 X87.151 Y84.886 E20.32994
G1 X87.384 Y84.982 E20.33622
G1 X87.688 Y85.287 E20.34695
G1 X87.784 Y85.519 E20.35323
G1 X87.784 Y85.951 E20.36400
G1 X87.740 Y86.157 E20.36927
G1 X87.759 Y86.249 E20.37159
G1 X87.784 Y86.283 E20.37265
G1 X87.784 Y87.515 E20.40339
G1 X87.740 Y87.721 E20.40865
G1 X87.759 Y87.813 E20.41098
G1 X87.784 Y87.846 E20.41204
G1 X87.774 Y89.161 E20.44483
G1 X87.706 Y89.372 E20.45037
G1 X87.361 Y89.969 E20.46755
G1 X86.856 Y90.104 E20.48061
G1 X86.802 Y90.073 E20.48216
G1 X86.695 Y90.073 E20.48483
G1 X86.608 Y90.123 E20.48732
G1 X86.447 Y90.166 E20.49147
G1 X86.269 Y90.166 E20.49592
G1 X86.184 Y90.251 E20.49893
G1 X85.752 Y89.883 F7800.000
G1 F2700
G1 X85.752 Y106.651 E20.91719
G1 X85.869 Y106.768 E20.92133
G1 X118.131 Y106.768 E21.72609
G1 X118.248 Y106.651 E21.73022
G1 X118.248 Y91.718 E22.10271
G1 X118.091 Y91.598 E22.10763
G1 X117.806 Y91.675 E22.11500
G1 X117.678 Y91.601 E22.11867
G1 X117.544 Y91.619 E22.12206
G1 X117.348 Y91.750 E22.12794
G1 X117.289 Y91.766 E22.12947
G1 X116.928 Y91.766 E22.13846
G1 X116.843 Y91.731 E22.14077
G1 X116.651 Y91.539 E22.14754
G1 X116.616 Y91.453 E22.14984
G1 X116.616 Y89.947 E22.18743
G1 X116.642 Y89.832 E22.19036
G1 X116.716 Y89.695 E22.19424
G1 X116.709 Y89.574 E22.19727
G1 X116.616 Y89.453 E22.20108
G1 X116.616 Y88.383 E22.22777
