; generated by Slic3r 1.3.0-dev on 2018-06-02 at 12:04:06

; external perimeters extrusion width = 0.42mm (4.27mm^3/s)
; perimeters extrusion width = 0.42mm (6.40mm^3/s)
; infill extrusion width = 0.42mm (8.53mm^3/s)
; solid infill extrusion width = 0.42mm (2.13mm^3/s)
; top infill extrusion width = 0.42mm (1.60mm^3/s)
; support material extrusion width = 0.31mm (4.42mm^3/s)

M107
M190 S100 ; set bed temperature and wait for it to be reached
M104 S200 ; set temperature
G28 ; home all axes
G1 Z5 F5000 ; lift nozzle

; Filament gcode

M109 S200 ; set temperature and wait for it to be reached
G21 ; set units to millimeters
G90 ; use absolute coordinates
M82 ; use absolute distances for extrusion
G92 E0
G1 Z5.150 F7800.000
G1 E-1.00000 F2400.00000
G92 E0
G1 X48.293 Y65.566 F7800.000
G1 E1.00000 F2400.00000
G1 F2700
G1 X50.293 Y64.391 E1.05610
G1 X52.674 Y63.959 E1.11463
G1 X63.416 Y63.959 E1.37442
G1 X175.206 Y65.945 E4.07848
G1 X177.484 Y66.383 E4.13458
G1 X179.481 Y67.563 E4.19068
G1 X180.963 Y69.348 E4.24677
G1 X181.589 Y70.820 E4.28546
G1 X181.741 Y71.339 E4.29854
G1 X182.013 Y73.239 E4.34497
G1 X182.013 Y131.094 E5.74419
G1 X181.616 Y133.380 E5.80029
G1 X181.105 Y134.482 E5.82967
G1 X181.015 Y134.639 E5.83405
G1 X179.528 Y136.420 E5.89015
G1 X177.528 Y137.594 E5.94625
G1 X175.147 Y138.027 E6.00478
G1 X164.645 Y138.026 E6.25877
G1 X52.615 Y136.040 E8.96861
G1 X50.337 Y135.603 E9.02471
G1 X48.341 Y134.422 E9.08081
G1 X46.859 Y132.638 E9.13691
G1 X46.232 Y131.166 E9.17560
G1 X46.080 Y130.647 E9.18868
G1 X45.808 Y128.746 E9.23511
G1 X45.808 Y70.891 E10.63433
G1 X46.205 Y68.606 E10.69043
G1 X46.716 Y67.503 E10.71982
G1 X46.806 Y67.347 E10.72419
G1 X48.264 Y65.601 E10.77920
G1 X48.594 Y65.819 F7800.000
G1 F2700
G1 X50.553 Y64.709 E10.83366
G1 X52.674 Y64.347 E10.88571
G1 X63.416 Y64.347 E11.14550
G1 X175.199 Y66.333 E13.84938
G1 X177.408 Y66.769 E13.90384
G1 X179.329 Y67.945 E13.95830
G1 X180.722 Y69.714 E14.01276
G1 X181.217 Y70.928 E14.04447
G1 X181.369 Y71.447 E14.05755
G1 X181.625 Y73.239 E14.10133
G1 X181.625 Y131.094 E15.50055
G1 X180.769 Y134.288 E15.58052
G1 X180.679 Y134.445 E15.58489
G1 X179.227 Y136.166 E15.63935
G1 X177.268 Y137.276 E15.69381
G1 X175.147 Y137.639 E15.74585
G1 X164.652 Y137.638 E15.99968
G1 X52.622 Y135.652 E18.70952
G1 X50.413 Y135.216 E18.76398
G1 X48.493 Y134.041 E18.81844
G1 X47.099 Y132.272 E18.87289
G1 X46.604 Y131.057 E18.90462
G1 X46.452 Y130.538 E18.91770
G1 X46.196 Y128.746 E18.96147
G1 X46.196 Y70.891 E20.36069
G1 X47.052 Y67.697 E20.44066
G1 X47.142 Y67.541 E20.44504
G1 X48.565 Y65.854 E20.49841
G1 E19.49841 F2400.00000
G92 E0
G1 X63.832 Y76.301 F7800.000
G1 E1.00000 F2400.00000
G1 F2700
G1 X63.832 Y101.051 E1.61739
G1 X63.949 Y101.168 E1.62152
G1 X93.051 Y101.168 E2.34746
G1 X93.168 Y101.051 E2.35159
G1 X93.168 Y94.455 E2.51613
G1 X93.100 Y94.354 E2.51916
G1 X92.897 Y94.270 E2.52464
G1 X92.744 Y94.333 E2.52877
G1 X92.654 Y94.551 E2.53464
G1 X91.703 Y96.198 E2.58208
G1 X90.237 Y96.590 E2.61994
G1 X89.406 Y96.110 E2.64388
G1 X88.650 Y95.861 E2.66374
G1 X88.171 Y95.390 E2.68050
G1 X87.895 Y95.035 E2.69172
G1 X87.310 Y94.033 E2.72065
G1 X87.234 Y93.748 E2.72801
G1 X87.186 Y93.685 E2.73000
G1 X87.029 Y93.594 E2.73452
G1 X86.636 Y92.128 E2.77239
G1 X86.766 Y91.903 E2.77888
G1 X86.777 Y91.828 E2.78078
G1 X86.691 Y91.452 E2.79038
G1 X86.793 Y90.769 E2.80762
G1 X87.864 Y88.909 E2.86116
G1 X88.171 Y88.510 E2.87371
G1 X88.601 Y88.087 E2.88877
G1 X88.821 Y87.911 E2.89578
G1 X89.295 Y87.600 E2.90993
G1 X89.490 Y87.493 E2.91549
G1 X90.606 Y87.063 E2.94531
G1 X91.503 Y87.171 E2.96785
G1 X91.951 Y87.480 E2.98142
G1 X92.122 Y87.441 E2.98579
G1 X92.346 Y87.053 E2.99697
G1 X93.812 Y86.660 E3.03483
G1 X93.884 Y86.686 E3.03675
G1 X98.870 Y86.686 E3.16112
G1 X99.720 Y87.177 E3.18561
G1 X100.336 Y88.244 E3.21633
G1 X100.357 Y88.308 E3.21802
G1 X100.464 Y88.448 E3.22242
G1 X100.464 Y91.730 E3.30428
G1 X100.433 Y91.968 E3.31027
G1 X100.356 Y92.255 E3.31768
G1 X100.264 Y92.477 E3.32367
G1 X99.385 Y93.999 E3.36753
G1 X98.915 Y94.125 E3.37968
G1 X98.832 Y94.233 E3.38306
G1 X98.832 Y104.531 E3.63995
G1 X98.793 Y105.135 E3.65505
G1 X98.654 Y105.839 E3.67294
G1 X98.409 Y106.533 E3.69130
G1 X98.029 Y107.255 E3.71165
G1 X97.554 Y107.905 E3.73175
G1 X97.091 Y108.403 E3.74871
G1 X96.616 Y108.810 E3.76430
G1 X95.889 Y109.304 E3.78623
G1 X95.115 Y109.695 E3.80786
G1 X94.418 Y109.959 E3.82646
G1 X93.695 Y110.151 E3.84512
G1 X92.887 Y110.283 E3.86554
G1 X92.007 Y110.332 E3.88753
G1 X63.949 Y110.332 E4.58743
G1 X63.832 Y110.449 E4.59156
G1 X63.832 Y123.517 E4.91753
G1 X63.949 Y123.634 E4.92167
G1 X63.996 Y123.634 E4.92284
G1 X64.847 Y124.125 E4.94733
G1 X65.462 Y125.191 E4.97805
G1 X65.464 Y128.897 E5.07047
G1 X65.433 Y129.135 E5.07646
G1 X65.356 Y129.422 E5.08388
G1 X65.264 Y129.644 E5.08987
G1 X64.512 Y130.947 E5.12741
G1 X63.046 Y131.340 E5.16527
G1 X62.974 Y131.314 E5.16718
G1 X60.899 Y131.314 E5.21894
G1 X60.789 Y131.340 E5.22176
G1 X60.717 Y131.314 E5.22367
G1 X52.120 Y131.314 E5.43812
G1 X51.269 Y130.823 E5.46261
G1 X50.654 Y129.756 E5.49333
G1 X50.633 Y129.661 E5.49578
G1 X50.536 Y129.534 E5.49975
G1 X50.536 Y126.252 E5.58162
G1 X50.567 Y126.014 E5.58761
G1 X50.644 Y125.727 E5.59502
G1 X50.736 Y125.505 E5.60101
G1 X51.604 Y124.001 E5.64435
G1 X52.085 Y123.872 E5.65676
G1 X52.168 Y123.764 E5.66015
G1 X52.168 Y76.455 E6.84030
G1 X52.100 Y76.354 E6.84333
G1 X51.456 Y76.087 E6.86071
G1 X50.814 Y75.445 E6.88336
G1 X50.536 Y74.772 E6.90154
G1 X50.536 Y70.743 E7.00205
G1 X50.567 Y70.504 E7.00804
G1 X50.644 Y70.218 E7.01545
G1 X50.736 Y69.996 E7.02144
G1 X51.280 Y69.053 E7.04859
G1 X52.746 Y68.660 E7.08645
G1 X52.818 Y68.686 E7.08837
G1 X63.870 Y68.686 E7.36406
G1 X64.544 Y68.965 E7.38224
G1 X65.186 Y69.607 E7.40489
G1 X65.464 Y70.281 E7.42307
G1 X65.464 Y74.169 E7.52006
G1 X65.433 Y74.407 E7.52605
G1 X65.356 Y74.694 E7.53346
G1 X65.264 Y74.916 E7.53945
G1 X64.639 Y75.999 E7.57066
G1 X63.915 Y76.193 E7.58936
G1 X63.860 Y76.265 E7.59162
G1 X63.432 Y75.994 F7800.000
G1 F2700
G1 X63.432 Y101.451 E8.22664
G1 X63.549 Y101.568 E8.23078
G1 X93.451 Y101.568 E8.97667
G1 X93.568 Y101.451 E8.98080
G1 X93.568 Y94.083 E9.16459
G1 X93.451 Y93.966 E9.16872
G1 X93.209 Y93.966 E9.17474
G1 X92.620 Y93.722 E9.19066
G1 X92.449 Y93.820 E9.19558
G1 X92.367 Y94.200 E9.20527
G1 X92.295 Y94.373 E9.20996
G1 X91.440 Y95.854 E9.25261
G1 X90.294 Y96.161 E9.28220
G1 X89.547 Y95.730 E9.30372
G1 X88.863 Y95.509 E9.32165
G1 X88.467 Y95.121 E9.33548
G1 X88.197 Y94.768 E9.34658
G1 X87.683 Y93.880 E9.37216
G1 X87.578 Y93.485 E9.38235
G1 X87.530 Y93.422 E9.38434
G1 X87.372 Y93.331 E9.38888
G1 X87.065 Y92.185 E9.41848
G1 X87.191 Y91.966 E9.42477
G1 X87.202 Y91.892 E9.42666
G1 X87.098 Y91.437 E9.43830
G1 X87.177 Y90.902 E9.45178
G1 X88.167 Y89.178 E9.50137
G1 X88.507 Y88.737 E9.51527
G1 X88.993 Y88.280 E9.53191
G1 X89.505 Y87.940 E9.54724
G1 X89.734 Y87.823 E9.55365
G1 X90.656 Y87.472 E9.57825
G1 X91.357 Y87.556 E9.59588
G1 X92.081 Y88.055 E9.61780
G1 X92.252 Y88.016 E9.62217
G1 X92.609 Y87.397 E9.64002
G1 X93.755 Y87.090 E9.66962
G1 X93.853 Y87.111 E9.67211
G1 X93.945 Y87.086 E9.67449
G1 X98.763 Y87.086 E9.79466
G1 X99.427 Y87.470 E9.81381
G1 X99.936 Y88.351 E9.83918
G1 X99.957 Y88.444 E9.84155
G1 X100.064 Y88.584 E9.84595
G1 X100.064 Y91.703 E9.92378
G1 X100.040 Y91.890 E9.92846
G1 X99.977 Y92.126 E9.93456
G1 X99.905 Y92.299 E9.93925
G1 X99.122 Y93.656 E9.97831
G1 X98.515 Y93.818 E9.99399
G1 X98.432 Y93.926 E9.99737
G1 X98.432 Y104.524 E10.26175
G1 X98.381 Y105.195 E10.27854
G1 X98.237 Y105.841 E10.29504
G1 X98.038 Y106.382 E10.30943
G1 X97.694 Y107.036 E10.32786
G1 X97.259 Y107.636 E10.34634
G1 X96.820 Y108.108 E10.36243
G1 X96.364 Y108.499 E10.37741
G1 X95.689 Y108.957 E10.39774
G1 X94.970 Y109.322 E10.41787
G1 X94.238 Y109.594 E10.43735
G1 X93.548 Y109.774 E10.45513
G1 X92.833 Y109.887 E10.47320
G1 X92.006 Y109.932 E10.49386
G1 X63.549 Y109.932 E11.20371
G1 X63.432 Y110.049 E11.20784
G1 X63.432 Y123.917 E11.55377
G1 X63.549 Y124.034 E11.55790
G1 X63.889 Y124.034 E11.56638
G1 X64.554 Y124.418 E11.58552
G1 X65.062 Y125.299 E11.61089
G1 X65.064 Y128.870 E11.69999
G1 X65.040 Y129.056 E11.70467
G1 X64.977 Y129.293 E11.71078
G1 X64.905 Y129.466 E11.71546
G1 X64.248 Y130.603 E11.74821
G1 X63.102 Y130.910 E11.77781
G1 X63.004 Y130.889 E11.78031
G1 X62.912 Y130.914 E11.78268
G1 X60.831 Y130.916 E11.83460
G1 X60.715 Y130.898 E11.83753
G1 X60.656 Y130.914 E11.83907
G1 X52.227 Y130.914 E12.04932
G1 X51.562 Y130.530 E12.06846
G1 X51.054 Y129.649 E12.09383
G1 X51.033 Y129.525 E12.09698
G1 X50.936 Y129.398 E12.10096
G1 X50.936 Y126.279 E12.17878
G1 X50.960 Y126.092 E12.18347
G1 X51.023 Y125.856 E12.18957
G1 X51.095 Y125.683 E12.19425
G1 X51.868 Y124.344 E12.23280
G1 X52.485 Y124.179 E12.24874
G1 X52.568 Y124.071 E12.25213
G1 X52.568 Y76.083 E13.44920
G1 X52.451 Y75.966 E13.45333
G1 X52.209 Y75.966 E13.45935
G1 X51.683 Y75.748 E13.47356
G1 X51.154 Y75.218 E13.49224
G1 X50.936 Y74.692 E13.50645
G1 X50.936 Y70.769 E13.60432
G1 X50.960 Y70.583 E13.60900
G1 X51.023 Y70.346 E13.61510
G1 X51.095 Y70.173 E13.61979
G1 X51.543 Y69.397 E13.64215
G1 X52.689 Y69.090 E13.67175
G1 X52.787 Y69.111 E13.67424
G1 X52.879 Y69.086 E13.67662
G1 X63.791 Y69.086 E13.94880
G1 X64.317 Y69.304 E13.96302
G1 X64.846 Y69.834 E13.98169
G1 X65.064 Y70.360 E13.99591
G1 X65.064 Y74.142 E14.09026
G1 X65.040 Y74.329 E14.09494
G1 X64.977 Y74.565 E14.10104
G1 X64.905 Y74.738 E14.10573
G1 X64.375 Y75.656 E14.13215
G1 X63.515 Y75.886 E14.15437
G1 X63.460 Y75.958 E14.15663
G1 X63.032 Y75.618 F7800.000
G1 F2700
G1 X63.032 Y101.851 E14.81101
G1 X63.149 Y101.968 E14.81514
G1 X93.851 Y101.968 E15.58099
G1 X93.968 Y101.851 E15.58512
G1 X93.968 Y93.683 E15.78886
G1 X93.851 Y93.566 E15.79300
G1 X93.289 Y93.566 E15.80701
G1 X92.910 Y93.409 E15.81725
G1 X92.493 Y92.992 E15.83196
G1 X92.376 Y92.711 E15.83954
G1 X92.054 Y92.775 E15.84773
G1 X92.054 Y93.751 E15.87208
G1 X92.037 Y93.885 E15.87546
G1 X91.935 Y94.196 E15.88361
G1 X91.176 Y95.511 E15.92147
G1 X90.350 Y95.732 E15.94280
G1 X89.628 Y95.315 E15.96361
G1 X89.529 Y95.307 E15.96609
G1 X89.075 Y95.158 E15.97800
G1 X88.723 Y94.807 E15.99041
G1 X88.490 Y94.483 E16.00036
G1 X88.056 Y93.727 E16.02211
G1 X87.987 Y93.465 E16.02887
G1 X87.987 Y93.286 E16.03333
G1 X87.933 Y93.193 E16.03601
G1 X87.716 Y93.067 E16.04228
G1 X87.494 Y92.241 E16.06361
G1 X87.616 Y92.030 E16.06968
G1 X87.627 Y91.955 E16.07157
G1 X87.505 Y91.421 E16.08526
G1 X87.562 Y91.036 E16.09497
G1 X88.490 Y89.417 E16.14151
G1 X88.792 Y89.018 E16.15400
G1 X89.236 Y88.598 E16.16925
G1 X89.716 Y88.280 E16.18360
G1 X89.886 Y88.193 E16.18838
G1 X90.706 Y87.881 E16.21026
G1 X91.211 Y87.942 E16.22296
G1 X91.818 Y88.359 E16.24132
G1 X92.072 Y88.843 E16.25495
G1 X92.343 Y88.813 E16.26176
G1 X92.455 Y88.465 E16.27089
G1 X92.873 Y87.740 E16.29176
G1 X93.699 Y87.519 E16.31309
G1 X93.797 Y87.540 E16.31558
G1 X93.998 Y87.486 E16.32078
G1 X98.655 Y87.486 E16.43696
G1 X99.135 Y87.763 E16.45076
G1 X99.536 Y88.458 E16.47078
G1 X99.557 Y88.579 E16.47386
G1 X99.664 Y88.719 E16.47826
G1 X99.664 Y90.114 E16.51304
G1 X99.651 Y90.216 E16.51561
G1 X99.664 Y90.266 E16.51690
G1 X99.664 Y91.677 E16.55211
G1 X99.647 Y91.811 E16.55549
G1 X99.545 Y92.122 E16.56364
G1 X98.858 Y93.312 E16.59792
G1 X98.115 Y93.511 E16.61711
G1 X98.032 Y93.619 E16.62050
G1 X98.032 Y104.517 E16.89237
G1 X97.987 Y105.125 E16.90757
G1 X97.856 Y105.716 E16.92267
G1 X97.667 Y106.232 E16.93638
G1 X97.359 Y106.818 E16.95288
G1 X96.963 Y107.366 E16.96975
G1 X96.549 Y107.814 E16.98497
G1 X96.112 Y108.189 E16.99934
G1 X95.490 Y108.610 E17.01807
G1 X94.824 Y108.949 E17.03670
G1 X94.133 Y109.208 E17.05512
G1 X93.468 Y109.382 E17.07227
G1 X92.778 Y109.490 E17.08968
G1 X92.004 Y109.532 E17.10903
G1 X63.149 Y109.532 E17.82881
G1 X63.032 Y109.649 E17.83294
G1 X63.032 Y124.317 E18.19882
G1 X63.149 Y124.434 E18.20296
G1 X63.782 Y124.434 E18.21874
G1 X64.261 Y124.711 E18.23254
G1 X64.662 Y125.406 E18.25256
G1 X64.664 Y127.280 E18.29932
G1 X64.651 Y127.382 E18.30189
G1 X64.664 Y127.433 E18.30318
G1 X64.664 Y128.844 E18.33839
G1 X64.647 Y128.978 E18.34177
G1 X64.545 Y129.289 E18.34992
G1 X63.985 Y130.260 E18.37789
G1 X63.159 Y130.481 E18.39922
G1 X63.061 Y130.460 E18.40172
G1 X62.860 Y130.514 E18.40691
G1 X60.911 Y130.514 E18.45554
G1 X60.850 Y130.479 E18.45727
G1 X60.771 Y130.469 E18.45926
G1 X60.603 Y130.514 E18.46361
G1 X52.334 Y130.514 E18.66987
G1 X51.855 Y130.237 E18.68367
G1 X51.454 Y129.542 E18.70369
G1 X51.433 Y129.389 E18.70755
G1 X51.336 Y129.263 E18.71152
G1 X51.336 Y127.868 E18.74630
G1 X51.349 Y127.766 E18.74887
G1 X51.336 Y127.716 E18.75016
G1 X51.336 Y126.305 E18.78537
G1 X51.403 Y125.985 E18.79353
G1 X51.455 Y125.860 E18.79690
G1 X52.131 Y124.688 E18.83066
G1 X52.885 Y124.486 E18.85013
G1 X52.968 Y124.378 E18.85351
G1 X52.968 Y75.683 E20.06822
G1 X52.851 Y75.566 E20.07235
G1 X52.289 Y75.566 E20.08636
G1 X51.910 Y75.409 E20.09661
G1 X51.493 Y74.992 E20.11132
G1 X51.336 Y74.612 E20.12156
G1 X51.349 Y73.820 E20.14132
G1 X51.336 Y73.770 E20.14262
G1 X51.336 Y72.359 E20.17783
G1 X51.349 Y72.257 E20.18039
G1 X51.336 Y72.207 E20.18169
G1 X51.336 Y70.795 E20.21690
G1 X51.353 Y70.661 E20.22027
G1 X51.455 Y70.350 E20.22843
G1 X51.807 Y69.740 E20.24600
G1 X52.633 Y69.519 E20.26733
G1 X52.731 Y69.540 E20.26983
G1 X52.932 Y69.486 E20.27502
G1 X63.711 Y69.486 E20.54391
G1 X64.090 Y69.643 E20.55415
G1 X64.507 Y70.060 E20.56886
G1 X64.664 Y70.440 E20.57911
G1 X64.651 Y71.091 E20.59535
G1 X64.664 Y71.141 E20.59665
G1 X64.664 Y72.553 E20.63186
G1 X64.651 Y72.655 E20.63443
G1 X64.664 Y72.705 E20.63572
G1 X64.664 Y74.116 E20.67093
G1 X64.647 Y74.250 E20.67431
G1 X64.545 Y74.561 E20.68246
G1 X64.112 Y75.312 E20.70409
G1 X63.286 Y75.533 E20.72542
G1 X63.232 Y75.502 E20.72696
G1 X63.071 Y75.595 E20.73160
G1 E19.73160 F2400.00000
G92 E0
G1 X92.014 Y90.904 F7800.000
G1 E1.00000 F2400.00000
G1 F2700
G1 X92.336 Y90.968 E1.00819
G1 X92.336 Y91.508 E1.02165
G1 X92.064 Y91.600 E1.02880
G1 X91.868 Y91.345 E1.03684
G1 X91.860 Y91.224 E1.03987
G1 X91.996 Y90.946 E1.04758
G1 E0.04758 F2400.00000
G92 E0
G1 X90.756 Y88.290 F7800.000
G1 E1.00000 F2400.00000
G1 F2700
G1 X91.066 Y88.327 E1.00778
G1 X91.509 Y88.633 E1.02122
G1 X91.654 Y88.909 E1.02900
G1 X91.654 Y90.623 E1.07175
G1 X91.576 Y90.916 E1.07933
G1 X91.380 Y91.255 E1.08910
G1 X91.388 Y91.376 E1.09212
G1 X91.654 Y91.723 E1.10304
G1 X91.654 Y93.725 E1.15297
G1 X91.576 Y94.019 E1.16055
G1 X90.913 Y95.167 E1.19363
G1 X90.407 Y95.303 E1.20669
G1 X89.709 Y94.900 E1.22680
G1 X89.565 Y94.898 E1.23037
G1 X89.288 Y94.807 E1.23767
G1 X89.030 Y94.550 E1.24675
G1 X88.843 Y94.295 E1.25462
G1 X88.429 Y93.573 E1.27538
G1 X88.387 Y93.413 E1.27952
G1 X88.387 Y93.055 E1.28844
G1 X88.334 Y92.962 E1.29112
G1 X88.059 Y92.804 E1.29903
G1 X87.923 Y92.298 E1.31209
G1 X88.081 Y92.026 E1.31993
G1 X88.076 Y91.910 E1.32281
G1 X88.002 Y91.802 E1.32608
G1 X87.911 Y91.405 E1.33624
G1 X87.946 Y91.169 E1.34219
G1 X88.834 Y89.621 E1.38670
G1 X89.059 Y89.317 E1.39612
G1 X89.440 Y88.947 E1.40937
G1 X89.926 Y88.620 E1.42400
G1 X90.714 Y88.306 E1.44516
G1 E0.44516 F2400.00000
G92 E0
G1 X90.792 Y91.474 F7800.000
G1 E1.00000 F2400.00000
G1 F2700
G1 X90.867 Y91.656 E1.00492
G1 X91.158 Y91.734 E1.01244
G1 X91.254 Y91.859 E1.01637
G1 X91.254 Y93.699 E1.06226
G1 X91.216 Y93.841 E1.06594
G1 X90.649 Y94.824 E1.09423
G1 X90.463 Y94.873 E1.09903
G1 X89.922 Y94.561 E1.11461
G1 X89.792 Y94.462 E1.11868
G1 X89.602 Y94.489 E1.12347
G1 X89.500 Y94.455 E1.12615
G1 X89.337 Y94.293 E1.13190
G1 X89.181 Y94.081 E1.13845
G1 X88.802 Y93.420 E1.15746
G1 X88.787 Y93.185 E1.16334
G1 X88.843 Y93.056 E1.16685
G1 X88.839 Y92.941 E1.16973
G1 X88.651 Y92.684 E1.17767
G1 X88.402 Y92.540 E1.18483
G1 X88.353 Y92.354 E1.18962
G1 X88.447 Y92.197 E1.19420
G1 X88.619 Y92.056 E1.19976
G1 X88.619 Y91.844 E1.20502
G1 X88.425 Y91.712 E1.21089
G1 X88.375 Y91.639 E1.21308
G1 X88.318 Y91.389 E1.21948
G1 X88.331 Y91.302 E1.22167
G1 X89.178 Y89.825 E1.26415
G1 X89.355 Y89.587 E1.27155
G1 X89.722 Y89.234 E1.28426
G1 X90.137 Y88.961 E1.29664
G1 X90.806 Y88.699 E1.31458
G1 X90.920 Y88.712 E1.31743
