; generated by Slic3r 1.3.0-dev on 2018-06-09 at 15:42:10

; external perimeters extrusion width = 0.42mm (5.33mm^3/s)
; perimeters extrusion width = 0.42mm (5.33mm^3/s)
; infill extrusion width = 0.42mm (8.53mm^3/s)
; solid infill extrusion width = 0.42mm (2.13mm^3/s)
; top infill extrusion width = 0.42mm (1.60mm^3/s)
; support material extrusion width = 0.31mm (4.42mm^3/s)

M107
M190 S100 ; set bed temperature and wait for it to be reached
M104 S210 ; set temperature
G28 ; home all axes
G1 Z5 F5000 ; lift nozzle

; Filament gcode

M109 S210 ; set temperature and wait for it to be reached
G21 ; set units to millimeters
G90 ; use absolute coordinates
M82 ; use absolute distances for extrusion
G92 E0
G1 Z5.150 F7800.000
G1 E-1.00000 F2400.00000
G92 E0
G1 X69.919 Y28.289 F7800.000
G1 E1.00000 F2400.00000
G1 F2700
G1 X71.697 Y26.801 E1.05610
G1 X73.874 Y25.999 E1.11220
G1 X75.093 Y25.888 E1.14181
G1 X117.093 Y25.888 E2.15757
G1 X119.378 Y26.285 E2.21367
G1 X122.172 Y28.179 E2.29531
G1 X156.650 Y67.231 E3.55518
G1 X157.865 Y69.207 E3.61128
G1 X158.322 Y71.144 E3.65941
G1 X163.842 Y136.348 E5.24202
G1 X163.951 Y137.860 E5.27867
G1 X163.968 Y138.343 E5.29036
G1 X163.968 Y153.243 E5.65072
G1 X163.951 Y153.727 E5.66242
G1 X163.849 Y155.150 E5.69692
G1 X163.712 Y156.107 E5.72030
G1 X163.408 Y157.501 E5.75482
G1 X163.136 Y158.428 E5.77819
G1 X162.637 Y159.765 E5.81270
G1 X162.236 Y160.645 E5.83608
G1 X161.552 Y161.897 E5.87059
G1 X161.029 Y162.710 E5.89396
G1 X160.174 Y163.852 E5.92847
G1 X159.541 Y164.583 E5.95185
G1 X158.558 Y165.567 E5.98549
G1 X157.802 Y166.225 E6.00974
G1 X156.659 Y167.080 E6.04424
G1 X155.846 Y167.603 E6.06762
G1 X154.594 Y168.286 E6.10213
G1 X153.715 Y168.688 E6.12551
G1 X152.378 Y169.187 E6.16002
G1 X151.450 Y169.459 E6.18339
G1 X150.056 Y169.762 E6.21790
G1 X149.099 Y169.900 E6.24128
G1 X147.335 Y170.017 E6.28405
G1 X78.220 Y171.466 E7.95594
G1 X48.078 Y171.468 E8.68492
G1 X47.595 Y171.450 E8.69662
G1 X46.172 Y171.349 E8.73113
G1 X45.215 Y171.211 E8.75451
G1 X43.820 Y170.908 E8.78902
G1 X42.893 Y170.635 E8.81239
G1 X41.556 Y170.137 E8.84690
G1 X40.677 Y169.735 E8.87028
G1 X39.425 Y169.051 E8.90479
G1 X38.611 Y168.529 E8.92817
G1 X37.469 Y167.674 E8.96268
G1 X36.739 Y167.041 E8.98606
G1 X35.755 Y166.057 E9.01970
G1 X35.097 Y165.301 E9.04394
G1 X34.242 Y164.159 E9.07845
G1 X33.719 Y163.346 E9.10183
G1 X33.035 Y162.093 E9.13633
G1 X32.634 Y161.214 E9.15971
G1 X32.135 Y159.877 E9.19422
G1 X31.863 Y158.950 E9.21760
G1 X31.559 Y157.555 E9.25211
G1 X31.422 Y156.599 E9.27549
G1 X31.320 Y155.175 E9.31000
G1 X31.303 Y154.692 E9.32169
G1 X31.303 Y139.792 E9.68205
G1 X31.317 Y139.350 E9.69275
G1 X35.810 Y70.692 E11.35678
G1 X36.356 Y68.438 E11.41288
G1 X37.397 Y66.760 E11.46062
G1 X69.890 Y28.324 E12.67785
G1 X70.215 Y28.540 F7800.000
G1 F2700
G1 X71.949 Y27.103 E12.73231
G1 X75.093 Y26.276 E12.81094
G1 X117.093 Y26.276 E13.82671
G1 X119.309 Y26.673 E13.88117
G1 X121.882 Y28.436 E13.95659
G1 X156.359 Y67.488 E15.21646
G1 X157.529 Y69.412 E15.27092
G1 X157.936 Y71.176 E15.31471
G1 X163.456 Y136.381 E16.89733
G1 X163.564 Y137.887 E16.93385
G1 X163.580 Y138.343 E16.94488
G1 X163.580 Y153.243 E17.30523
G1 X163.462 Y155.122 E17.35076
G1 X163.333 Y156.024 E17.37280
G1 X163.029 Y157.419 E17.40732
G1 X162.773 Y158.293 E17.42935
G1 X162.274 Y159.630 E17.46386
G1 X161.895 Y160.459 E17.48590
G1 X161.211 Y161.711 E17.52042
G1 X160.719 Y162.478 E17.54245
G1 X159.864 Y163.620 E17.57696
G1 X159.267 Y164.309 E17.59900
G1 X158.283 Y165.292 E17.63264
G1 X157.569 Y165.914 E17.65555
G1 X156.427 Y166.769 E17.69005
G1 X155.660 Y167.262 E17.71209
G1 X154.408 Y167.946 E17.74660
G1 X153.579 Y168.325 E17.76865
G1 X152.242 Y168.823 E17.80316
G1 X151.368 Y169.080 E17.82519
G1 X149.974 Y169.383 E17.85970
G1 X149.071 Y169.513 E17.88174
G1 X147.327 Y169.630 E17.92404
G1 X78.212 Y171.078 E19.59593
G1 X48.078 Y171.080 E20.32471
G1 X46.199 Y170.962 E20.37024
G1 X45.297 Y170.832 E20.39228
G1 X43.903 Y170.529 E20.42680
G1 X43.029 Y170.272 E20.44883
G1 X41.692 Y169.773 E20.48334
G1 X40.863 Y169.395 E20.50538
G1 X39.610 Y168.711 E20.53989
G1 X38.844 Y168.218 E20.56193
G1 X37.702 Y167.363 E20.59644
G1 X37.013 Y166.766 E20.61848
G1 X36.029 Y165.783 E20.65212
G1 X35.407 Y165.069 E20.67502
G1 X34.552 Y163.927 E20.70953
G1 X34.059 Y163.160 E20.73157
G1 X33.376 Y161.908 E20.76608
G1 X32.997 Y161.079 E20.78812
G1 X32.498 Y159.742 E20.82263
G1 X32.242 Y158.867 E20.84467
G1 X31.938 Y157.473 E20.87918
G1 X31.809 Y156.571 E20.90122
G1 X31.690 Y154.692 E20.94675
G1 X31.690 Y139.792 E21.30710
G1 X31.704 Y139.375 E21.31720
G1 X36.197 Y70.717 E22.98122
G1 X36.738 Y68.532 E23.03568
G1 X37.693 Y67.011 E23.07912
G1 X70.186 Y28.574 E24.29635
G1 E23.29635 F2400.00000
G92 E0
G1 X111.486 Y127.867 F7800.000
G1 E1.00000 F2400.00000
G1 F2700
G1 X111.570 Y127.909 E1.00236
G1 X111.669 Y127.907 E1.00481
G1 X112.337 Y127.553 E1.02367
G1 X113.922 Y126.972 E1.06579
G1 X115.444 Y126.641 E1.10464
G1 X117.095 Y126.513 E1.14594
G1 X147.225 Y126.511 E1.89756
G1 X148.941 Y126.641 E1.94048
G1 X150.589 Y127.009 E1.98259
G1 X152.167 Y127.607 E2.02471
G1 X153.645 Y128.425 E2.06682
G1 X154.991 Y129.444 E2.10893
G1 X156.092 Y130.545 E2.14779
G1 X157.182 Y132.001 E2.19316
G1 X157.983 Y133.487 E2.23527
G1 X158.527 Y134.947 E2.27413
G1 X158.914 Y136.724 E2.31949
G1 X159.025 Y138.311 E2.35917
G1 X159.025 Y153.276 E2.73248
G1 X158.914 Y154.862 E2.77215
G1 X158.527 Y156.640 E2.81752
G1 X157.928 Y158.218 E2.85963
G1 X157.111 Y159.695 E2.90174
G1 X156.178 Y160.942 E2.94060
G1 X154.990 Y162.143 E2.98271
G1 X153.535 Y163.232 E3.02808
G1 X152.048 Y164.033 E3.07020
G1 X150.589 Y164.578 E3.10905
G1 X148.812 Y164.964 E3.15442
G1 X147.225 Y165.075 E3.19409
G1 X117.095 Y165.073 E3.94571
G1 X115.444 Y164.946 E3.98700
G1 X113.796 Y164.578 E4.02911
G1 X112.218 Y163.979 E4.07123
G1 X110.741 Y163.162 E4.11334
G1 X109.395 Y162.143 E4.15545
G1 X108.293 Y161.041 E4.19431
G1 X107.274 Y159.695 E4.23642
G1 X106.403 Y158.099 E4.28179
G1 X105.858 Y156.640 E4.32065
G1 X105.490 Y154.992 E4.36276
G1 X105.360 Y153.276 E4.40569
G1 X105.360 Y138.311 E4.77900
G1 X105.472 Y136.724 E4.81867
G1 X105.821 Y135.072 E4.86079
G1 X106.403 Y133.487 E4.90290
G1 X107.203 Y132.001 E4.94501
G1 X108.208 Y130.644 E4.98712
G1 X109.395 Y129.444 E5.02923
G1 X111.450 Y127.894 E5.09345
G1 X111.528 Y128.335 F7800.000
G1 F2700
G1 X111.578 Y128.360 E5.09486
G1 X111.677 Y128.359 E5.09731
G1 X112.490 Y127.923 E5.12033
G1 X114.021 Y127.360 E5.16102
G1 X115.515 Y127.035 E5.19916
G1 X117.116 Y126.913 E5.23921
G1 X147.218 Y126.911 E5.99012
G1 X148.870 Y127.035 E6.03144
G1 X150.463 Y127.389 E6.07213
G1 X151.988 Y127.965 E6.11282
G1 X153.416 Y128.753 E6.15351
G1 X154.640 Y129.670 E6.19165
G1 X155.799 Y130.818 E6.23234
G1 X156.838 Y132.206 E6.27558
G1 X157.613 Y133.641 E6.31626
G1 X158.147 Y135.073 E6.35441
G1 X158.516 Y136.767 E6.39764
G1 X158.625 Y138.318 E6.43642
G1 X158.625 Y153.269 E6.80938
G1 X158.516 Y154.819 E6.84816
G1 X158.147 Y156.513 E6.89139
G1 X157.570 Y158.039 E6.93208
G1 X156.782 Y159.467 E6.97277
G1 X155.866 Y160.691 E7.01092
G1 X154.718 Y161.850 E7.05160
G1 X153.330 Y162.888 E7.09484
G1 X151.988 Y163.621 E7.13298
G1 X150.462 Y164.198 E7.17367
G1 X148.769 Y164.566 E7.21690
G1 X147.218 Y164.675 E7.25568
G1 X117.116 Y164.674 E8.00659
G1 X115.515 Y164.552 E8.04664
G1 X113.923 Y164.198 E8.08733
G1 X112.397 Y163.621 E8.12802
G1 X110.969 Y162.833 E8.16870
G1 X109.667 Y161.850 E8.20939
G1 X108.519 Y160.691 E8.25008
G1 X107.603 Y159.467 E8.28823
G1 X106.772 Y157.946 E8.33146
G1 X106.209 Y156.415 E8.37215
G1 X105.884 Y154.921 E8.41029
G1 X105.760 Y153.269 E8.45162
G1 X105.760 Y138.318 E8.82458
G1 X105.870 Y136.767 E8.86336
G1 X106.209 Y135.171 E8.90405
G1 X106.772 Y133.641 E8.94473
G1 X107.548 Y132.206 E8.98542
G1 X108.519 Y130.895 E9.02611
G1 X109.667 Y129.737 E9.06680
G1 X111.492 Y128.362 E9.12378
G1 X111.570 Y128.803 F7800.000
G1 F2700
G1 X111.685 Y128.810 E9.12666
G1 X112.643 Y128.293 E9.15383
G1 X114.120 Y127.748 E9.19309
G1 X115.586 Y127.429 E9.23052
G1 X117.137 Y127.312 E9.26933
G1 X147.211 Y127.311 E10.01952
G1 X148.799 Y127.429 E10.05924
G1 X150.336 Y127.768 E10.09851
G1 X151.809 Y128.323 E10.13777
G1 X153.188 Y129.082 E10.17704
G1 X154.445 Y130.030 E10.21630
G1 X155.506 Y131.091 E10.25373
G1 X156.493 Y132.410 E10.29483
G1 X157.243 Y133.794 E10.33410
G1 X157.768 Y135.200 E10.37153
G1 X158.118 Y136.810 E10.41263
G1 X158.225 Y138.325 E10.45052
G1 X158.225 Y153.262 E10.82312
G1 X158.118 Y154.777 E10.86101
G1 X157.768 Y156.387 E10.90211
G1 X157.213 Y157.860 E10.94137
G1 X156.454 Y159.239 E10.98064
G1 X155.554 Y160.440 E11.01807
G1 X154.445 Y161.557 E11.05734
G1 X153.126 Y162.544 E11.09843
G1 X151.809 Y163.263 E11.13586
G1 X150.336 Y163.818 E11.17513
G1 X148.726 Y164.168 E11.21623
G1 X147.211 Y164.275 E11.25412
G1 X117.137 Y164.274 E12.00431
G1 X115.586 Y164.158 E12.04311
G1 X114.049 Y163.818 E12.08238
G1 X112.576 Y163.263 E12.12164
G1 X111.197 Y162.504 E12.16091
G1 X109.940 Y161.557 E12.20018
G1 X108.879 Y160.496 E12.23761
G1 X107.932 Y159.239 E12.27687
G1 X107.142 Y157.793 E12.31797
G1 X106.597 Y156.316 E12.35724
G1 X106.278 Y154.850 E12.39467
G1 X106.160 Y153.262 E12.43439
G1 X106.160 Y138.325 E12.80699
G1 X106.267 Y136.810 E12.84488
G1 X106.597 Y135.270 E12.88415
G1 X107.142 Y133.794 E12.92341
G1 X107.892 Y132.410 E12.96268
G1 X108.831 Y131.147 E13.00194
G1 X109.940 Y130.030 E13.04121
G1 X111.534 Y128.830 E13.09096
G1 X111.791 Y129.208 F7800.000
G1 F2700
G1 X112.796 Y128.662 E13.11950
G1 X114.219 Y128.135 E13.15734
G1 X115.657 Y127.822 E13.19406
G1 X117.159 Y127.712 E13.23162
G1 X147.204 Y127.711 E13.98110
G1 X148.728 Y127.822 E14.01922
G1 X150.210 Y128.148 E14.05706
G1 X151.630 Y128.681 E14.09490
G1 X152.960 Y129.411 E14.13274
G1 X154.138 Y130.293 E14.16946
G1 X155.213 Y131.364 E14.20730
G1 X156.149 Y132.614 E14.24627
G1 X156.873 Y133.947 E14.28411
G1 X157.388 Y135.326 E14.32083
G1 X157.720 Y136.852 E14.35979
G1 X157.825 Y138.332 E14.39679
G1 X157.825 Y153.254 E14.76904
G1 X157.720 Y154.734 E14.80603
G1 X157.388 Y156.260 E14.84500
G1 X156.855 Y157.681 E14.88284
G1 X156.125 Y159.010 E14.92068
G1 X155.243 Y160.189 E14.95740
G1 X154.172 Y161.264 E14.99524
G1 X152.922 Y162.200 E15.03421
G1 X151.630 Y162.905 E15.07092
G1 X150.210 Y163.438 E15.10877
G1 X148.728 Y163.764 E15.14661
G1 X147.226 Y163.875 E15.18417
G1 X117.159 Y163.875 E15.93421
G1 X115.657 Y163.764 E15.97177
G1 X114.176 Y163.438 E16.00961
G1 X112.755 Y162.905 E16.04745
G1 X111.425 Y162.175 E16.08529
G1 X110.213 Y161.264 E16.12313
G1 X109.172 Y160.223 E16.15985
G1 X108.236 Y158.972 E16.19882
G1 X107.531 Y157.681 E16.23553
G1 X107.018 Y156.315 E16.27192
G1 X106.672 Y154.779 E16.31120
G1 X106.560 Y153.254 E16.34932
G1 X106.560 Y138.332 E16.72157
G1 X106.665 Y136.852 E16.75857
G1 X106.985 Y135.369 E16.79641
G1 X107.512 Y133.947 E16.83425
G1 X108.236 Y132.614 E16.87209
G1 X109.143 Y131.398 E16.90993
G1 X110.213 Y130.323 E16.94778
G1 X111.624 Y129.263 E16.99180
G1 X111.693 Y129.261 E16.99352
G1 X111.751 Y129.230 E16.99518
G1 X111.982 Y129.559 F7800.000
G1 F2700
G1 X112.950 Y129.032 E17.02265
G1 X114.318 Y128.523 E17.05907
G1 X115.728 Y128.216 E17.09507
G1 X117.180 Y128.111 E17.13139
G1 X147.197 Y128.111 E17.88015
G1 X148.657 Y128.216 E17.91667
G1 X150.083 Y128.528 E17.95309
G1 X151.451 Y129.039 E17.98951
G1 X152.732 Y129.740 E18.02593
G1 X153.900 Y130.616 E18.06235
G1 X154.920 Y131.636 E18.09835
G1 X155.805 Y132.818 E18.13518
G1 X156.504 Y134.100 E18.17160
G1 X157.008 Y135.453 E18.20760
G1 X157.322 Y136.895 E18.24443
G1 X157.425 Y138.339 E18.28054
G1 X157.425 Y153.256 E18.65264
G1 X157.319 Y154.708 E18.68895
G1 X157.008 Y156.134 E18.72537
G1 X156.497 Y157.501 E18.76179
G1 X155.796 Y158.782 E18.79820
G1 X154.920 Y159.950 E18.83462
G1 X153.900 Y160.971 E18.87063
G1 X152.718 Y161.856 E18.90746
G1 X151.451 Y162.547 E18.94346
G1 X150.083 Y163.059 E18.97988
G1 X148.657 Y163.370 E19.01630
G1 X147.205 Y163.475 E19.05261
G1 X117.180 Y163.475 E19.80159
G1 X115.728 Y163.370 E19.83790
G1 X114.302 Y163.059 E19.87432
G1 X112.934 Y162.547 E19.91074
G1 X111.654 Y161.847 E19.94715
G1 X110.498 Y160.982 E19.98316
G1 X109.465 Y159.950 E20.01958
G1 X108.580 Y158.768 E20.05641
G1 X107.889 Y157.501 E20.09241
G1 X107.393 Y156.175 E20.12773
G1 X107.066 Y154.708 E20.16524
G1 X106.960 Y153.247 E20.20176
G1 X106.960 Y138.339 E20.57365
G1 X107.063 Y136.895 E20.60975
G1 X107.373 Y135.468 E20.64617
G1 X107.882 Y134.100 E20.68259
G1 X108.580 Y132.818 E20.71901
G1 X109.454 Y131.649 E20.75542
G1 X110.486 Y130.616 E20.79184
G1 X111.690 Y129.713 E20.82938
G1 X111.943 Y129.581 E20.83651
G1 E19.83651 F2400.00000
G92 E0
G1 X122.812 Y103.747 F7800.000
G1 E1.00000 F2400.00000
G1 F2700
G1 X121.738 Y102.674 E1.03786
G1 X121.738 Y70.956 E1.82907
G1 X122.812 Y69.883 E1.86693
G1 X152.329 Y69.883 E2.60326
G1 X153.403 Y70.956 E2.64112
G1 X153.403 Y102.674 E3.43232
G1 X152.329 Y103.747 E3.47018
G1 X122.857 Y103.747 E4.20539
G1 X122.977 Y103.347 F7800.000
G1 F2700
G1 X122.138 Y102.508 E4.23498
G1 X122.138 Y71.122 E5.01792
G1 X122.977 Y70.283 E5.04752
G1 X152.164 Y70.283 E5.77558
G1 X153.003 Y71.122 E5.80518
G1 X153.003 Y102.508 E6.58811
G1 X152.164 Y103.347 E6.61771
G1 X123.022 Y103.347 E7.34465
G1 X123.143 Y102.947 F7800.000
G1 F2700
G1 X122.538 Y102.343 E7.36598
G1 X122.538 Y71.288 E8.14065
G1 X123.143 Y70.683 E8.16198
G1 X151.998 Y70.683 E8.88177
G1 X152.603 Y71.288 E8.90310
G1 X152.603 Y102.343 E9.67778
G1 X151.998 Y102.947 E9.69911
G1 X123.188 Y102.947 E10.41778
G1 X123.309 Y102.547 F7800.000
G1 F2700
G1 X122.938 Y102.177 E10.43084
G1 X122.938 Y71.453 E11.19725
G1 X123.309 Y71.083 E11.21031
G1 X151.832 Y71.083 E11.92184
G1 X152.203 Y71.453 E11.93490
G1 X152.203 Y102.177 E12.70131
G1 X151.832 Y102.547 E12.71437
G1 X123.354 Y102.547 E13.42478
G1 X123.474 Y102.147 F7800.000
G1 F2700
G1 X123.338 Y102.011 E13.42958
G1 X123.338 Y71.619 E14.18772
G1 X123.474 Y71.483 E14.19252
G1 X151.667 Y71.483 E14.89578
G1 X151.803 Y71.619 E14.90058
G1 X151.803 Y102.011 E15.65872
G1 X151.667 Y102.147 E15.66351
G1 X123.519 Y102.147 E16.36565
G1 E15.36565 F2400.00000
G92 E0
G1 X118.925 Y61.813 F7800.000
G1 E1.00000 F2400.00000
G1 F2700
G1 X118.925 Y65.323 E1.08755
G1 X117.852 Y66.396 E1.12541
G1 X74.334 Y66.396 E2.21097
G1 X73.261 Y65.323 E2.24883
G1 X73.261 Y61.813 E2.33638
G1 X73.144 Y61.696 E2.34051
G1 X71.834 Y61.696 E2.37318
G1 X70.761 Y60.623 E2.41104
G1 X70.761 Y36.605 E3.01017
G1 X71.834 Y35.532 E3.04803
G1 X73.144 Y35.532 E3.08070
G1 X73.261 Y35.414 E3.08483
G1 X73.261 Y31.905 E3.17238
G1 X74.334 Y30.832 E3.21024
G1 X117.852 Y30.832 E4.29579
G1 X118.925 Y31.905 E4.33366
G1 X118.925 Y35.414 E4.42120
G1 X119.042 Y35.532 E4.42534
G1 X120.352 Y35.532 E4.45800
G1 X121.425 Y36.605 E4.49587
G1 X121.425 Y60.623 E5.09499
G1 X120.352 Y61.696 E5.13286
G1 X119.042 Y61.696 E5.16552
G1 X118.957 Y61.781 E5.16853
G1 X118.525 Y61.413 F7800.000
G1 F2700
G1 X118.525 Y65.157 E5.26193
G1 X117.686 Y65.996 E5.29152
G1 X74.500 Y65.996 E6.36881
G1 X73.661 Y65.157 E6.39841
G1 X73.661 Y61.413 E6.49180
G1 X73.544 Y61.296 E6.49593
G1 X72.000 Y61.296 E6.53445
G1 X71.161 Y60.457 E6.56404
G1 X71.161 Y36.771 E7.15490
G1 X72.000 Y35.932 E7.18450
G1 X73.544 Y35.932 E7.22301
G1 X73.661 Y35.814 E7.22715
G1 X73.661 Y32.071 E7.32054
G1 X74.500 Y31.232 E7.35013
G1 X117.686 Y31.232 E8.42743
G1 X118.525 Y32.071 E8.45702
G1 X118.525 Y35.814 E8.55041
G1 X118.642 Y35.932 E8.55455
G1 X120.186 Y35.932 E8.59306
G1 X121.025 Y36.771 E8.62266
G1 X121.025 Y60.457 E9.21352
G1 X120.186 Y61.296 E9.24311
G1 X118.642 Y61.296 E9.28163
G1 X118.557 Y61.381 E9.28464
G1 X118.125 Y61.013 F7800.000
G1 F2700
G1 X118.125 Y64.991 E9.38387
G1 X117.521 Y65.596 E9.40520
G1 X74.665 Y65.596 E10.47423
G1 X74.061 Y64.991 E10.49556
G1 X74.061 Y61.013 E10.59479
G1 X73.944 Y60.896 E10.59893
G1 X72.165 Y60.896 E10.64329
G1 X71.561 Y60.291 E10.66462
G1 X71.561 Y36.936 E11.24721
G1 X72.165 Y36.332 E11.26854
G1 X73.944 Y36.332 E11.31290
G1 X74.061 Y36.214 E11.31703
G1 X74.061 Y32.236 E11.41627
G1 X74.665 Y31.632 E11.43760
G1 X117.521 Y31.632 E12.50662
G1 X118.125 Y32.236 E12.52795
