; generated by Slic3r 1.3.0-dev on 2018-05-31 at 22:48:16

; external perimeters extrusion width = 0.42mm (3.02mm^3/s)
; perimeters extrusion width = 0.42mm (4.52mm^3/s)
; infill extrusion width = 0.42mm (6.03mm^3/s)
; solid infill extrusion width = 0.42mm (1.51mm^3/s)
; top infill extrusion width = 0.42mm (1.13mm^3/s)
; support material extrusion width = 0.31mm (3.20mm^3/s)

M107
M190 S100 ; set bed temperature and wait for it to be reached
M104 S210 ; set temperature
G28 ; home all axes
G1 Z5 F5000 ; lift nozzle

; Filament gcode

M109 S210 ; set temperature and wait for it to be reached
G21 ; set units to millimeters
G90 ; use absolute coordinates
M82 ; use absolute distances for extrusion
G92 E0
G1 Z5.100 F7800.000
G1 E-1.00000 F2400.00000
G92 E0
G1 X61.428 Y72.001 F7800.000
G1 E1.00000 F2400.00000
G1 F2700
G1 X62.570 Y71.146 E1.02364
G1 X63.386 Y70.622 E1.03971
G1 X64.638 Y69.938 E1.06335
G1 X65.521 Y69.535 E1.07942
G1 X66.857 Y69.037 E1.10306
G1 X67.788 Y68.763 E1.11913
G1 X69.182 Y68.460 E1.14277
G1 X70.142 Y68.322 E1.15884
G1 X72.016 Y68.203 E1.18995
G1 X124.384 Y67.939 E2.05767
G1 X139.318 Y67.939 E2.30512
G1 X139.803 Y67.956 E2.31316
G1 X141.226 Y68.058 E2.33680
G1 X142.186 Y68.196 E2.35287
G1 X143.581 Y68.499 E2.37652
G1 X144.511 Y68.773 E2.39258
G1 X145.848 Y69.271 E2.41622
G1 X146.730 Y69.674 E2.43229
G1 X147.982 Y70.358 E2.45593
G1 X148.798 Y70.882 E2.47200
G1 X149.921 Y71.723 E2.49525
G1 X150.673 Y72.372 E2.51171
G1 X151.682 Y73.381 E2.53535
G1 X152.317 Y74.114 E2.55142
G1 X153.172 Y75.256 E2.57506
G1 X153.696 Y76.072 E2.59113
G1 X154.380 Y77.324 E2.61477
G1 X154.783 Y78.207 E2.63084
G1 X155.274 Y79.522 E2.65410
G1 X155.555 Y80.474 E2.67055
G1 X155.858 Y81.868 E2.69419
G1 X155.996 Y82.828 E2.71026
G1 X156.098 Y84.251 E2.73390
G1 X156.115 Y84.736 E2.74194
G1 X156.115 Y114.736 E3.23902
G1 X156.098 Y115.221 E3.24706
G1 X155.996 Y116.644 E3.27070
G1 X155.858 Y117.604 E3.28677
G1 X155.555 Y118.998 E3.31041
G1 X155.282 Y119.929 E3.32648
G1 X154.783 Y121.265 E3.35012
G1 X154.380 Y122.148 E3.36619
G1 X153.696 Y123.400 E3.38983
G1 X153.172 Y124.216 E3.40590
G1 X152.317 Y125.358 E3.42954
G1 X151.682 Y126.091 E3.44561
G1 X150.673 Y127.100 E3.46925
G1 X149.940 Y127.735 E3.48532
G1 X148.798 Y128.590 E3.50896
G1 X147.982 Y129.114 E3.52503
G1 X146.730 Y129.798 E3.54867
G1 X145.848 Y130.201 E3.56474
G1 X144.511 Y130.699 E3.58838
G1 X143.580 Y130.973 E3.60445
G1 X142.186 Y131.276 E3.62809
G1 X141.226 Y131.414 E3.64416
G1 X139.803 Y131.516 E3.66780
G1 X139.353 Y131.533 E3.67527
G1 X86.984 Y131.797 E4.54299
G1 X72.050 Y131.797 E4.79044
G1 X71.565 Y131.780 E4.79848
G1 X70.142 Y131.678 E4.82212
G1 X69.182 Y131.540 E4.83819
G1 X67.788 Y131.237 E4.86183
G1 X66.857 Y130.963 E4.87790
G1 X65.520 Y130.465 E4.90155
G1 X64.638 Y130.062 E4.91761
G1 X63.386 Y129.378 E4.94125
G1 X62.570 Y128.854 E4.95732
G1 X61.428 Y127.999 E4.98096
G1 X60.695 Y127.364 E4.99703
G1 X59.703 Y126.372 E5.02027
G1 X59.051 Y125.622 E5.03674
G1 X58.196 Y124.480 E5.06038
G1 X57.672 Y123.664 E5.07645
G1 X56.988 Y122.412 E5.10009
G1 X56.585 Y121.529 E5.11616
G1 X56.087 Y120.193 E5.13980
G1 X55.813 Y119.262 E5.15587
G1 X55.510 Y117.868 E5.17951
G1 X55.372 Y116.908 E5.19558
G1 X55.270 Y115.485 E5.21922
G1 X55.253 Y115.000 E5.22726
G1 X55.253 Y85.000 E5.72434
G1 X55.270 Y84.515 E5.73238
G1 X55.372 Y83.092 E5.75602
G1 X55.510 Y82.132 E5.77209
G1 X55.813 Y80.738 E5.79573
G1 X56.087 Y79.807 E5.81180
G1 X56.577 Y78.493 E5.83504
G1 X56.988 Y77.588 E5.85151
G1 X57.672 Y76.336 E5.87515
G1 X58.196 Y75.520 E5.89122
G1 X59.051 Y74.378 E5.91486
G1 X59.686 Y73.645 E5.93092
G1 X60.695 Y72.636 E5.95457
G1 X61.405 Y72.021 E5.97014
G1 X61.667 Y72.320 F7800.000
G1 F2700
G1 X62.809 Y71.465 E5.99378
G1 X63.577 Y70.972 E6.00891
G1 X64.829 Y70.288 E6.03255
G1 X65.660 Y69.909 E6.04767
G1 X66.997 Y69.410 E6.07131
G1 X67.873 Y69.153 E6.08644
G1 X69.267 Y68.849 E6.11008
G1 X70.170 Y68.720 E6.12521
G1 X72.018 Y68.602 E6.15588
G1 X124.386 Y68.338 E7.02360
G1 X139.318 Y68.337 E7.27102
G1 X141.198 Y68.456 E7.30223
G1 X142.102 Y68.585 E7.31735
G1 X143.496 Y68.889 E7.34100
G1 X144.372 Y69.146 E7.35612
G1 X145.709 Y69.645 E7.37976
G1 X146.539 Y70.024 E7.39489
G1 X147.791 Y70.708 E7.41853
G1 X148.559 Y71.201 E7.43365
G1 X149.682 Y72.042 E7.45690
G1 X150.391 Y72.654 E7.47242
G1 X151.400 Y73.663 E7.49606
G1 X151.998 Y74.353 E7.51119
G1 X152.853 Y75.495 E7.53483
G1 X153.347 Y76.263 E7.54995
G1 X154.030 Y77.515 E7.57360
G1 X154.410 Y78.346 E7.58872
G1 X154.900 Y79.660 E7.61197
G1 X155.166 Y80.558 E7.62749
G1 X155.469 Y81.953 E7.65113
G1 X155.599 Y82.856 E7.66626
G1 X155.717 Y84.736 E7.69746
G1 X155.717 Y114.736 E8.19454
G1 X155.701 Y115.192 E8.20211
G1 X155.599 Y116.616 E8.22575
G1 X155.469 Y117.519 E8.24088
G1 X155.165 Y118.914 E8.26453
G1 X154.908 Y119.789 E8.27965
G1 X154.410 Y121.126 E8.30329
G1 X154.030 Y121.957 E8.31841
G1 X153.347 Y123.209 E8.34206
G1 X152.853 Y123.977 E8.35718
G1 X151.998 Y125.119 E8.38082
G1 X151.400 Y125.809 E8.39595
G1 X150.391 Y126.818 E8.41959
G1 X149.701 Y127.416 E8.43472
G1 X148.559 Y128.271 E8.45836
G1 X147.791 Y128.764 E8.47348
G1 X146.539 Y129.448 E8.49713
G1 X145.709 Y129.827 E8.51225
G1 X144.372 Y130.326 E8.53589
G1 X143.496 Y130.583 E8.55102
G1 X142.102 Y130.886 E8.57466
G1 X141.198 Y131.016 E8.58979
G1 X139.775 Y131.118 E8.61343
G1 X139.351 Y131.134 E8.62046
G1 X86.982 Y131.398 E9.48818
G1 X72.050 Y131.399 E9.73560
G1 X70.170 Y131.280 E9.76681
G1 X69.267 Y131.151 E9.78193
G1 X67.872 Y130.847 E9.80558
G1 X66.997 Y130.590 E9.82070
G1 X65.659 Y130.091 E9.84435
G1 X64.829 Y129.712 E9.85947
G1 X63.577 Y129.028 E9.88311
G1 X62.809 Y128.535 E9.89824
G1 X61.667 Y127.680 E9.92188
G1 X60.977 Y127.082 E9.93700
G1 X59.985 Y126.090 E9.96025
G1 X59.370 Y125.383 E9.97577
G1 X58.515 Y124.241 E9.99941
G1 X58.022 Y123.473 E10.01454
G1 X57.338 Y122.221 E10.03818
G1 X56.959 Y121.390 E10.05331
G1 X56.460 Y120.053 E10.07695
G1 X56.203 Y119.177 E10.09207
G1 X55.899 Y117.783 E10.11571
G1 X55.770 Y116.880 E10.13084
G1 X55.651 Y115.000 E10.16205
G1 X55.651 Y85.000 E10.65913
G1 X55.770 Y83.120 E10.69033
G1 X55.899 Y82.217 E10.70546
G1 X56.203 Y80.823 E10.72910
G1 X56.460 Y79.947 E10.74423
G1 X56.950 Y78.632 E10.76747
G1 X57.338 Y77.779 E10.78299
G1 X58.022 Y76.527 E10.80664
G1 X58.515 Y75.759 E10.82176
G1 X59.370 Y74.617 E10.84541
G1 X59.968 Y73.927 E10.86053
G1 X60.977 Y72.918 E10.88417
G1 X61.644 Y72.340 E10.89880
G1 E9.89880 F2400.00000
G92 E0
G1 X110.191 Y82.532 F7800.000
G1 E1.00000 F2400.00000
G1 F2700
G1 X110.561 Y80.831 E1.03016
G1 X110.649 Y80.529 E1.03560
G1 X111.258 Y78.898 E1.06576
G1 X111.388 Y78.613 E1.07119
G1 X112.222 Y77.085 E1.10135
G1 X112.392 Y76.821 E1.10679
G1 X113.435 Y75.427 E1.13695
G1 X113.641 Y75.190 E1.14239
G1 X114.872 Y73.959 E1.17254
G1 X115.109 Y73.753 E1.17798
G1 X116.503 Y72.710 E1.20814
G1 X116.767 Y72.540 E1.21358
G1 X118.295 Y71.706 E1.24373
G1 X118.581 Y71.575 E1.24917
G1 X120.212 Y70.967 E1.27933
G1 X120.513 Y70.878 E1.28477
G1 X122.214 Y70.508 E1.31493
G1 X122.525 Y70.464 E1.32037
G1 X124.340 Y70.340 E1.35188
G1 X139.397 Y70.340 E1.61271
G1 X141.212 Y70.464 E1.64423
G1 X141.523 Y70.508 E1.64967
G1 X143.224 Y70.878 E1.67983
G1 X143.525 Y70.967 E1.68526
G1 X145.156 Y71.575 E1.71542
G1 X145.442 Y71.706 E1.72086
G1 X146.811 Y72.453 E1.74788
G1 X147.234 Y72.710 E1.75645
G1 X148.627 Y73.753 E1.78661
G1 X148.865 Y73.959 E1.79205
G1 X150.096 Y75.190 E1.82220
G1 X150.301 Y75.427 E1.82764
G1 X151.345 Y76.821 E1.85780
G1 X151.514 Y77.085 E1.86324
G1 X152.349 Y78.613 E1.89340
G1 X152.479 Y78.898 E1.89884
G1 X153.087 Y80.530 E1.92900
G1 X153.176 Y80.831 E1.93443
G1 X153.546 Y82.532 E1.96459
G1 X153.591 Y82.843 E1.97003
G1 X153.715 Y84.657 E2.00154
G1 X153.715 Y114.814 E2.52395
G1 X153.591 Y116.629 E2.55546
G1 X153.546 Y116.940 E2.56090
G1 X153.176 Y118.641 E2.59106
G1 X153.087 Y118.943 E2.59650
G1 X152.479 Y120.573 E2.62665
G1 X152.349 Y120.859 E2.63210
G1 X151.514 Y122.387 E2.66225
G1 X151.344 Y122.651 E2.66769
G1 X150.301 Y124.045 E2.69785
G1 X150.096 Y124.282 E2.70329
G1 X148.865 Y125.513 E2.73344
G1 X148.627 Y125.719 E2.73888
G1 X147.234 Y126.762 E2.76904
G1 X146.970 Y126.932 E2.77448
G1 X145.442 Y127.766 E2.80464
G1 X145.156 Y127.897 E2.81008
G1 X143.525 Y128.505 E2.84023
G1 X143.224 Y128.593 E2.84567
G1 X141.523 Y128.964 E2.87583
G1 X141.212 Y129.008 E2.88127
G1 X139.397 Y129.132 E2.91278
G1 X124.340 Y129.132 E3.17362
G1 X122.525 Y129.008 E3.20513
G1 X122.214 Y128.964 E3.21057
G1 X120.513 Y128.593 E3.24073
G1 X120.212 Y128.505 E3.24617
G1 X118.580 Y127.897 E3.27633
G1 X118.295 Y127.766 E3.28176
G1 X116.767 Y126.932 E3.31192
G1 X116.503 Y126.762 E3.31736
G1 X115.109 Y125.719 E3.34752
G1 X114.872 Y125.513 E3.35296
G1 X113.641 Y124.282 E3.38311
G1 X113.435 Y124.045 E3.38855
G1 X112.392 Y122.651 E3.41871
G1 X112.222 Y122.387 E3.42415
G1 X111.388 Y120.859 E3.45431
G1 X111.258 Y120.574 E3.45974
G1 X110.649 Y118.942 E3.48990
G1 X110.561 Y118.641 E3.49534
G1 X110.229 Y117.117 E3.52237
G1 X110.146 Y116.629 E3.53093
G1 X110.022 Y114.814 E3.56245
G1 X110.022 Y84.657 E4.08485
G1 X110.146 Y82.843 E4.11637
G1 X110.186 Y82.561 E4.12129
G1 X110.601 Y82.606 F7800.000
G1 F2700
G1 X110.965 Y80.934 E4.15093
G1 X111.045 Y80.661 E4.15585
G1 X111.643 Y79.058 E4.18550
G1 X111.761 Y78.799 E4.19042
G1 X112.581 Y77.298 E4.22006
G1 X112.735 Y77.058 E4.22498
G1 X113.760 Y75.689 E4.25463
G1 X113.946 Y75.474 E4.25955
G1 X115.156 Y74.264 E4.28919
G1 X115.371 Y74.078 E4.29411
G1 X116.741 Y73.052 E4.32376
G1 X116.980 Y72.899 E4.32868
G1 X118.482 Y72.079 E4.35832
G1 X118.740 Y71.960 E4.36324
G1 X120.343 Y71.363 E4.39288
G1 X120.616 Y71.282 E4.39781
G1 X122.288 Y70.919 E4.42745
G1 X122.569 Y70.878 E4.43237
G1 X124.347 Y70.756 E4.46325
G1 X139.389 Y70.756 E4.72382
G1 X141.167 Y70.878 E4.75469
G1 X141.449 Y70.919 E4.75961
G1 X143.121 Y71.282 E4.78925
G1 X143.393 Y71.363 E4.79418
G1 X144.996 Y71.960 E4.82382
G1 X145.255 Y72.079 E4.82874
G1 X146.611 Y72.819 E4.85551
G1 X146.996 Y73.052 E4.86330
G1 X148.366 Y74.078 E4.89294
G1 X148.581 Y74.264 E4.89787
G1 X149.790 Y75.474 E4.92751
G1 X149.977 Y75.689 E4.93243
G1 X151.002 Y77.058 E4.96208
G1 X151.156 Y77.298 E4.96700
G1 X151.976 Y78.799 E4.99664
G1 X152.094 Y79.058 E5.00156
G1 X152.692 Y80.661 E5.03121
G1 X152.772 Y80.934 E5.03613
G1 X153.136 Y82.606 E5.06577
G1 X153.176 Y82.887 E5.07069
G1 X153.298 Y84.665 E5.10156
G1 X153.298 Y114.807 E5.62371
G1 X153.176 Y116.585 E5.65458
G1 X153.136 Y116.866 E5.65951
G1 X152.772 Y118.538 E5.68915
G1 X152.692 Y118.811 E5.69407
G1 X152.094 Y120.414 E5.72371
G1 X151.976 Y120.673 E5.72864
G1 X151.156 Y122.174 E5.75828
G1 X151.002 Y122.414 E5.76320
G1 X149.977 Y123.783 E5.79284
G1 X149.790 Y123.998 E5.79777
G1 X148.581 Y125.208 E5.82741
G1 X148.366 Y125.394 E5.83233
G1 X146.996 Y126.420 E5.86197
G1 X146.757 Y126.573 E5.86690
G1 X145.255 Y127.393 E5.89654
G1 X144.996 Y127.511 E5.90146
G1 X143.393 Y128.109 E5.93110
G1 X143.121 Y128.190 E5.93603
G1 X141.449 Y128.553 E5.96567
G1 X141.167 Y128.594 E5.97059
G1 X139.389 Y128.716 E6.00146
G1 X124.347 Y128.716 E6.26204
G1 X122.570 Y128.594 E6.29290
G1 X122.288 Y128.553 E6.29783
G1 X120.616 Y128.189 E6.32748
G1 X120.343 Y128.109 E6.33240
G1 X118.740 Y127.511 E6.36204
G1 X118.482 Y127.393 E6.36696
G1 X116.980 Y126.573 E6.39660
G1 X116.741 Y126.420 E6.40153
G1 X115.371 Y125.394 E6.43117
G1 X115.156 Y125.208 E6.43609
G1 X113.946 Y123.998 E6.46574
G1 X113.760 Y123.783 E6.47066
G1 X112.735 Y122.414 E6.50030
G1 X112.581 Y122.174 E6.50522
G1 X111.761 Y120.673 E6.53486
G1 X111.643 Y120.414 E6.53979
G1 X111.045 Y118.811 E6.56943
G1 X110.965 Y118.538 E6.57435
G1 X110.636 Y117.028 E6.60112
G1 X110.561 Y116.585 E6.60891
G1 X110.439 Y114.807 E6.63978
G1 X110.439 Y84.665 E7.16193
G1 X110.561 Y82.887 E7.19280
G1 X110.597 Y82.635 E7.19721
G1 X111.011 Y82.680 F7800.000
G1 F2700
G1 X111.369 Y81.037 E7.22634
G1 X111.440 Y80.793 E7.23074
G1 X112.028 Y79.217 E7.25987
G1 X112.134 Y78.986 E7.26428
G1 X112.939 Y77.510 E7.29340
G1 X113.077 Y77.296 E7.29781
G1 X114.085 Y75.950 E7.32694
G1 X114.251 Y75.758 E7.33134
G1 X115.440 Y74.569 E7.36047
G1 X115.633 Y74.402 E7.36488
G1 X116.979 Y73.395 E7.39401
G1 X117.193 Y73.257 E7.39841
G1 X118.668 Y72.451 E7.42754
G1 X118.900 Y72.346 E7.43195
G1 X120.475 Y71.758 E7.46107
G1 X120.719 Y71.686 E7.46548
G1 X122.362 Y71.329 E7.49461
G1 X122.614 Y71.293 E7.49901
G1 X124.355 Y71.173 E7.52924
G1 X139.382 Y71.173 E7.78956
G1 X141.123 Y71.293 E7.81978
G1 X141.374 Y71.329 E7.82419
G1 X143.017 Y71.686 E7.85332
G1 X143.262 Y71.758 E7.85772
G1 X144.837 Y72.346 E7.88685
G1 X145.068 Y72.451 E7.89126
G1 X146.411 Y73.185 E7.91777
G1 X146.758 Y73.395 E7.92479
G1 X148.104 Y74.402 E7.95391
G1 X148.296 Y74.569 E7.95832
G1 X149.485 Y75.758 E7.98745
G1 X149.652 Y75.950 E7.99186
G1 X150.660 Y77.296 E8.02098
G1 X150.797 Y77.510 E8.02539
G1 X151.603 Y78.986 E8.05452
G1 X151.709 Y79.217 E8.05892
G1 X152.296 Y80.793 E8.08805
G1 X152.368 Y81.037 E8.09246
G1 X152.725 Y82.680 E8.12158
G1 X152.761 Y82.932 E8.12599
G1 X152.881 Y84.672 E8.15622
G1 X152.881 Y114.800 E8.67811
G1 X152.761 Y116.540 E8.70833
G1 X152.725 Y116.792 E8.71274
G1 X152.368 Y118.435 E8.74187
G1 X152.296 Y118.679 E8.74628
G1 X151.709 Y120.254 E8.77540
G1 X151.603 Y120.486 E8.77981
G1 X150.797 Y121.962 E8.80894
G1 X150.660 Y122.176 E8.81335
G1 X149.652 Y123.522 E8.84247
G1 X149.485 Y123.714 E8.84688
G1 X148.297 Y124.903 E8.87600
G1 X148.104 Y125.070 E8.88041
G1 X146.758 Y126.077 E8.90954
G1 X146.544 Y126.215 E8.91395
G1 X145.068 Y127.021 E8.94307
G1 X144.837 Y127.126 E8.94748
G1 X143.262 Y127.714 E8.97660
G1 X143.017 Y127.786 E8.98102
G1 X141.375 Y128.143 E9.01014
G1 X141.123 Y128.179 E9.01455
G1 X139.382 Y128.299 E9.04478
G1 X124.355 Y128.299 E9.30509
G1 X122.614 Y128.179 E9.33531
G1 X122.362 Y128.143 E9.33973
G1 X120.719 Y127.786 E9.36885
G1 X120.475 Y127.714 E9.37326
G1 X118.900 Y127.126 E9.40239
G1 X118.668 Y127.021 E9.40680
G1 X117.193 Y126.215 E9.43592
G1 X116.978 Y126.077 E9.44033
G1 X115.632 Y125.070 E9.46946
G1 X115.440 Y124.903 E9.47386
G1 X114.251 Y123.714 E9.50299
G1 X114.085 Y123.522 E9.50740
G1 X113.077 Y122.176 E9.53652
G1 X112.939 Y121.962 E9.54093
G1 X112.134 Y120.486 E9.57006
G1 X112.028 Y120.255 E9.57447
G1 X111.440 Y118.679 E9.60359
G1 X111.369 Y118.435 E9.60800
G1 X111.043 Y116.940 E9.63451
G1 X110.975 Y116.540 E9.64153
G1 X110.855 Y114.800 E9.67175
G1 X110.855 Y84.672 E10.19365
G1 X110.975 Y82.932 E10.22387
G1 X111.007 Y82.709 E10.22776
G1 X111.422 Y82.754 F7800.000
G1 F2700
G1 X111.773 Y81.140 E10.25637
G1 X111.836 Y80.924 E10.26026
G1 X112.413 Y79.377 E10.28888
G1 X112.507 Y79.172 E10.29277
G1 X113.298 Y77.723 E10.32138
G1 X113.420 Y77.534 E10.32527
G1 X114.409 Y76.212 E10.35388
G1 X114.556 Y76.042 E10.35777
G1 X115.724 Y74.874 E10.38638
G1 X115.894 Y74.727 E10.39028
G1 X117.216 Y73.737 E10.41889
G1 X117.405 Y73.616 E10.42278
G1 X118.855 Y72.824 E10.45139
G1 X119.059 Y72.731 E10.45528
G1 X120.607 Y72.154 E10.48389
G1 X120.822 Y72.090 E10.48778
G1 X122.436 Y71.739 E10.51639
G1 X122.659 Y71.707 E10.52029
G1 X124.362 Y71.590 E10.54987
G1 X139.374 Y71.590 E10.80993
G1 X141.078 Y71.707 E10.83951
G1 X141.300 Y71.739 E10.84340
G1 X142.914 Y72.090 E10.87201
G1 X143.130 Y72.154 E10.87590
G1 X144.677 Y72.731 E10.90451
G1 X144.882 Y72.824 E10.90841
G1 X146.212 Y73.550 E10.93466
G1 X146.520 Y73.737 E10.94091
G1 X147.842 Y74.727 E10.96952
G1 X148.012 Y74.874 E10.97341
G1 X149.180 Y76.042 E11.00202
G1 X149.327 Y76.212 E11.00591
G1 X150.317 Y77.534 E11.03452
G1 X150.439 Y77.723 E11.03841
G1 X151.230 Y79.173 E11.06702
G1 X151.323 Y79.377 E11.07092
G1 X151.901 Y80.925 E11.09953
G1 X151.964 Y81.140 E11.10342
G1 X152.315 Y82.754 E11.13203
G1 X152.347 Y82.976 E11.13592
G1 X152.465 Y84.680 E11.16550
G1 X152.465 Y114.792 E11.68714
G1 X152.347 Y116.496 E11.71672
G1 X152.315 Y116.718 E11.72061
G1 X151.964 Y118.332 E11.74923
G1 X151.901 Y118.548 E11.75312
G1 X151.324 Y120.095 E11.78172
G1 X151.230 Y120.299 E11.78562
G1 X150.439 Y121.749 E11.81423
G1 X150.317 Y121.938 E11.81812
G1 X149.327 Y123.260 E11.84673
G1 X149.180 Y123.430 E11.85063
G1 X148.012 Y124.598 E11.87923
