; generated by Slic3r 1.3.0-dev on 2018-06-03 at 13:22:33

; external perimeters extrusion width = 0.42mm (5.33mm^3/s)
; perimeters extrusion width = 0.42mm (5.33mm^3/s)
; infill extrusion width = 0.42mm (8.53mm^3/s)
; solid infill extrusion width = 0.42mm (2.13mm^3/s)
; top infill extrusion width = 0.42mm (1.60mm^3/s)
; support material extrusion width = 0.31mm (4.42mm^3/s)

M107
M190 S100 ; set bed temperature and wait for it to be reached
M104 S210 ; set temperature
G28 ; home all axes
G1 Z5 F5000 ; lift nozzle

; Filament gcode

M109 S210 ; set temperature and wait for it to be reached
G21 ; set units to millimeters
G90 ; use absolute coordinates
M82 ; use absolute distances for extrusion
G92 E0
G1 Z5.150 F7800.000
G1 E-1.00000 F2400.00000
G92 E0
G1 X61.441 Y72.018 F7800.000
G1 E1.00000 F2400.00000
G1 F2700
G1 X62.583 Y71.163 E1.03451
G1 X63.396 Y70.641 E1.05789
G1 X64.649 Y69.957 E1.09239
G1 X65.528 Y69.555 E1.11577
G1 X66.865 Y69.057 E1.15028
G1 X67.792 Y68.784 E1.17366
G1 X69.187 Y68.481 E1.20817
G1 X70.143 Y68.343 E1.23155
G1 X71.567 Y68.242 E1.26606
G1 X72.050 Y68.224 E1.27775
G1 X86.950 Y68.224 E1.63811
G1 X87.433 Y68.242 E1.64980
G1 X88.857 Y68.343 E1.68431
G1 X89.813 Y68.481 E1.70769
G1 X91.173 Y68.777 E1.74134
G1 X92.135 Y69.057 E1.76558
G1 X93.472 Y69.555 E1.80008
G1 X94.351 Y69.957 E1.82346
G1 X95.604 Y70.641 E1.85798
G1 X96.417 Y71.163 E1.88135
G1 X97.559 Y72.018 E1.91586
G1 X98.290 Y72.651 E1.93924
G1 X99.299 Y73.660 E1.97374
G1 X99.932 Y74.391 E1.99712
G1 X100.765 Y75.505 E2.03077
G1 X101.309 Y76.346 E2.05501
G1 X101.993 Y77.599 E2.08952
G1 X102.395 Y78.478 E2.11290
G1 X102.893 Y79.815 E2.14740
G1 X103.166 Y80.742 E2.17078
G1 X103.469 Y82.137 E2.20530
G1 X103.607 Y83.093 E2.22867
G1 X103.708 Y84.517 E2.26318
G1 X103.726 Y85.000 E2.27487
G1 X103.726 Y115.000 E3.00042
G1 X103.708 Y115.483 E3.01212
G1 X103.607 Y116.907 E3.04663
G1 X103.469 Y117.863 E3.07000
G1 X103.166 Y119.258 E3.10451
G1 X102.893 Y120.185 E3.12789
G1 X102.395 Y121.522 E3.16240
G1 X101.993 Y122.401 E3.18578
G1 X101.309 Y123.654 E3.22029
G1 X100.787 Y124.467 E3.24367
G1 X99.932 Y125.609 E3.27817
G1 X99.299 Y126.340 E3.30155
G1 X98.290 Y127.349 E3.33606
G1 X97.559 Y127.982 E3.35944
G1 X96.417 Y128.837 E3.39395
G1 X95.604 Y129.359 E3.41733
G1 X94.351 Y130.043 E3.45183
G1 X93.472 Y130.445 E3.47521
G1 X92.135 Y130.943 E3.50972
G1 X91.208 Y131.216 E3.53310
G1 X89.813 Y131.519 E3.56761
G1 X88.857 Y131.657 E3.59099
G1 X87.433 Y131.758 E3.62550
G1 X86.950 Y131.776 E3.63719
G1 X72.050 Y131.776 E3.99755
G1 X71.567 Y131.758 E4.00924
G1 X70.143 Y131.657 E4.04375
G1 X69.187 Y131.519 E4.06713
G1 X67.792 Y131.216 E4.10164
G1 X66.865 Y130.943 E4.12502
G1 X65.528 Y130.445 E4.15953
G1 X64.649 Y130.043 E4.18291
G1 X63.428 Y129.376 E4.21655
G1 X62.583 Y128.837 E4.24079
G1 X61.441 Y127.982 E4.27530
G1 X60.710 Y127.349 E4.29868
G1 X59.701 Y126.340 E4.33319
G1 X59.068 Y125.609 E4.35656
G1 X58.235 Y124.495 E4.39021
G1 X57.691 Y123.654 E4.41445
G1 X57.007 Y122.401 E4.44896
G1 X56.605 Y121.522 E4.47234
G1 X56.107 Y120.185 E4.50685
G1 X55.834 Y119.258 E4.53022
G1 X55.531 Y117.863 E4.56473
G1 X55.393 Y116.906 E4.58811
G1 X55.292 Y115.483 E4.62262
G1 X55.274 Y115.000 E4.63431
G1 X55.274 Y85.000 E5.35986
G1 X55.292 Y84.517 E5.37156
G1 X55.393 Y83.093 E5.40607
G1 X55.531 Y82.137 E5.42945
G1 X55.834 Y80.742 E5.46395
G1 X56.107 Y79.815 E5.48733
G1 X56.605 Y78.478 E5.52184
G1 X57.007 Y77.599 E5.54522
G1 X57.691 Y76.346 E5.57973
G1 X58.213 Y75.533 E5.60311
G1 X59.068 Y74.391 E5.63761
G1 X59.701 Y73.660 E5.66099
G1 X60.710 Y72.651 E5.69550
G1 X61.407 Y72.048 E5.71779
G1 X61.673 Y72.329 F7800.000
G1 F2700
G1 X62.816 Y71.474 E5.75230
G1 X63.582 Y70.981 E5.77434
G1 X64.834 Y70.297 E5.80885
G1 X65.664 Y69.919 E5.83089
G1 X67.000 Y69.420 E5.86540
G1 X67.875 Y69.163 E5.88744
G1 X69.269 Y68.860 E5.92194
G1 X70.171 Y68.730 E5.94399
G1 X72.050 Y68.612 E5.98952
G1 X86.950 Y68.612 E6.34987
G1 X88.829 Y68.730 E6.39540
G1 X89.731 Y68.860 E6.41744
G1 X91.090 Y69.156 E6.45109
G1 X92.000 Y69.420 E6.47399
G1 X93.336 Y69.919 E6.50850
G1 X94.165 Y70.297 E6.53054
G1 X95.418 Y70.981 E6.56505
G1 X96.184 Y71.474 E6.58709
G1 X97.327 Y72.329 E6.62160
G1 X98.015 Y72.926 E6.64364
G1 X99.024 Y73.935 E6.67814
G1 X99.621 Y74.623 E6.70018
G1 X100.455 Y75.737 E6.73383
G1 X100.969 Y76.532 E6.75673
G1 X101.653 Y77.784 E6.79124
G1 X102.031 Y78.614 E6.81328
G1 X102.530 Y79.950 E6.84779
G1 X102.787 Y80.825 E6.86983
G1 X103.090 Y82.219 E6.90434
G1 X103.220 Y83.121 E6.92638
G1 X103.322 Y84.544 E6.96088
G1 X103.338 Y85.000 E6.97191
G1 X103.338 Y115.000 E7.69746
G1 X103.220 Y116.879 E7.74299
G1 X103.090 Y117.781 E7.76503
G1 X102.787 Y119.175 E7.79954
G1 X102.530 Y120.050 E7.82158
G1 X102.031 Y121.386 E7.85609
G1 X101.653 Y122.215 E7.87813
G1 X100.969 Y123.468 E7.91263
G1 X100.476 Y124.234 E7.93468
G1 X99.621 Y125.377 E7.96918
G1 X99.024 Y126.065 E7.99122
G1 X98.015 Y127.074 E8.02573
G1 X97.327 Y127.671 E8.04777
G1 X96.184 Y128.526 E8.08228
G1 X95.418 Y129.019 E8.10432
G1 X94.165 Y129.703 E8.13883
G1 X93.336 Y130.081 E8.16087
G1 X91.999 Y130.580 E8.19538
G1 X91.125 Y130.837 E8.21742
G1 X89.731 Y131.140 E8.25193
G1 X88.829 Y131.270 E8.27397
G1 X86.950 Y131.388 E8.31950
G1 X72.050 Y131.388 E8.67985
G1 X70.171 Y131.270 E8.72538
G1 X69.269 Y131.140 E8.74742
G1 X67.875 Y130.837 E8.78193
G1 X67.000 Y130.580 E8.80397
G1 X65.664 Y130.081 E8.83848
G1 X64.835 Y129.703 E8.86052
G1 X63.614 Y129.036 E8.89417
G1 X62.816 Y128.526 E8.91707
G1 X61.673 Y127.671 E8.95158
G1 X60.985 Y127.074 E8.97362
G1 X59.975 Y126.065 E9.00813
G1 X59.379 Y125.377 E9.03017
G1 X58.545 Y124.263 E9.06381
G1 X58.031 Y123.468 E9.08671
G1 X57.347 Y122.215 E9.12122
G1 X56.969 Y121.386 E9.14326
G1 X56.470 Y120.050 E9.17777
G1 X56.213 Y119.175 E9.19981
G1 X55.910 Y117.781 E9.23432
G1 X55.780 Y116.879 E9.25636
G1 X55.678 Y115.456 E9.29087
G1 X55.662 Y115.000 E9.30189
G1 X55.662 Y85.000 E10.02744
G1 X55.678 Y84.544 E10.03847
G1 X55.780 Y83.121 E10.07298
G1 X55.910 Y82.219 E10.09502
G1 X56.213 Y80.825 E10.12952
G1 X56.470 Y79.950 E10.15156
G1 X56.956 Y78.647 E10.18521
G1 X57.347 Y77.784 E10.20811
G1 X58.031 Y76.532 E10.24262
G1 X58.524 Y75.766 E10.26466
G1 X59.379 Y74.623 E10.29917
G1 X59.976 Y73.935 E10.32121
G1 X60.985 Y72.926 E10.35572
G1 X61.639 Y72.358 E10.37667
G1 E9.37667 F2400.00000
G92 E0
G1 X64.403 Y75.976 F7800.000
G1 E1.00000 F2400.00000
G1 F2700
G1 X65.708 Y75.011 E1.04048
G1 X67.194 Y74.210 E1.08259
G1 X68.779 Y73.629 E1.12471
G1 X70.431 Y73.279 E1.16682
G1 X72.017 Y73.168 E1.20649
G1 X86.983 Y73.168 E1.57980
G1 X88.569 Y73.279 E1.61947
G1 X90.346 Y73.666 E1.66484
G1 X91.806 Y74.210 E1.70370
G1 X93.292 Y75.011 E1.74581
G1 X94.649 Y76.015 E1.78792
G1 X95.849 Y77.202 E1.83004
G1 X96.939 Y78.658 E1.87541
G1 X97.740 Y80.144 E1.91752
G1 X98.284 Y81.604 E1.95637
G1 X98.652 Y83.251 E1.99849
G1 X98.780 Y84.902 E2.03978
G1 X98.782 Y115.033 E2.79140
G1 X98.671 Y116.619 E2.83107
G1 X98.284 Y118.396 E2.87644
G1 X97.686 Y119.975 E2.91855
G1 X96.868 Y121.452 E2.96066
G1 X95.849 Y122.798 E3.00278
G1 X94.748 Y123.899 E3.04163
G1 X93.292 Y124.989 E3.08700
G1 X91.806 Y125.790 E3.12911
G1 X90.346 Y126.334 E3.16797
G1 X88.569 Y126.721 E3.21334
G1 X86.983 Y126.832 E3.25301
G1 X72.017 Y126.832 E3.62632
G1 X70.431 Y126.721 E3.66599
G1 X68.654 Y126.334 E3.71136
G1 X67.075 Y125.736 E3.75347
G1 X65.708 Y124.989 E3.79233
G1 X64.351 Y123.985 E3.83444
G1 X63.222 Y122.869 E3.87404
G1 X63.065 Y122.699 E3.87982
G1 X62.061 Y121.342 E3.92193
G1 X61.314 Y119.975 E3.96079
G1 X60.716 Y118.396 E4.00290
G1 X60.348 Y116.749 E4.04501
G1 X60.220 Y115.098 E4.08631
G1 X60.220 Y84.902 E4.83956
G1 X60.348 Y83.251 E4.88085
G1 X60.679 Y81.729 E4.91971
G1 X61.314 Y80.025 E4.96508
G1 X62.061 Y78.658 E5.00393
G1 X63.065 Y77.301 E5.04605
G1 X64.367 Y76.003 E5.09192
G1 X64.643 Y76.296 F7800.000
G1 F2700
G1 X65.912 Y75.355 E5.13133
G1 X67.347 Y74.580 E5.17202
G1 X68.878 Y74.016 E5.21271
G1 X70.474 Y73.677 E5.25340
G1 X72.024 Y73.568 E5.29218
G1 X86.976 Y73.568 E5.66514
G1 X88.526 Y73.677 E5.70392
G1 X90.220 Y74.045 E5.74715
G1 X91.653 Y74.580 E5.78529
G1 X93.088 Y75.355 E5.82598
G1 X94.398 Y76.327 E5.86667
G1 X95.556 Y77.475 E5.90736
G1 X96.595 Y78.862 E5.95059
G1 X97.370 Y80.297 E5.99128
G1 X97.905 Y81.730 E6.02943
G1 X98.259 Y83.322 E6.07012
G1 X98.380 Y84.923 E6.11017
G1 X98.382 Y115.026 E6.86107
G1 X98.273 Y116.576 E6.89985
G1 X97.905 Y118.270 E6.94308
G1 X97.328 Y119.796 E6.98377
G1 X96.540 Y121.224 E7.02446
G1 X95.623 Y122.448 E7.06260
G1 X94.475 Y123.606 E7.10329
G1 X93.088 Y124.645 E7.14653
G1 X91.653 Y125.420 E7.18722
G1 X90.220 Y125.955 E7.22536
G1 X88.526 Y126.323 E7.26859
G1 X86.976 Y126.432 E7.30737
G1 X72.024 Y126.432 E7.68033
G1 X70.474 Y126.323 E7.71911
G1 X68.780 Y125.955 E7.76235
G1 X67.254 Y125.378 E7.80303
G1 X65.912 Y124.645 E7.84118
G1 X64.602 Y123.673 E7.88187
G1 X63.505 Y122.587 E7.92039
G1 X63.377 Y122.448 E7.92511
G1 X62.405 Y121.138 E7.96579
G1 X61.672 Y119.796 E8.00394
G1 X61.095 Y118.270 E8.04463
G1 X60.741 Y116.678 E8.08532
G1 X60.620 Y115.077 E8.12537
G1 X60.620 Y84.923 E8.87754
G1 X60.741 Y83.322 E8.91759
G1 X61.066 Y81.828 E8.95574
G1 X61.672 Y80.204 E8.99897
G1 X62.405 Y78.862 E9.03712
G1 X63.377 Y77.552 E9.07780
G1 X64.607 Y76.323 E9.12119
G1 X64.883 Y76.616 F7800.000
G1 F2700
G1 X66.117 Y75.699 E9.15954
G1 X67.501 Y74.949 E9.19880
G1 X68.977 Y74.404 E9.23807
G1 X70.516 Y74.075 E9.27733
G1 X72.032 Y73.968 E9.31522
G1 X86.968 Y73.968 E9.68782
G1 X88.484 Y74.075 E9.72571
G1 X90.093 Y74.425 E9.76681
G1 X91.499 Y74.949 E9.80424
G1 X92.883 Y75.699 E9.84351
G1 X94.147 Y76.638 E9.88277
G1 X95.263 Y77.748 E9.92204
G1 X96.251 Y79.067 E9.96314
G1 X97.001 Y80.451 E10.00240
G1 X97.525 Y81.857 E10.03983
G1 X97.865 Y83.393 E10.07910
G1 X97.981 Y84.945 E10.11790
G1 X97.982 Y115.018 E10.86809
G1 X97.875 Y116.534 E10.90598
G1 X97.525 Y118.143 E10.94708
G1 X96.970 Y119.616 E10.98635
G1 X96.211 Y120.995 E11.02561
G1 X95.263 Y122.252 E11.06488
G1 X94.202 Y123.313 E11.10231
G1 X92.883 Y124.301 E11.14341
G1 X91.499 Y125.051 E11.18267
G1 X90.093 Y125.575 E11.22010
G1 X88.484 Y125.925 E11.26120
G1 X86.968 Y126.032 E11.29909
G1 X72.032 Y126.032 E11.67169
G1 X70.516 Y125.925 E11.70958
G1 X68.906 Y125.575 E11.75068
G1 X67.434 Y125.020 E11.78995
G1 X66.117 Y124.301 E11.82738
G1 X64.853 Y123.362 E11.86664
G1 X63.788 Y122.304 E11.90410
G1 X63.688 Y122.197 E11.90774
G1 X62.749 Y120.933 E11.94701
G1 X62.030 Y119.616 E11.98444
G1 X61.475 Y118.143 E12.02371
G1 X61.135 Y116.607 E12.06297
G1 X61.019 Y115.055 E12.10178
G1 X61.019 Y84.945 E12.85289
G1 X61.135 Y83.393 E12.89169
G1 X61.454 Y81.927 E12.92912
G1 X62.030 Y80.384 E12.97022
G1 X62.749 Y79.067 E13.00765
G1 X63.688 Y77.803 E13.04692
G1 X64.847 Y76.644 E13.08781
G1 X65.123 Y76.936 F7800.000
G1 F2700
G1 X66.321 Y76.043 E13.12509
G1 X67.654 Y75.319 E13.16293
G1 X69.076 Y74.792 E13.20077
G1 X70.559 Y74.473 E13.23862
G1 X72.039 Y74.368 E13.27561
G1 X86.961 Y74.368 E13.64786
G1 X88.441 Y74.473 E13.68486
G1 X89.967 Y74.805 E13.72382
G1 X91.346 Y75.319 E13.76054
G1 X92.679 Y76.043 E13.79838
G1 X93.896 Y76.950 E13.83622
G1 X94.970 Y78.020 E13.87407
G1 X95.907 Y79.271 E13.91303
G1 X96.612 Y80.563 E13.94975
G1 X97.145 Y81.983 E13.98759
G1 X97.471 Y83.465 E14.02543
G1 X97.581 Y84.966 E14.06299
G1 X97.582 Y115.011 E14.81247
G1 X97.477 Y116.491 E14.84947
G1 X97.145 Y118.017 E14.88843
G1 X96.612 Y119.437 E14.92627
G1 X95.907 Y120.729 E14.96299
G1 X94.970 Y121.980 E15.00196
G1 X93.896 Y123.050 E15.03980
G1 X92.679 Y123.957 E15.07764
G1 X91.346 Y124.681 E15.11548
G1 X89.967 Y125.195 E15.15220
G1 X88.485 Y125.521 E15.19004
G1 X86.984 Y125.631 E15.22760
G1 X72.039 Y125.632 E15.60041
G1 X70.559 Y125.527 E15.63741
G1 X69.033 Y125.195 E15.67637
G1 X67.613 Y124.662 E15.71421
G1 X66.321 Y123.957 E15.75093
G1 X65.104 Y123.050 E15.78877
G1 X64.071 Y122.021 E15.82516
G1 X63.093 Y120.729 E15.86556
G1 X62.388 Y119.437 E15.90228
G1 X61.855 Y118.017 E15.94012
G1 X61.529 Y116.535 E15.97796
G1 X61.419 Y115.034 E16.01552
G1 X61.419 Y84.966 E16.76557
G1 X61.529 Y83.465 E16.80313
G1 X61.842 Y82.026 E16.83984
G1 X62.388 Y80.563 E16.87881
G1 X63.093 Y79.271 E16.91553
G1 X64.000 Y78.054 E16.95337
G1 X65.088 Y76.965 E16.99177
G1 X65.362 Y77.257 F7800.000
G1 F2700
G1 X66.525 Y76.388 E17.02799
G1 X67.807 Y75.689 E17.06440
G1 X69.175 Y75.180 E17.10082
G1 X70.602 Y74.871 E17.13724
G1 X72.046 Y74.768 E17.17335
G1 X86.954 Y74.768 E17.54523
G1 X88.398 Y74.871 E17.58134
G1 X89.841 Y75.185 E17.61817
G1 X91.193 Y75.689 E17.65418
G1 X92.475 Y76.388 E17.69060
G1 X93.657 Y77.272 E17.72743
G1 X94.688 Y78.306 E17.76384
G1 X95.562 Y79.475 E17.80026
G1 X96.254 Y80.742 E17.83627
G1 X96.765 Y82.109 E17.87268
G1 X97.077 Y83.536 E17.90910
G1 X97.182 Y84.988 E17.94542
G1 X97.182 Y115.012 E18.69439
G1 X97.077 Y116.464 E18.73070
G1 X96.765 Y117.891 E18.76712
G1 X96.261 Y119.243 E18.80313
G1 X95.562 Y120.525 E18.83954
G1 X94.678 Y121.707 E18.87637
G1 X93.644 Y122.738 E18.91279
G1 X92.475 Y123.612 E18.94921
G1 X91.193 Y124.311 E18.98563
G1 X89.841 Y124.815 E19.02163
G1 X88.414 Y125.127 E19.05805
G1 X86.962 Y125.232 E19.09436
G1 X72.046 Y125.232 E19.46646
G1 X70.602 Y125.129 E19.50257
G1 X69.159 Y124.815 E19.53940
G1 X67.807 Y124.311 E19.57540
G1 X66.525 Y123.612 E19.61182
G1 X65.356 Y122.738 E19.64824
G1 X64.354 Y121.738 E19.68356
G1 X63.438 Y120.525 E19.72148
G1 X62.746 Y119.258 E19.75748
G1 X62.235 Y117.891 E19.79390
G1 X61.923 Y116.464 E19.83032
G1 X61.818 Y115.012 E19.86663
G1 X61.818 Y84.988 E20.61560
G1 X61.923 Y83.536 E20.65192
G1 X62.230 Y82.125 E20.68792
G1 X62.739 Y80.757 E20.72434
G1 X63.447 Y79.461 E20.76117
G1 X64.312 Y78.306 E20.79718
G1 X65.329 Y77.287 E20.83309
G1 E19.83309 F2400.00000
G92 E0
G1 X94.348 Y121.411 F7800.000
G1 E1.00000 F2400.00000
G1 F2250
G1 X93.361 Y122.398 E1.03378
G1 X92.243 Y123.235 E1.06756
G1 X91.017 Y123.905 E1.10134
G1 X89.741 Y124.381 E1.13427
G1 X88.343 Y124.690 E1.16890
G1 X86.942 Y124.790 E1.20285
G1 X72.057 Y124.790 E1.56285
G1 X70.657 Y124.690 E1.59681
G1 X69.326 Y124.400 E1.62973
G1 X67.983 Y123.905 E1.66437
G1 X66.757 Y123.235 E1.69814
G1 X65.668 Y122.420 E1.73107
G1 X64.651 Y121.410 E1.76570
G1 X63.815 Y120.293 E1.79947
G1 X63.145 Y119.067 E1.83325
G1 X62.657 Y117.758 E1.86703
G1 X62.360 Y116.393 E1.90081
G1 X62.260 Y114.992 E1.93477
G1 X62.260 Y85.007 E2.65996
G1 X62.360 Y83.607 E2.69392
G1 X62.657 Y82.242 E2.72770
G1 X63.145 Y80.933 E2.76148
G1 X63.815 Y79.707 E2.79526
G1 X64.630 Y78.618 E2.82819
G1 X65.640 Y77.601 E2.86282
G1 X66.757 Y76.765 E2.89659
G1 X67.983 Y76.095 E2.93037
G1 X69.292 Y75.607 E2.96415
G1 X70.657 Y75.310 E2.99793
G1 X72.057 Y75.210 E3.03189
G1 X86.942 Y75.210 E3.39189
G1 X88.308 Y75.308 E3.42499
G1 X89.708 Y75.607 E3.45963
G1 X91.017 Y76.095 E3.49340
G1 X92.243 Y76.765 E3.52718
G1 X93.361 Y77.602 E3.56096
G1 X94.348 Y78.589 E3.59474
G1 X95.164 Y79.679 E3.62767
G1 X95.855 Y80.934 E3.66230
G1 X96.343 Y82.242 E3.69607
G1 X96.640 Y83.607 E3.72985
G1 X96.740 Y85.007 E3.76381
G1 X96.740 Y114.992 E4.48900
G1 X96.640 Y116.393 E4.52296
G1 X96.343 Y117.758 E4.55674
G1 X95.855 Y119.067 E4.59052
G1 X95.185 Y120.293 E4.62430
G1 X94.375 Y121.375 E4.65699
G1 X94.348 Y121.411 F7800.000
G1 X94.055 Y121.156 F7800.000
G1 F2250
G1 X93.106 Y122.105 E4.68943
G1 X92.032 Y122.908 E4.72187
G1 X90.855 Y123.551 E4.75431
G1 X89.631 Y124.008 E4.78591
G1 X88.287 Y124.305 E4.81920
G1 X86.929 Y124.402 E4.85213
G1 X72.071 Y124.402 E5.21145
G1 X70.712 Y124.305 E5.24441
G1 X69.435 Y124.027 E5.27601
G1 X68.144 Y123.551 E5.30930
G1 X66.968 Y122.908 E5.34172
G1 X65.922 Y122.125 E5.37332
G1 X64.945 Y121.155 E5.40661
G1 X64.142 Y120.082 E5.43902
G1 X63.499 Y118.905 E5.47146
G1 X63.030 Y117.648 E5.50390
G1 X62.745 Y116.338 E5.53634
G1 X62.648 Y114.979 E5.56930
G1 X62.648 Y85.021 E6.29381
G1 X62.745 Y83.662 E6.32677
G1 X63.030 Y82.352 E6.35920
G1 X63.499 Y81.095 E6.39164
G1 X64.142 Y79.918 E6.42408
G1 X64.925 Y78.872 E6.45568
G1 X65.895 Y77.895 E6.48897
G1 X66.968 Y77.092 E6.52139
G1 X68.145 Y76.449 E6.55383
G1 X69.402 Y75.980 E6.58626
G1 X70.712 Y75.695 E6.61870
G1 X72.071 Y75.598 E6.65166
G1 X86.929 Y75.598 E7.01098
G1 X88.253 Y75.693 E7.04310
