; generated by Slic3r 1.3.0-dev on 2018-06-02 at 17:11:56

; external perimeters extrusion width = 0.42mm (5.33mm^3/s)
; perimeters extrusion width = 0.42mm (5.33mm^3/s)
; infill extrusion width = 0.42mm (8.53mm^3/s)
; solid infill extrusion width = 0.42mm (2.13mm^3/s)
; top infill extrusion width = 0.42mm (1.60mm^3/s)
; support material extrusion width = 0.31mm (4.42mm^3/s)

M107
M190 S100 ; set bed temperature and wait for it to be reached
M104 S210 ; set temperature
G28 ; home all axes
G1 Z5 F5000 ; lift nozzle

; Filament gcode

M109 S210 ; set temperature and wait for it to be reached
G21 ; set units to millimeters
G90 ; use absolute coordinates
M82 ; use absolute distances for extrusion
G92 E0
G1 Z5.150 F7800.000
G1 E-1.00000 F2400.00000
G92 E0
G1 X74.442 Y79.037 F7800.000
G1 E1.00000 F2400.00000
G1 F2700
G1 X76.400 Y77.793 E1.05610
G1 X79.000 Y77.274 E1.12022
G1 X121.000 Y77.274 E2.13599
G1 X123.285 Y77.671 E2.19209
G1 X125.303 Y78.816 E2.24819
G1 X126.982 Y80.868 E2.31231
G1 X129.482 Y85.568 E2.44106
G1 X130.276 Y88.750 E2.52037
G1 X130.276 Y111.250 E3.06453
G1 X129.482 Y114.432 E3.14385
G1 X126.982 Y119.132 E3.27260
G1 X125.558 Y120.963 E3.32869
G1 X123.600 Y122.207 E3.38479
G1 X121.000 Y122.726 E3.44892
G1 X79.000 Y122.726 E4.46468
G1 X76.715 Y122.329 E4.52078
G1 X74.697 Y121.184 E4.57688
G1 X73.018 Y119.132 E4.64101
G1 X70.518 Y114.432 E4.76976
G1 X69.724 Y111.250 E4.84907
G1 X69.724 Y88.750 E5.39323
G1 X70.518 Y85.568 E5.47254
G1 X73.018 Y80.868 E5.60129
G1 X74.414 Y79.072 E5.65630
G1 X74.752 Y79.280 F7800.000
G1 F2700
G1 X76.671 Y78.102 E5.71076
G1 X79.000 Y77.662 E5.76808
G1 X121.000 Y77.662 E6.78385
G1 X123.216 Y78.059 E6.83831
G1 X125.158 Y79.200 E6.89276
G1 X126.640 Y81.050 E6.95009
G1 X129.140 Y85.750 E7.07884
G1 X129.888 Y88.750 E7.15361
G1 X129.888 Y111.250 E7.69777
G1 X129.140 Y114.250 E7.77254
G1 X126.640 Y118.950 E7.90129
G1 X125.248 Y120.720 E7.95575
G1 X123.329 Y121.898 E8.01021
G1 X121.000 Y122.338 E8.06753
G1 X79.000 Y122.338 E9.08330
G1 X76.784 Y121.941 E9.13776
G1 X74.842 Y120.800 E9.19222
G1 X73.360 Y118.950 E9.24954
G1 X70.860 Y114.250 E9.37829
G1 X70.112 Y111.250 E9.45306
G1 X70.112 Y88.750 E9.99722
G1 X70.860 Y85.750 E10.07200
G1 X73.360 Y81.050 E10.20074
G1 X74.724 Y79.315 E10.25411
G1 E9.25411 F2400.00000
G92 E0
G1 X77.168 Y86.801 F7800.000
G1 E1.00000 F2400.00000
G1 F2700
G1 X77.168 Y83.291 E1.08755
G1 X78.241 Y82.218 E1.12541
G1 X121.759 Y82.218 E2.21097
G1 X122.832 Y83.291 E2.24883
G1 X122.832 Y86.801 E2.33638
G1 X122.949 Y86.918 E2.34051
G1 X124.259 Y86.918 E2.37318
G1 X125.332 Y87.991 E2.41104
G1 X125.332 Y112.009 E3.01017
G1 X124.259 Y113.082 E3.04803
G1 X122.949 Y113.082 E3.08070
G1 X122.832 Y113.199 E3.08483
G1 X122.832 Y116.709 E3.17237
G1 X121.759 Y117.782 E3.21024
G1 X78.241 Y117.782 E4.29579
G1 X77.168 Y116.709 E4.33366
G1 X77.168 Y113.199 E4.42120
G1 X77.051 Y113.082 E4.42534
G1 X75.741 Y113.082 E4.45800
G1 X74.668 Y112.009 E4.49587
G1 X74.668 Y87.991 E5.09499
G1 X75.741 Y86.918 E5.13286
G1 X77.051 Y86.918 E5.16552
G1 X77.136 Y86.832 E5.16853
G1 X77.568 Y87.201 F7800.000
G1 F2700
G1 X77.568 Y83.457 E5.26193
G1 X78.407 Y82.618 E5.29152
G1 X121.593 Y82.618 E6.36881
G1 X122.432 Y83.457 E6.39841
G1 X122.432 Y87.201 E6.49180
G1 X122.549 Y87.318 E6.49593
G1 X124.093 Y87.318 E6.53445
G1 X124.932 Y88.157 E6.56404
G1 X124.932 Y111.843 E7.15490
G1 X124.093 Y112.682 E7.18450
G1 X122.549 Y112.682 E7.22301
G1 X122.432 Y112.799 E7.22715
G1 X122.432 Y116.543 E7.32054
G1 X121.593 Y117.382 E7.35013
G1 X78.407 Y117.382 E8.42743
G1 X77.568 Y116.543 E8.45702
G1 X77.568 Y112.799 E8.55041
G1 X77.451 Y112.682 E8.55455
G1 X75.907 Y112.682 E8.59306
G1 X75.068 Y111.843 E8.62266
G1 X75.068 Y88.157 E9.21352
G1 X75.907 Y87.318 E9.24311
G1 X77.451 Y87.318 E9.28163
G1 X77.536 Y87.232 E9.28464
G1 X77.968 Y87.601 F7800.000
G1 F2700
G1 X77.968 Y83.622 E9.38387
G1 X78.572 Y83.018 E9.40520
G1 X121.428 Y83.018 E10.47423
G1 X122.032 Y83.622 E10.49556
G1 X122.032 Y87.601 E10.59479
G1 X122.149 Y87.718 E10.59893
G1 X123.928 Y87.718 E10.64328
G1 X124.532 Y88.322 E10.66462
G1 X124.532 Y111.678 E11.24721
G1 X123.928 Y112.282 E11.26854
G1 X122.149 Y112.282 E11.31290
G1 X122.032 Y112.399 E11.31703
G1 X122.032 Y116.378 E11.41627
G1 X121.428 Y116.982 E11.43760
G1 X78.572 Y116.982 E12.50662
G1 X77.968 Y116.378 E12.52795
G1 X77.968 Y112.399 E12.62719
G1 X77.851 Y112.282 E12.63132
G1 X76.072 Y112.282 E12.67568
G1 X75.468 Y111.678 E12.69701
G1 X75.468 Y88.322 E13.27961
G1 X76.072 Y87.718 E13.30094
G1 X77.851 Y87.718 E13.34529
G1 X77.936 Y87.632 E13.34830
G1 X78.368 Y88.001 F7800.000
G1 F2700
G1 X78.368 Y83.788 E13.45339
G1 X78.738 Y83.418 E13.46645
G1 X121.262 Y83.418 E14.52721
G1 X121.632 Y83.788 E14.54027
G1 X121.632 Y88.001 E14.64535
G1 X121.749 Y88.118 E14.64949
G1 X123.762 Y88.118 E14.69969
G1 X124.132 Y88.488 E14.71275
G1 X124.132 Y111.512 E15.28708
G1 X123.762 Y111.882 E15.30015
G1 X121.749 Y111.882 E15.35035
G1 X121.632 Y111.999 E15.35448
G1 X121.632 Y116.212 E15.45956
G1 X121.262 Y116.582 E15.47263
G1 X78.738 Y116.582 E16.53339
G1 X78.368 Y116.212 E16.54645
G1 X78.368 Y111.999 E16.65153
G1 X78.251 Y111.882 E16.65567
G1 X76.238 Y111.882 E16.70587
G1 X75.868 Y111.512 E16.71893
G1 X75.868 Y88.488 E17.29326
G1 X76.238 Y88.118 E17.30633
G1 X78.251 Y88.118 E17.35653
G1 X78.336 Y88.032 E17.35954
G1 X78.768 Y88.401 F7800.000
G1 F2700
G1 X78.768 Y83.954 E17.47047
G1 X78.904 Y83.818 E17.47526
G1 X121.096 Y83.818 E18.52776
G1 X121.232 Y83.954 E18.53256
G1 X121.232 Y88.401 E18.64348
G1 X121.349 Y88.518 E18.64761
G1 X123.596 Y88.518 E18.70366
G1 X123.732 Y88.654 E18.70846
G1 X123.732 Y111.346 E19.27452
G1 X123.596 Y111.482 E19.27932
G1 X121.349 Y111.482 E19.33537
G1 X121.232 Y111.599 E19.33950
G1 X121.232 Y116.046 E19.45043
G1 X121.096 Y116.182 E19.45523
G1 X78.904 Y116.182 E20.50772
G1 X78.768 Y116.046 E20.51252
G1 X78.768 Y111.599 E20.62344
G1 X78.651 Y111.482 E20.62758
G1 X76.404 Y111.482 E20.68362
G1 X76.268 Y111.346 E20.68842
G1 X76.268 Y88.654 E21.25449
G1 X76.404 Y88.518 E21.25928
G1 X78.651 Y88.518 E21.31533
G1 X78.736 Y88.432 E21.31834
G1 E20.31834 F2400.00000
G92 E0
G1 X120.790 Y111.040 F7800.000
G1 E1.00000 F2400.00000
G1 F2250
G1 X120.790 Y115.740 E1.11367
G1 X79.210 Y115.740 E2.11928
G1 X79.210 Y111.040 E2.23295
G1 X76.710 Y111.040 E2.29341
G1 X76.710 Y88.960 E2.82741
G1 X79.210 Y88.960 E2.88787
G1 X79.210 Y84.260 E3.00154
G1 X120.790 Y84.260 E4.00715
G1 X120.790 Y88.960 E4.12082
G1 X123.290 Y88.960 E4.18128
G1 X123.290 Y111.040 E4.71528
G1 X120.835 Y111.040 E4.77466
G1 X120.525 Y111.180 F7800.000
G1 X120.402 Y110.652 F7800.000
G1 F2250
G1 X120.402 Y115.352 E4.88832
G1 X79.598 Y115.352 E5.87517
G1 X79.598 Y110.652 E5.98884
G1 X77.098 Y110.652 E6.04930
G1 X77.098 Y89.348 E6.56455
G1 X79.598 Y89.348 E6.62501
G1 X79.598 Y84.648 E6.73868
G1 X120.402 Y84.648 E7.72553
G1 X120.402 Y89.348 E7.83920
G1 X122.902 Y89.348 E7.89966
G1 X122.902 Y110.652 E8.41490
G1 X120.447 Y110.652 E8.47428
G1 X120.014 Y110.264 F7800.000
G1 F2250
G1 X120.014 Y114.964 E8.58795
G1 X79.986 Y114.964 E9.55604
G1 X79.986 Y110.264 E9.66971
G1 X77.486 Y110.264 E9.73017
G1 X77.486 Y89.736 E10.22665
G1 X79.986 Y89.736 E10.28712
G1 X79.986 Y85.036 E10.40079
G1 X120.014 Y85.036 E11.36888
G1 X120.014 Y89.736 E11.48255
G1 X122.514 Y89.736 E11.54301
G1 X122.514 Y110.264 E12.03949
G1 X120.059 Y110.264 E12.09887
G1 X119.668 Y110.122 F7800.000
G1 F900
G1 X115.172 Y114.618 E12.25353
G1 X115.724 Y114.618 E12.26695
G1 X119.668 Y110.674 E12.40264
G1 X119.668 Y111.225 E12.41606
G1 X116.275 Y114.618 E12.53277
G1 X116.827 Y114.618 E12.54619
G1 X119.668 Y111.777 E12.64392
G1 X119.668 Y112.329 E12.65734
G1 X117.379 Y114.618 E12.73609
G1 X117.930 Y114.618 E12.74951
G1 X119.668 Y112.880 E12.80928
G1 X119.668 Y113.432 E12.82270
G1 X118.482 Y114.618 E12.86349
G1 X119.034 Y114.618 E12.87691
G1 X119.668 Y113.984 E12.89873
G1 X119.668 Y114.535 E12.91215
G1 X119.585 Y114.618 E12.91498
G1 E11.91498 F2400.00000
G92 E0
G1 X122.079 Y109.918 F7800.000
G1 E1.00000 F2400.00000
G1 F900
G1 X122.168 Y109.829 E1.00306
G1 X122.168 Y109.277 E1.01648
G1 X121.527 Y109.918 E1.03853
G1 X120.975 Y109.918 E1.05195
G1 X122.168 Y108.725 E1.09297
G1 X122.168 Y108.174 E1.10639
G1 X120.424 Y109.918 E1.16639
G1 X119.872 Y109.918 E1.17981
G1 X122.168 Y107.622 E1.25879
G1 X122.168 Y107.070 E1.27221
G1 X114.620 Y114.618 E1.53186
G1 X114.069 Y114.618 E1.54528
G1 X122.168 Y106.519 E1.82391
G1 X122.168 Y105.967 E1.83733
G1 X113.517 Y114.618 E2.13494
G1 X112.965 Y114.618 E2.14836
G1 X122.168 Y105.415 E2.46495
G1 X122.168 Y104.864 E2.47837
G1 X112.414 Y114.618 E2.81394
G1 X111.862 Y114.618 E2.82736
G1 X122.168 Y104.312 E3.18190
G1 X122.168 Y103.760 E3.19532
G1 X111.310 Y114.618 E3.56885
G1 X110.759 Y114.618 E3.58227
G1 X122.168 Y103.209 E3.97477
G1 X122.168 Y102.657 E3.98819
G1 X110.207 Y114.618 E4.39968
G1 X109.655 Y114.618 E4.41310
G1 X122.168 Y102.105 E4.84356
G1 X122.168 Y101.554 E4.85698
G1 X109.104 Y114.618 E5.30642
G1 X108.552 Y114.618 E5.31984
G1 X122.168 Y101.002 E5.78826
G1 X122.168 Y100.450 E5.80168
G1 X108.000 Y114.618 E6.28908
G1 X107.449 Y114.618 E6.30250
G1 X122.168 Y99.899 E6.80887
G1 X122.168 Y99.347 E6.82229
G1 X106.897 Y114.618 E7.34765
G1 X106.345 Y114.618 E7.36107
G1 X122.168 Y98.795 E7.90540
G1 X122.168 Y98.244 E7.91882
G1 X105.794 Y114.618 E8.48214
G1 X105.242 Y114.618 E8.49556
G1 X122.168 Y97.692 E9.07785
G1 X122.168 Y97.140 E9.09127
G1 X104.690 Y114.618 E9.69254
G1 X104.139 Y114.618 E9.70596
G1 X122.168 Y96.589 E10.32621
G1 X122.168 Y96.037 E10.33963
G1 X103.587 Y114.618 E10.97886
G1 X103.035 Y114.618 E10.99228
G1 X122.168 Y95.485 E11.65049
G1 X122.168 Y94.934 E11.66391
G1 X102.484 Y114.618 E12.34109
G1 X101.932 Y114.618 E12.35451
G1 X122.168 Y94.382 E13.05068
G1 X122.168 Y93.831 E13.06410
G1 X101.381 Y114.618 E13.77924
G1 X100.829 Y114.618 E13.79266
G1 X122.168 Y93.279 E14.52678
G1 X122.168 Y92.727 E14.54020
G1 X100.277 Y114.618 E15.29331
G1 X99.726 Y114.618 E15.30673
G1 X122.168 Y92.176 E16.07881
G1 X122.168 Y91.624 E16.09223
G1 X99.174 Y114.618 E16.88329
G1 X98.622 Y114.618 E16.89671
G1 X122.168 Y91.072 E17.70674
G1 X122.168 Y90.521 E17.72016
G1 X98.071 Y114.618 E18.54918
G1 X97.519 Y114.618 E18.56260
G1 X122.054 Y90.082 E19.40670
G1 X121.503 Y90.082 E19.42012
G1 X96.967 Y114.618 E20.26421
G1 X96.416 Y114.618 E20.27763
G1 X120.951 Y90.082 E21.12173
G1 X120.399 Y90.082 E21.13515
G1 X95.864 Y114.618 E21.97924
G1 X95.312 Y114.618 E21.99266
G1 X119.848 Y90.082 E22.83676
G1 X119.668 Y90.082 E22.84114
G1 X119.668 Y89.711 E22.85018
G1 X94.761 Y114.618 E23.70706
G1 X94.209 Y114.618 E23.72048
G1 X119.668 Y89.159 E24.59634
G1 X119.668 Y88.607 E24.60976
G1 X93.657 Y114.618 E25.50460
G1 X93.106 Y114.618 E25.51802
G1 X119.668 Y88.056 E26.43184
G1 X119.668 Y87.504 E26.44526
G1 X92.554 Y114.618 E27.37806
G1 X92.002 Y114.618 E27.39148
G1 X119.668 Y86.952 E28.34325
G1 X119.668 Y86.401 E28.35667
G1 X91.451 Y114.618 E29.32743
G1 X90.899 Y114.618 E29.34085
G1 X119.668 Y85.849 E30.33058
G1 X119.668 Y85.382 E30.34194
G1 X119.583 Y85.382 E30.34400
G1 X90.347 Y114.618 E31.34979
G1 X89.796 Y114.618 E31.36321
G1 X119.031 Y85.382 E32.36900
G1 X118.479 Y85.382 E32.38242
G1 X89.244 Y114.618 E33.38821
G1 X88.692 Y114.618 E33.40163
G1 X117.928 Y85.382 E34.40742
G1 X117.376 Y85.382 E34.42084
G1 X88.141 Y114.618 E35.42663
G1 X87.589 Y114.618 E35.44005
G1 X116.824 Y85.382 E36.44584
G1 X116.273 Y85.382 E36.45926
G1 X87.037 Y114.618 E37.46505
G1 X86.486 Y114.618 E37.47847
G1 X115.721 Y85.382 E38.48426
G1 X115.169 Y85.382 E38.49768
G1 X85.934 Y114.618 E39.50347
G1 X85.382 Y114.618 E39.51689
G1 X114.618 Y85.382 E40.52268
G1 X114.066 Y85.382 E40.53610
G1 X84.831 Y114.618 E41.54189
G1 X84.279 Y114.618 E41.55531
G1 X113.514 Y85.382 E42.56110
G1 X112.963 Y85.382 E42.57452
G1 X83.727 Y114.618 E43.58031
G1 X83.176 Y114.618 E43.59373
G1 X112.411 Y85.382 E44.59952
G1 X111.860 Y85.382 E44.61294
G1 X82.624 Y114.618 E45.61873
G1 X82.072 Y114.618 E45.63215
G1 X111.308 Y85.382 E46.63794
G1 X110.756 Y85.382 E46.65136
G1 X81.521 Y114.618 E47.65715
G1 X80.969 Y114.618 E47.67057
G1 X110.205 Y85.382 E48.67636
G1 X109.653 Y85.382 E48.68978
G1 X80.417 Y114.618 E49.69557
G1 X80.332 Y114.618 E49.69764
G1 X80.332 Y114.151 E49.70899
G1 X109.101 Y85.382 E50.69873
G1 X108.550 Y85.382 E50.71215
G1 X80.332 Y113.600 E51.68291
G1 X80.332 Y113.048 E51.69633
G1 X107.998 Y85.382 E52.64811
G1 X107.446 Y85.382 E52.66153
G1 X80.332 Y112.496 E53.59433
G1 X80.332 Y111.945 E53.60775
G1 X106.895 Y85.382 E54.52158
G1 X106.343 Y85.382 E54.53500
G1 X80.332 Y111.393 E55.42984
G1 X80.332 Y110.841 E55.44326
G1 X105.791 Y85.382 E56.31913
G1 X105.240 Y85.382 E56.33255
G1 X80.332 Y110.290 E57.18944
G1 X80.332 Y109.918 E57.19848
G1 X80.152 Y109.918 E57.20286
G1 X104.688 Y85.382 E58.04695
G1 X104.136 Y85.382 E58.06037
G1 X79.601 Y109.918 E58.90447
G1 X79.049 Y109.918 E58.91789
G1 X103.585 Y85.382 E59.76198
G1 X103.033 Y85.382 E59.77540
G1 X78.497 Y109.918 E60.61950
G1 X77.946 Y109.918 E60.63292
G1 X102.481 Y85.382 E61.47702
G1 X101.930 Y85.382 E61.49044
G1 X77.832 Y109.480 E62.31946
G1 X77.832 Y108.928 E62.33288
G1 X101.378 Y85.382 E63.14292
G1 X100.826 Y85.382 E63.15634
G1 X77.832 Y108.376 E63.94741
G1 X77.832 Y107.825 E63.96083
G1 X100.275 Y85.382 E64.73291
G1 X99.723 Y85.382 E64.74633
G1 X77.832 Y107.273 E65.49944
G1 X77.832 Y106.721 E65.51286
G1 X99.171 Y85.382 E66.24699
G1 X98.620 Y85.382 E66.26041
G1 X77.832 Y106.170 E66.97556
G1 X77.832 Y105.618 E66.98898
G1 X98.068 Y85.382 E67.68515
G1 X97.516 Y85.382 E67.69857
G1 X77.832 Y105.066 E68.37576
G1 X77.832 Y104.515 E68.38918
G1 X96.965 Y85.382 E69.04739
G1 X96.413 Y85.382 E69.06081
G1 X77.832 Y103.963 E69.70005
G1 X77.832 Y103.411 E69.71347
G1 X95.861 Y85.382 E70.33372
G1 X95.310 Y85.382 E70.34714
G1 X77.832 Y102.860 E70.94842
G1 X77.832 Y102.308 E70.96184
G1 X94.758 Y85.382 E71.54414
G1 X94.206 Y85.382 E71.55756
G1 X77.832 Y101.756 E72.12088
G1 X77.832 Y101.205 E72.13430
G1 X93.655 Y85.382 E72.67864
G1 X93.103 Y85.382 E72.69206
G1 X77.832 Y100.653 E73.21742
G1 X77.832 Y100.101 E73.23084
G1 X92.551 Y85.382 E73.73722
G1 X92.000 Y85.382 E73.75064
G1 X77.832 Y99.550 E74.23805
G1 X77.832 Y98.998 E74.25147
G1 X91.448 Y85.382 E74.71989
G1 X90.896 Y85.382 E74.73331
G1 X77.832 Y98.446 E75.18276
G1 X77.832 Y97.895 E75.19618
G1 X90.345 Y85.382 E75.62665
G1 X89.793 Y85.382 E75.64007
G1 X77.832 Y97.343 E76.05155
G1 X77.832 Y96.791 E76.06497
G1 X89.241 Y85.382 E76.45748
G1 X88.690 Y85.382 E76.47090
G1 X77.832 Y96.240 E76.84443
G1 X77.832 Y95.688 E76.85785
G1 X88.138 Y85.382 E77.21241
G1 X87.586 Y85.382 E77.22583
G1 X77.832 Y95.136 E77.56140
G1 X77.832 Y94.585 E77.57482
G1 X87.035 Y85.382 E77.89141
G1 X86.483 Y85.382 E77.90483
G1 X77.832 Y94.033 E78.20245
G1 X77.832 Y93.481 E78.21587
G1 X85.931 Y85.382 E78.49451
G1 X85.380 Y85.382 E78.50793
G1 X77.832 Y92.930 E78.76758
G1 X77.832 Y92.378 E78.78100
G1 X80.128 Y90.082 E78.85999
G1 X79.576 Y90.082 E78.87341
G1 X77.832 Y91.826 E78.93342
G1 X77.832 Y91.275 E78.94684
G1 X79.025 Y90.082 E78.98786
G1 X78.473 Y90.082 E79.00128
G1 X77.832 Y90.723 E79.02333
G1 X77.832 Y90.171 E79.03675
G1 X77.921 Y90.082 E79.03982
G1 E78.03982 F2400.00000
G92 E0
G1 X80.332 Y89.878 F7800.000
G1 E1.00000 F2400.00000
G1 F900
G1 X84.828 Y85.382 E1.15467
G1 X84.276 Y85.382 E1.16809
G1 X80.332 Y89.326 E1.30378
G1 X80.332 Y88.775 E1.31720
G1 X83.725 Y85.382 E1.43392
G1 X83.173 Y85.382 E1.44734
G1 X80.332 Y88.223 E1.54507
G1 X80.332 Y87.671 E1.55849
G1 X82.621 Y85.382 E1.63725
G1 X82.070 Y85.382 E1.65067
G1 X80.332 Y87.120 E1.71045
G1 X80.332 Y86.568 E1.72387
G1 X81.518 Y85.382 E1.76466
G1 X80.967 Y85.382 E1.77808
G1 X80.332 Y86.017 E1.79990
G1 X80.332 Y85.465 E1.81332
G1 X80.415 Y85.382 E1.81617
G1 Z5.150 F7800.000
G1 Z5.450 F7800.000
G1 E0.81617 F2400.00000
G92 E0
G1 X120.790 Y111.040 F7800.000
G1 E1.00000 F2400.00000
G1 F3000
G1 X120.790 Y115.740 E1.20847
G1 X79.210 Y115.740 E3.05274
G1 X79.210 Y111.040 E3.26121
G1 X76.710 Y111.040 E3.37210
G1 X76.710 Y88.960 E4.35145
G1 X79.210 Y88.960 E4.46234
G1 X79.210 Y84.260 E4.67080
G1 X120.790 Y84.260 E6.51508
G1 X120.790 Y88.960 E6.72355
