; generated by Slic3r 1.3.0-dev on 2018-06-03 at 16:11:25

; external perimeters extrusion width = 0.42mm (5.33mm^3/s)
; perimeters extrusion width = 0.42mm (5.33mm^3/s)
; infill extrusion width = 0.42mm (8.53mm^3/s)
; solid infill extrusion width = 0.42mm (2.13mm^3/s)
; top infill extrusion width = 0.42mm (1.60mm^3/s)
; support material extrusion width = 0.31mm (4.42mm^3/s)

M107
M190 S100 ; set bed temperature and wait for it to be reached
M104 S210 ; set temperature
G28 ; home all axes
G1 Z5 F5000 ; lift nozzle

; Filament gcode

M109 S210 ; set temperature and wait for it to be reached
G21 ; set units to millimeters
G90 ; use absolute coordinates
M82 ; use absolute distances for extrusion
G92 E0
G1 Z5.150 F7800.000
G1 E-1.00000 F2400.00000
G92 E0
G1 X70.870 Y83.432 F7800.000
G1 E1.00000 F2400.00000
G1 F2700
G1 X72.628 Y81.918 E1.05610
G1 X75.739 Y80.969 E1.13477
G1 X112.837 Y78.969 E2.03328
G1 X123.896 Y78.959 E2.30075
G1 X126.182 Y79.356 E2.35685
G1 X128.199 Y80.501 E2.41295
G1 X129.712 Y82.259 E2.46905
G1 X130.544 Y84.424 E2.52514
G1 X130.672 Y85.734 E2.55699
G1 X130.672 Y89.102 E2.63843
G1 X130.646 Y89.693 E2.65275
G1 X129.128 Y107.015 E3.07327
G1 X128.999 Y107.863 E3.09403
G1 X128.695 Y109.259 E3.12857
G1 X128.423 Y110.185 E3.15192
G1 X127.925 Y111.522 E3.18643
G1 X127.523 Y112.401 E3.20980
G1 X126.839 Y113.654 E3.24431
G1 X126.317 Y114.467 E3.26769
G1 X125.462 Y115.609 E3.30220
G1 X124.829 Y116.340 E3.32558
G1 X123.827 Y117.341 E3.35983
G1 X123.089 Y117.982 E3.38346
G1 X121.946 Y118.837 E3.41799
G1 X121.134 Y119.359 E3.44135
G1 X119.881 Y120.043 E3.47587
G1 X119.002 Y120.445 E3.49924
G1 X117.665 Y120.943 E3.53374
G1 X116.738 Y121.216 E3.55713
G1 X115.343 Y121.519 E3.59163
G1 X114.387 Y121.657 E3.61501
G1 X112.963 Y121.758 E3.64952
G1 X112.480 Y121.776 E3.66122
G1 X87.520 Y121.776 E4.26487
G1 X87.037 Y121.758 E4.27657
G1 X85.613 Y121.657 E4.31110
G1 X84.657 Y121.519 E4.33446
G1 X83.262 Y121.216 E4.36896
G1 X82.335 Y120.943 E4.39234
G1 X80.998 Y120.445 E4.42685
G1 X80.119 Y120.043 E4.45023
G1 X78.866 Y119.359 E4.48474
G1 X78.053 Y118.837 E4.50812
G1 X76.911 Y117.982 E4.54262
G1 X76.180 Y117.349 E4.56600
G1 X75.179 Y116.347 E4.60025
G1 X74.538 Y115.609 E4.62389
G1 X73.683 Y114.467 E4.65840
G1 X73.161 Y113.654 E4.68178
G1 X72.477 Y112.401 E4.71628
G1 X72.075 Y111.522 E4.73966
G1 X71.576 Y110.185 E4.77419
G1 X71.304 Y109.258 E4.79755
G1 X71.001 Y107.863 E4.83207
G1 X70.880 Y107.101 E4.85074
G1 X69.362 Y91.995 E5.21790
G1 X69.328 Y91.318 E5.23431
G1 X69.328 Y87.734 E5.32096
G1 X69.725 Y85.449 E5.37706
G1 X70.848 Y83.471 E5.43207
G1 X71.254 Y83.577 F7800.000
G1 F2700
G1 X72.998 Y82.153 E5.48653
G1 X75.760 Y81.356 E5.55605
G1 X112.858 Y79.356 E6.45456
G1 X123.896 Y79.347 E6.72152
G1 X126.113 Y79.744 E6.77598
G1 X128.054 Y80.885 E6.83044
G1 X129.478 Y82.629 E6.88490
G1 X130.284 Y85.734 E6.96249
G1 X130.284 Y89.102 E7.04393
G1 X130.260 Y89.660 E7.05743
G1 X128.742 Y106.981 E7.47795
G1 X128.620 Y107.781 E7.49753
G1 X128.316 Y109.176 E7.53206
G1 X128.060 Y110.050 E7.55408
G1 X127.561 Y111.387 E7.58859
G1 X127.183 Y112.215 E7.61062
G1 X126.499 Y113.468 E7.64513
G1 X126.006 Y114.234 E7.66717
G1 X125.151 Y115.377 E7.70168
G1 X124.554 Y116.065 E7.72372
G1 X123.553 Y117.067 E7.75798
G1 X122.857 Y117.671 E7.78027
G1 X121.714 Y118.527 E7.81480
G1 X120.948 Y119.019 E7.83682
G1 X119.695 Y119.703 E7.87134
G1 X118.866 Y120.081 E7.89337
G1 X117.530 Y120.580 E7.92787
G1 X116.655 Y120.837 E7.94992
G1 X115.261 Y121.140 E7.98442
G1 X114.359 Y121.270 E8.00647
G1 X112.480 Y121.388 E8.05199
G1 X87.520 Y121.388 E8.65565
G1 X87.064 Y121.372 E8.66668
G1 X85.640 Y121.270 E8.70121
G1 X84.739 Y121.140 E8.72323
G1 X83.345 Y120.837 E8.75773
G1 X82.470 Y120.580 E8.77978
G1 X81.134 Y120.081 E8.81428
G1 X80.305 Y119.703 E8.83632
G1 X79.052 Y119.019 E8.87083
G1 X78.285 Y118.526 E8.89287
G1 X77.143 Y117.671 E8.92738
G1 X76.455 Y117.074 E8.94942
G1 X75.453 Y116.073 E8.98367
G1 X74.849 Y115.377 E9.00597
G1 X73.994 Y114.234 E9.04048
G1 X73.501 Y113.468 E9.06252
G1 X72.817 Y112.216 E9.09702
G1 X72.439 Y111.386 E9.11907
G1 X71.940 Y110.049 E9.15359
G1 X71.683 Y109.175 E9.17561
G1 X71.380 Y107.781 E9.21013
G1 X71.266 Y107.062 E9.22773
G1 X69.748 Y91.956 E9.59490
G1 X69.716 Y91.318 E9.61036
G1 X69.716 Y87.734 E9.69702
G1 X70.113 Y85.518 E9.75148
G1 X71.231 Y83.616 E9.80485
G1 E8.80485 F2400.00000
G92 E0
G1 X83.352 Y93.336 F7800.000
G1 E1.00000 F2400.00000
G1 F2700
G1 X83.352 Y105.051 E1.29223
G1 X83.469 Y105.168 E1.29636
G1 X112.531 Y105.168 E2.02130
G1 X112.648 Y105.051 E2.02544
G1 X112.648 Y91.455 E2.36459
G1 X112.580 Y91.354 E2.36762
G1 X111.936 Y91.087 E2.38500
G1 X111.294 Y90.445 E2.40765
G1 X111.016 Y89.772 E2.42583
G1 X111.016 Y85.824 E2.52430
G1 X111.047 Y85.586 E2.53029
G1 X111.124 Y85.299 E2.53770
G1 X111.216 Y85.077 E2.54369
G1 X111.807 Y84.053 E2.57320
G1 X113.273 Y83.660 E2.61106
G1 X113.345 Y83.686 E2.61297
G1 X124.350 Y83.686 E2.88749
G1 X125.024 Y83.965 E2.90567
G1 X125.666 Y84.607 E2.92832
G1 X125.944 Y85.281 E2.94650
G1 X125.944 Y89.250 E3.04553
G1 X125.913 Y89.489 E3.05152
G1 X125.836 Y89.775 E3.05893
G1 X125.744 Y89.997 E3.06492
G1 X125.166 Y90.999 E3.09377
G1 X124.395 Y91.206 E3.11369
G1 X124.312 Y91.313 E3.11708
G1 X124.312 Y105.033 E3.45931
G1 X124.182 Y106.749 E3.50223
G1 X123.814 Y108.396 E3.54435
G1 X123.216 Y109.975 E3.58646
G1 X122.399 Y111.452 E3.62857
G1 X121.379 Y112.798 E3.67068
G1 X120.278 Y113.899 E3.70954
G1 X118.932 Y114.919 E3.75166
G1 X117.455 Y115.736 E3.79377
G1 X115.876 Y116.334 E3.83588
G1 X114.229 Y116.702 E3.87799
G1 X112.513 Y116.832 E3.92092
G1 X87.487 Y116.832 E4.54518
G1 X85.901 Y116.721 E4.58486
G1 X84.249 Y116.371 E4.62696
G1 X82.664 Y115.790 E4.66908
G1 X81.178 Y114.989 E4.71119
G1 X79.821 Y113.985 E4.75330
G1 X78.621 Y112.798 E4.79541
G1 X77.531 Y111.342 E4.84078
G1 X76.730 Y109.856 E4.88290
G1 X76.185 Y108.396 E4.92176
G1 X75.818 Y106.749 E4.96387
G1 X75.688 Y105.033 E5.00679
G1 X75.688 Y93.455 E5.29561
G1 X75.620 Y93.354 E5.29864
G1 X74.976 Y93.087 E5.31602
G1 X74.334 Y92.445 E5.33867
G1 X74.056 Y91.772 E5.35685
G1 X74.056 Y87.281 E5.46888
G1 X74.334 Y86.607 E5.48707
G1 X74.976 Y85.965 E5.50971
G1 X75.650 Y85.686 E5.52790
G1 X83.390 Y85.686 E5.72098
G1 X84.064 Y85.965 E5.73916
G1 X84.706 Y86.607 E5.76181
G1 X84.984 Y87.281 E5.77999
G1 X84.984 Y91.394 E5.88261
G1 X84.953 Y91.632 E5.88860
G1 X84.876 Y91.919 E5.89601
G1 X84.784 Y92.141 E5.90200
G1 X84.289 Y92.999 E5.92671
G1 X83.435 Y93.228 E5.94877
G1 X83.380 Y93.300 E5.95103
G1 X82.952 Y93.029 F7800.000
G1 F2700
G1 X82.952 Y105.451 E6.26090
G1 X83.069 Y105.568 E6.26503
G1 X112.931 Y105.568 E7.00993
G1 X113.048 Y105.451 E7.01406
G1 X113.048 Y91.083 E7.37246
G1 X112.931 Y90.966 E7.37659
G1 X112.689 Y90.966 E7.38261
G1 X112.163 Y90.748 E7.39682
G1 X111.634 Y90.218 E7.41550
G1 X111.416 Y89.692 E7.42972
G1 X111.416 Y85.851 E7.52554
G1 X111.440 Y85.664 E7.53022
G1 X111.503 Y85.428 E7.53633
G1 X111.575 Y85.255 E7.54101
G1 X112.071 Y84.397 E7.56573
G1 X113.217 Y84.090 E7.59532
G1 X113.314 Y84.111 E7.59782
G1 X113.406 Y84.086 E7.60019
G1 X124.271 Y84.086 E7.87120
G1 X124.797 Y84.304 E7.88542
G1 X125.326 Y84.834 E7.90409
G1 X125.544 Y85.360 E7.91831
G1 X125.544 Y89.224 E8.01470
G1 X125.520 Y89.410 E8.01938
G1 X125.457 Y89.647 E8.02548
G1 X125.385 Y89.820 E8.03017
G1 X124.902 Y90.656 E8.05423
G1 X123.995 Y90.899 E8.07767
G1 X123.912 Y91.006 E8.08106
G1 X123.910 Y105.077 E8.43204
G1 X123.789 Y106.678 E8.47209
G1 X123.463 Y108.172 E8.51024
G1 X122.900 Y109.703 E8.55092
G1 X122.125 Y111.138 E8.59161
G1 X121.153 Y112.448 E8.63230
G1 X120.005 Y113.606 E8.67299
G1 X118.753 Y114.553 E8.71214
G1 X118.618 Y114.645 E8.71623
G1 X117.183 Y115.420 E8.75692
G1 X115.652 Y115.984 E8.79761
G1 X114.056 Y116.323 E8.83830
G1 X112.506 Y116.432 E8.87707
G1 X87.494 Y116.432 E9.50098
G1 X85.842 Y116.309 E9.54231
G1 X84.250 Y115.955 E9.58299
G1 X82.817 Y115.420 E9.62114
G1 X81.296 Y114.590 E9.66437
G1 X79.995 Y113.606 E9.70506
G1 X78.847 Y112.448 E9.74575
G1 X77.875 Y111.138 E9.78644
G1 X77.142 Y109.796 E9.82458
G1 X76.536 Y108.172 E9.86782
G1 X76.197 Y106.576 E9.90851
G1 X76.088 Y105.026 E9.94729
G1 X76.088 Y93.083 E10.24519
G1 X75.971 Y92.966 E10.24932
G1 X75.729 Y92.966 E10.25534
G1 X75.203 Y92.748 E10.26955
G1 X74.674 Y92.218 E10.28823
G1 X74.456 Y91.692 E10.30245
G1 X74.456 Y87.360 E10.41051
G1 X74.674 Y86.834 E10.42472
G1 X75.203 Y86.304 E10.44340
G1 X75.729 Y86.086 E10.45761
G1 X83.311 Y86.086 E10.64672
G1 X83.837 Y86.304 E10.66094
G1 X84.366 Y86.834 E10.67961
G1 X84.584 Y87.360 E10.69383
G1 X84.584 Y91.368 E10.79381
G1 X84.560 Y91.554 E10.79849
G1 X84.497 Y91.791 E10.80459
G1 X84.425 Y91.964 E10.80928
G1 X84.026 Y92.656 E10.82920
G1 X83.035 Y92.921 E10.85478
G1 X82.980 Y92.993 E10.85705
G1 X82.552 Y92.674 F7800.000
G1 F2700
G1 X82.552 Y105.851 E11.18573
G1 X82.669 Y105.968 E11.18987
G1 X113.331 Y105.968 E11.95471
G1 X113.448 Y105.851 E11.95885
G1 X113.448 Y90.683 E12.33720
G1 X113.331 Y90.566 E12.34134
G1 X112.769 Y90.566 E12.35535
G1 X112.390 Y90.409 E12.36559
G1 X111.973 Y89.992 E12.38030
G1 X111.816 Y89.612 E12.39054
G1 X111.829 Y88.902 E12.40827
G1 X111.816 Y88.852 E12.40956
G1 X111.816 Y87.440 E12.44477
G1 X111.829 Y87.338 E12.44734
G1 X111.816 Y87.288 E12.44863
G1 X111.816 Y85.877 E12.48384
G1 X111.833 Y85.743 E12.48722
G1 X111.935 Y85.432 E12.49537
G1 X112.334 Y84.740 E12.51530
G1 X113.160 Y84.519 E12.53663
G1 X113.258 Y84.540 E12.53913
G1 X113.459 Y84.486 E12.54432
G1 X124.191 Y84.486 E12.81203
G1 X124.570 Y84.643 E12.82228
G1 X124.987 Y85.060 E12.83698
G1 X125.144 Y85.440 E12.84723
G1 X125.131 Y86.173 E12.86552
G1 X125.144 Y86.223 E12.86681
G1 X125.144 Y87.634 E12.90202
G1 X125.131 Y87.736 E12.90459
G1 X125.144 Y87.786 E12.90588
G1 X125.144 Y89.198 E12.94109
G1 X125.077 Y89.518 E12.94924
G1 X125.025 Y89.643 E12.95262
G1 X124.639 Y90.312 E12.97190
G1 X123.813 Y90.533 E12.99323
G1 X123.715 Y90.512 E12.99573
G1 X123.595 Y90.544 E12.99883
G1 X123.512 Y90.652 E13.00222
G1 X123.511 Y105.055 E13.36151
G1 X123.395 Y106.607 E13.40032
G1 X123.076 Y108.073 E13.43775
G1 X122.531 Y109.549 E13.47701
G1 X121.781 Y110.933 E13.51627
G1 X120.842 Y112.197 E13.55554
G1 X119.677 Y113.362 E13.59664
G1 X118.413 Y114.301 E13.63591
G1 X117.029 Y115.051 E13.67517
G1 X115.553 Y115.596 E13.71444
G1 X114.014 Y115.925 E13.75370
G1 X112.498 Y116.032 E13.79159
G1 X87.502 Y116.032 E14.41514
G1 X85.913 Y115.915 E14.45486
G1 X84.377 Y115.575 E14.49413
G1 X82.971 Y115.051 E14.53156
G1 X81.525 Y114.261 E14.57266
G1 X80.268 Y113.313 E14.61192
G1 X79.207 Y112.252 E14.64935
G1 X78.259 Y110.995 E14.68862
G1 X77.500 Y109.617 E14.72788
G1 X76.924 Y108.073 E14.76898
G1 X76.595 Y106.534 E14.80825
G1 X76.488 Y105.018 E14.84614
G1 X76.488 Y92.683 E15.15384
G1 X76.371 Y92.566 E15.15798
G1 X75.809 Y92.566 E15.17199
G1 X75.430 Y92.409 E15.18223
G1 X75.013 Y91.992 E15.19694
G1 X74.856 Y91.612 E15.20718
G1 X74.869 Y90.372 E15.23812
G1 X74.856 Y90.322 E15.23941
G1 X74.856 Y88.911 E15.27462
G1 X74.869 Y88.809 E15.27719
G1 X74.856 Y88.759 E15.27848
G1 X74.856 Y87.440 E15.31139
G1 X75.013 Y87.060 E15.32163
G1 X75.430 Y86.643 E15.33634
G1 X75.809 Y86.486 E15.34658
G1 X83.231 Y86.486 E15.53173
G1 X83.610 Y86.643 E15.54197
G1 X84.027 Y87.060 E15.55668
G1 X84.184 Y87.440 E15.56692
G1 X84.171 Y88.317 E15.58880
G1 X84.184 Y88.367 E15.59009
G1 X84.184 Y89.778 E15.62530
G1 X84.171 Y89.880 E15.62787
G1 X84.184 Y89.930 E15.62917
G1 X84.184 Y91.342 E15.66438
G1 X84.167 Y91.476 E15.66775
G1 X84.065 Y91.787 E15.67590
G1 X83.762 Y92.312 E15.69104
G1 X82.936 Y92.533 E15.71237
G1 X82.838 Y92.512 E15.71486
G1 X82.635 Y92.567 E15.72012
G1 X82.580 Y92.639 E15.72238
G1 X82.152 Y92.283 F7800.000
G1 F2700
G1 X82.152 Y106.251 E16.07080
G1 X82.269 Y106.368 E16.07494
G1 X113.731 Y106.368 E16.85974
G1 X113.848 Y106.251 E16.86387
G1 X113.848 Y90.243 E17.26319
G1 X113.691 Y90.123 E17.26811
G1 X113.531 Y90.166 E17.27225
G1 X112.849 Y90.166 E17.28927
G1 X112.616 Y90.070 E17.29555
G1 X112.312 Y89.765 E17.30628
G1 X112.216 Y89.533 E17.31256
G1 X112.216 Y89.030 E17.32509
G1 X112.260 Y88.824 E17.33036
G1 X112.241 Y88.733 E17.33268
G1 X112.216 Y88.699 E17.33374
G1 X112.216 Y87.467 E17.36448
G1 X112.260 Y87.260 E17.36974
G1 X112.241 Y87.169 E17.37207
G1 X112.216 Y87.135 E17.37313
G1 X112.216 Y85.903 E17.40387
G1 X112.294 Y85.609 E17.41145
G1 X112.598 Y85.084 E17.42659
G1 X113.104 Y84.948 E17.43966
G1 X113.157 Y84.979 E17.44121
G1 X113.265 Y84.979 E17.44388
G1 X113.351 Y84.929 E17.44637
G1 X113.512 Y84.886 E17.45052
G1 X124.111 Y84.886 E17.71493
G1 X124.344 Y84.982 E17.72121
G1 X124.648 Y85.287 E17.73195
G1 X124.744 Y85.519 E17.73822
G1 X124.744 Y86.044 E17.75132
G1 X124.700 Y86.251 E17.75658
G1 X124.719 Y86.342 E17.75891
G1 X124.744 Y86.376 E17.75997
G1 X124.744 Y87.608 E17.79071
G1 X124.700 Y87.814 E17.79597
G1 X124.719 Y87.906 E17.79830
G1 X124.744 Y87.940 E17.79936
G1 X124.744 Y89.172 E17.83009
G1 X124.666 Y89.465 E17.83768
G1 X124.375 Y89.969 E17.85217
G1 X123.869 Y90.104 E17.86523
G1 X123.816 Y90.073 E17.86678
G1 X123.708 Y90.073 E17.86946
G1 X123.622 Y90.123 E17.87194
G1 X123.461 Y90.166 E17.87609
G1 X123.229 Y90.166 E17.88188
G1 X123.112 Y90.283 E17.88602
G1 X123.111 Y105.034 E18.25397
G1 X123.001 Y106.535 E18.29153
G1 X122.688 Y107.974 E18.32825
G1 X122.161 Y109.396 E18.36609
G1 X121.437 Y110.729 E18.40393
G1 X120.530 Y111.946 E18.44178
G1 X119.426 Y113.050 E18.48074
G1 X118.209 Y113.957 E18.51858
G1 X116.876 Y114.681 E18.55642
G1 X115.454 Y115.208 E18.59427
G1 X113.971 Y115.527 E18.63211
G1 X112.491 Y115.632 E18.66911
G1 X87.509 Y115.632 E19.29230
G1 X85.985 Y115.521 E19.33042
G1 X84.503 Y115.195 E19.36826
G1 X83.124 Y114.681 E19.40498
G1 X81.753 Y113.932 E19.44394
G1 X80.540 Y113.020 E19.48179
G1 X79.500 Y111.980 E19.51850
G1 X78.588 Y110.767 E19.55634
G1 X77.858 Y109.437 E19.59419
G1 X77.312 Y107.974 E19.63315
G1 X76.993 Y106.491 E19.67099
G1 X76.888 Y105.011 E19.70799
G1 X76.888 Y92.283 E20.02550
G1 X76.771 Y92.166 E20.02963
G1 X75.889 Y92.166 E20.05163
G1 X75.656 Y92.070 E20.05791
G1 X75.352 Y91.765 E20.06865
G1 X75.256 Y91.533 E20.07492
G1 X75.256 Y90.501 E20.10067
G1 X75.300 Y90.294 E20.10593
G1 X75.281 Y90.203 E20.10826
G1 X75.256 Y90.169 E20.10932
G1 X75.256 Y88.937 E20.14006
G1 X75.300 Y88.731 E20.14532
G1 X75.281 Y88.639 E20.14764
G1 X75.256 Y88.606 E20.14871
G1 X75.256 Y87.519 E20.17580
G1 X75.352 Y87.287 E20.18208
G1 X75.656 Y86.982 E20.19282
G1 X75.889 Y86.886 E20.19909
G1 X83.151 Y86.886 E20.38026
G1 X83.384 Y86.982 E20.38654
G1 X83.688 Y87.287 E20.39728
G1 X83.784 Y87.519 E20.40355
G1 X83.784 Y88.188 E20.42024
G1 X83.740 Y88.395 E20.42551
G1 X83.759 Y88.486 E20.42783
G1 X83.784 Y88.520 E20.42889
G1 X83.784 Y89.752 E20.45963
G1 X83.740 Y89.958 E20.46489
G1 X83.759 Y90.050 E20.46722
G1 X83.784 Y90.084 E20.46828
G1 X83.774 Y91.398 E20.50107
G1 X83.706 Y91.609 E20.50661
G1 X83.498 Y91.969 E20.51695
G1 X82.993 Y92.104 E20.53002
G1 X82.939 Y92.073 E20.53157
G1 X82.832 Y92.073 E20.53424
G1 X82.745 Y92.123 E20.53673
G1 X82.584 Y92.166 E20.54088
G1 X82.269 Y92.166 E20.54874
G1 X82.184 Y92.251 E20.55175
G1 X81.752 Y91.883 F7800.000
G1 F2700
G1 X81.752 Y106.651 E20.92013
G1 X81.869 Y106.768 E20.92426
G1 X114.131 Y106.768 E21.72902
G1 X114.248 Y106.651 E21.73316
G1 X114.248 Y89.769 E22.15426
G1 X114.091 Y89.649 E22.15919
G1 X113.995 Y89.675 E22.16166
G1 X113.868 Y89.601 E22.16534
G1 X113.733 Y89.619 E22.16873
G1 X113.537 Y89.750 E22.17461
G1 X113.478 Y89.766 E22.17613
G1 X112.928 Y89.766 E22.18985
G1 X112.843 Y89.731 E22.19216
G1 X112.651 Y89.539 E22.19893
G1 X112.616 Y89.453 E22.20123
G1 X112.619 Y89.026 E22.21188
G1 X112.654 Y88.914 E22.21482
G1 X112.716 Y88.805 E22.21794
G1 X112.709 Y88.684 E22.22097
G1 X112.616 Y88.563 E22.22478
G1 X112.616 Y87.493 E22.25148
G1 X112.642 Y87.378 E22.25441
G1 X112.716 Y87.242 E22.25829
G1 X112.709 Y87.121 E22.26132
G1 X112.616 Y86.999 E22.26513
G1 X112.616 Y85.929 E22.29182
G1 X112.654 Y85.787 E22.29551
G1 X112.861 Y85.427 E22.30586
G1 X113.047 Y85.377 E22.31066
G1 X113.175 Y85.451 E22.31434
G1 X113.309 Y85.433 E22.31772
G1 X113.505 Y85.302 E22.32361
G1 X113.564 Y85.286 E22.32513
