; generated by Slic3r 1.3.0-dev on 2018-06-09 at 15:38:00

; external perimeters extrusion width = 0.42mm (5.33mm^3/s)
; perimeters extrusion width = 0.42mm (5.33mm^3/s)
; infill extrusion width = 0.42mm (8.53mm^3/s)
; solid infill extrusion width = 0.42mm (2.13mm^3/s)
; top infill extrusion width = 0.42mm (1.60mm^3/s)
; support material extrusion width = 0.31mm (4.42mm^3/s)

M107
M190 S100 ; set bed temperature and wait for it to be reached
M104 S210 ; set temperature
G28 ; home all axes
G1 Z5 F5000 ; lift nozzle

; Filament gcode

M109 S210 ; set temperature and wait for it to be reached
G21 ; set units to millimeters
G90 ; use absolute coordinates
M82 ; use absolute distances for extrusion
G92 E0
G1 Z5.150 F7800.000
G1 E-1.00000 F2400.00000
G92 E0
G1 X80.766 Y80.597 F7800.000
G1 E1.00000 F2400.00000
G1 F2700
G1 X82.524 Y79.084 E1.05610
G1 X84.689 Y78.252 E1.11220
G1 X86.000 Y78.124 E1.14404
G1 X114.000 Y78.124 E1.82122
G1 X116.285 Y78.521 E1.87732
G1 X118.303 Y79.666 E1.93342
G1 X119.816 Y81.424 E1.98952
G1 X120.648 Y83.589 E2.04562
G1 X120.776 Y84.900 E2.07746
G1 X120.776 Y115.100 E2.80785
G1 X120.379 Y117.385 E2.86394
G1 X119.234 Y119.403 E2.92004
G1 X117.476 Y120.916 E2.97614
G1 X115.311 Y121.748 E3.03224
G1 X114.000 Y121.876 E3.06409
G1 X86.000 Y121.876 E3.74126
G1 X83.715 Y121.479 E3.79736
G1 X81.697 Y120.334 E3.85346
G1 X80.184 Y118.576 E3.90956
G1 X79.352 Y116.411 E3.96566
G1 X79.224 Y115.100 E3.99751
G1 X79.224 Y84.900 E4.72789
G1 X79.621 Y82.615 E4.78399
G1 X80.744 Y80.636 E4.83900
G1 X81.150 Y80.742 F7800.000
G1 F2700
G1 X82.894 Y79.318 E4.89346
G1 X86.000 Y78.512 E4.97106
G1 X114.000 Y78.512 E5.64823
G1 X116.216 Y78.909 E5.70269
G1 X118.158 Y80.050 E5.75715
G1 X119.582 Y81.794 E5.81161
G1 X120.388 Y84.900 E5.88920
G1 X120.388 Y115.100 E6.61959
G1 X119.991 Y117.316 E6.67405
G1 X118.850 Y119.258 E6.72850
G1 X117.106 Y120.682 E6.78296
G1 X114.000 Y121.488 E6.86056
G1 X86.000 Y121.488 E7.53774
G1 X83.784 Y121.091 E7.59219
G1 X81.842 Y119.950 E7.64665
G1 X80.418 Y118.206 E7.70111
G1 X79.612 Y115.100 E7.77871
G1 X79.612 Y84.900 E8.50909
G1 X80.009 Y82.684 E8.56355
G1 X81.128 Y80.781 E8.61692
G1 E7.61692 F2400.00000
G92 E0
G1 X84.358 Y83.951 F7800.000
G1 E1.00000 F2400.00000
G1 F2700
G1 X85.241 Y83.068 E1.03114
G1 X114.759 Y83.068 E1.76746
G1 X115.832 Y84.141 E1.80533
G1 X115.832 Y115.859 E2.59653
G1 X114.759 Y116.932 E2.63439
G1 X85.241 Y116.932 E3.37072
G1 X84.168 Y115.859 E3.40858
G1 X84.168 Y84.141 E4.19979
G1 X84.327 Y83.982 E4.20539
G1 X84.641 Y84.233 F7800.000
G1 F2700
G1 X85.407 Y83.468 E4.23239
G1 X114.593 Y83.468 E4.96045
G1 X115.432 Y84.307 E4.99005
G1 X115.432 Y115.693 E5.77299
G1 X114.593 Y116.532 E5.80259
G1 X85.407 Y116.532 E6.53064
G1 X84.568 Y115.693 E6.56024
G1 X84.568 Y84.307 E7.34318
G1 X84.609 Y84.265 E7.34465
G1 X84.968 Y84.472 F7800.000
G1 F2700
G1 X85.572 Y83.868 E7.36598
G1 X114.428 Y83.868 E8.08577
G1 X115.032 Y84.472 E8.10710
G1 X115.032 Y115.528 E8.88177
G1 X114.428 Y116.132 E8.90310
G1 X85.572 Y116.132 E9.62290
G1 X84.968 Y115.528 E9.64423
G1 X84.968 Y84.517 E10.41778
G1 X85.368 Y84.638 F7800.000
G1 F2700
G1 X85.738 Y84.268 E10.43084
G1 X114.262 Y84.268 E11.14237
G1 X114.632 Y84.638 E11.15543
G1 X114.632 Y115.362 E11.92184
G1 X114.262 Y115.732 E11.93490
G1 X85.738 Y115.732 E12.64643
G1 X85.368 Y115.362 E12.65950
G1 X85.368 Y84.683 E13.42478
G1 X85.768 Y84.804 F7800.000
G1 F2700
G1 X85.904 Y84.668 E13.42958
G1 X114.096 Y84.668 E14.13284
G1 X114.232 Y84.804 E14.13764
G1 X114.232 Y115.196 E14.89578
G1 X114.096 Y115.332 E14.90058
G1 X85.904 Y115.332 E15.60384
G1 X85.768 Y115.196 E15.60863
G1 X85.768 Y84.849 E16.36565
G1 E15.36565 F2400.00000
G92 E0
G1 X113.790 Y114.890 F7800.000
G1 E1.00000 F2400.00000
G1 F2250
G1 X86.210 Y114.890 E1.66702
G1 X86.210 Y85.110 E2.38724
G1 X113.790 Y85.110 E3.05426
G1 X113.790 Y114.845 E3.77340
G1 X113.501 Y114.809 F7800.000
G1 X113.402 Y114.502 F7800.000
G1 F2250
G1 X86.598 Y114.502 E4.42166
G1 X86.598 Y85.498 E5.12313
G1 X113.402 Y85.498 E5.77139
G1 X113.402 Y114.457 E6.47177
G1 E5.47177 F2400.00000
G92 E0
G1 X103.986 Y99.514 F7800.000
G1 E1.00000 F2400.00000
G1 F2250
G1 X86.986 Y99.514 E1.41114
G1 X86.986 Y85.886 E1.74075
G1 X113.014 Y85.886 E2.37026
G1 X113.014 Y114.114 E3.05296
G1 X103.986 Y114.114 E3.27132
G1 X103.986 Y99.559 E3.62334
G1 X103.210 Y100.290 F7800.000
G1 F2250
G1 X103.210 Y113.310 E3.93822
G1 X87.790 Y113.310 E4.31115
G1 X87.790 Y100.290 E4.62604
G1 X103.165 Y100.290 E4.99788
G1 X103.502 Y100.221 F7800.000
G1 X103.598 Y99.902 F7800.000
G1 F2250
G1 X103.598 Y113.698 E5.33153
G1 X87.402 Y113.698 E5.72322
G1 X87.402 Y99.902 E6.05686
G1 X103.553 Y99.902 E6.44746
G1 E5.44746 F2400.00000
G92 E0
G1 X103.792 Y114.100 F7800.000
G1 E1.00000 F2400.00000
G1 F900
G1 X87.208 Y114.100 E1.39753
G1 X87.122 Y114.082 E1.39964
G1 F900
G1 X87.036 Y114.064 E1.40214
G1 X87.000 Y113.892 E1.40715
G1 F900
G1 X87.000 Y99.708 E1.74715
G1 E0.74715 F2400.00000
G92 E0
G1 X87.415 Y86.232 F7800.000
G1 E1.00000 F2400.00000
G1 F900
G1 X87.332 Y86.315 E1.00282
G1 X87.332 Y86.864 E1.01611
G1 X87.964 Y86.232 E1.03773
G1 X88.513 Y86.232 E1.05102
G1 X87.332 Y87.413 E1.09144
G1 X87.332 Y87.962 E1.10473
G1 X89.062 Y86.232 E1.16395
G1 X89.611 Y86.232 E1.17724
G1 X87.332 Y88.511 E1.25525
G1 X87.332 Y89.060 E1.26855
G1 X90.160 Y86.232 E1.36536
G1 X90.709 Y86.232 E1.37865
G1 X87.332 Y89.609 E1.49425
G1 X87.332 Y90.158 E1.50755
G1 X91.258 Y86.232 E1.64195
G1 X91.807 Y86.232 E1.65524
G1 X87.332 Y90.707 E1.80845
G1 X87.332 Y91.256 E1.82174
G1 X92.356 Y86.232 E1.99374
G1 X92.905 Y86.232 E2.00703
G1 X87.332 Y91.805 E2.19783
G1 X87.332 Y92.354 E2.21112
G1 X93.454 Y86.232 E2.42072
G1 X94.003 Y86.232 E2.43401
G1 X87.332 Y92.903 E2.66241
G1 X87.332 Y93.452 E2.67570
G1 X94.552 Y86.232 E2.92289
G1 X95.101 Y86.232 E2.93618
G1 X87.332 Y94.001 E3.20217
G1 X87.332 Y94.550 E3.21546
G1 X95.650 Y86.232 E3.50025
G1 X96.199 Y86.232 E3.51354
G1 X87.332 Y95.099 E3.81713
G1 X87.332 Y95.648 E3.83042
G1 X96.748 Y86.232 E4.15280
G1 X97.297 Y86.232 E4.16609
G1 X87.332 Y96.197 E4.50727
G1 X87.332 Y96.746 E4.52056
G1 X97.846 Y86.232 E4.88054
G1 X98.395 Y86.232 E4.89383
G1 X87.332 Y97.295 E5.27261
G1 X87.332 Y97.844 E5.28590
G1 X98.944 Y86.232 E5.68347
G1 X99.493 Y86.232 E5.69677
G1 X87.332 Y98.393 E6.11314
G1 X87.332 Y98.942 E6.12643
G1 X100.042 Y86.232 E6.56160
G1 X100.591 Y86.232 E6.57489
G1 X87.656 Y99.168 E7.01778
G1 X88.205 Y99.168 E7.03107
G1 X101.140 Y86.232 E7.47396
G1 X101.689 Y86.232 E7.48725
G1 X88.754 Y99.168 E7.93015
G1 X89.303 Y99.168 E7.94344
G1 X102.238 Y86.232 E8.38633
G1 X102.787 Y86.232 E8.39962
G1 X89.852 Y99.168 E8.84251
G1 X90.401 Y99.168 E8.85580
G1 X103.336 Y86.232 E9.29869
G1 X103.885 Y86.232 E9.31199
G1 X90.950 Y99.168 E9.75488
G1 X91.499 Y99.168 E9.76817
G1 X104.434 Y86.232 E10.21106
G1 X104.983 Y86.232 E10.22435
G1 X92.048 Y99.168 E10.66724
G1 X92.597 Y99.168 E10.68053
G1 X105.532 Y86.232 E11.12342
G1 X106.081 Y86.232 E11.13672
G1 X93.146 Y99.168 E11.57961
G1 X93.695 Y99.168 E11.59290
G1 X106.630 Y86.232 E12.03579
G1 X107.179 Y86.232 E12.04908
G1 X94.244 Y99.168 E12.49197
G1 X94.793 Y99.168 E12.50526
G1 X107.728 Y86.232 E12.94816
G1 X108.278 Y86.232 E12.96145
G1 X95.342 Y99.168 E13.40434
G1 X95.891 Y99.168 E13.41763
G1 X108.827 Y86.232 E13.86052
G1 X109.376 Y86.232 E13.87381
G1 X96.440 Y99.168 E14.31670
G1 X96.989 Y99.168 E14.33000
G1 X109.925 Y86.232 E14.77289
G1 X110.474 Y86.232 E14.78618
G1 X97.538 Y99.168 E15.22907
G1 X98.087 Y99.168 E15.24236
G1 X111.023 Y86.232 E15.68525
G1 X111.572 Y86.232 E15.69854
G1 X98.636 Y99.168 E16.14143
G1 X99.185 Y99.168 E16.15473
G1 X112.121 Y86.232 E16.59762
G1 X112.668 Y86.232 E16.61086
G1 X99.734 Y99.168 E17.05372
G1 X100.283 Y99.168 E17.06701
G1 X112.668 Y86.783 E17.49104
G1 X112.668 Y87.332 E17.50433
G1 X100.832 Y99.168 E17.90956
G1 X101.381 Y99.168 E17.92285
G1 X112.668 Y87.881 E18.30928
G1 X112.668 Y88.430 E18.32257
G1 X101.930 Y99.168 E18.69020
G1 X102.479 Y99.168 E18.70350
G1 X112.668 Y88.979 E19.05233
G1 X112.668 Y89.528 E19.06562
G1 X103.028 Y99.168 E19.39566
G1 X103.577 Y99.168 E19.40895
G1 X112.668 Y90.077 E19.72019
G1 X112.668 Y90.626 E19.73348
G1 X104.126 Y99.168 E20.02593
G1 X104.332 Y99.168 E20.03091
G1 X104.332 Y99.511 E20.03922
G1 X112.668 Y91.175 E20.32461
G1 X112.668 Y91.724 E20.33790
G1 X104.332 Y100.060 E20.62330
G1 X104.332 Y100.609 E20.63659
G1 X112.668 Y92.273 E20.92198
G1 X112.668 Y92.822 E20.93527
G1 X104.332 Y101.158 E21.22067
G1 X104.332 Y101.707 E21.23396
G1 X112.668 Y93.372 E21.51935
G1 X112.668 Y93.921 E21.53265
G1 X104.332 Y102.256 E21.81804
G1 X104.332 Y102.805 E21.83133
G1 X112.668 Y94.470 E22.11673
G1 X112.668 Y95.019 E22.13002
G1 X104.332 Y103.354 E22.41541
G1 X104.332 Y103.903 E22.42870
G1 X112.668 Y95.568 E22.71410
G1 X112.668 Y96.117 E22.72739
G1 X104.332 Y104.452 E23.01278
G1 X104.332 Y105.001 E23.02607
G1 X112.668 Y96.666 E23.31147
G1 X112.668 Y97.215 E23.32476
G1 X104.332 Y105.550 E23.61015
G1 X104.332 Y106.099 E23.62344
G1 X112.668 Y97.764 E23.90884
G1 X112.668 Y98.313 E23.92213
G1 X104.332 Y106.648 E24.20752
G1 X104.332 Y107.197 E24.22082
G1 X112.668 Y98.862 E24.50621
G1 X112.668 Y99.411 E24.51950
G1 X104.332 Y107.746 E24.80489
G1 X104.332 Y108.295 E24.81819
G1 X112.668 Y99.960 E25.10358
G1 X112.668 Y100.509 E25.11687
G1 X104.332 Y108.844 E25.40227
G1 X104.332 Y109.393 E25.41556
G1 X112.668 Y101.058 E25.70095
G1 X112.668 Y101.607 E25.71424
G1 X104.332 Y109.942 E25.99964
G1 X104.332 Y110.491 E26.01293
G1 X112.668 Y102.156 E26.29832
G1 X112.668 Y102.705 E26.31161
G1 X104.332 Y111.040 E26.59701
G1 X104.332 Y111.589 E26.61030
G1 X112.668 Y103.254 E26.89569
G1 X112.668 Y103.803 E26.90899
G1 X104.332 Y112.138 E27.19438
G1 X104.332 Y112.687 E27.20767
G1 X112.668 Y104.352 E27.49306
G1 X112.668 Y104.901 E27.50636
G1 X104.332 Y113.236 E27.79175
G1 X104.332 Y113.768 E27.80461
G1 X104.350 Y113.768 E27.80504
G1 X112.668 Y105.450 E28.08983
G1 X112.668 Y105.999 E28.10312
G1 X104.899 Y113.768 E28.36911
G1 X105.448 Y113.768 E28.38240
G1 X112.668 Y106.548 E28.62959
G1 X112.668 Y107.097 E28.64288
G1 X105.997 Y113.768 E28.87128
G1 X106.546 Y113.768 E28.88457
G1 X112.668 Y107.646 E29.09417
G1 X112.668 Y108.195 E29.10746
G1 X107.095 Y113.768 E29.29826
G1 X107.644 Y113.768 E29.31155
G1 X112.668 Y108.744 E29.48355
G1 X112.668 Y109.293 E29.49684
G1 X108.193 Y113.768 E29.65004
G1 X108.742 Y113.768 E29.66334
G1 X112.668 Y109.842 E29.79774
G1 X112.668 Y110.391 E29.81103
G1 X109.291 Y113.768 E29.92664
G1 X109.840 Y113.768 E29.93993
G1 X112.668 Y110.940 E30.03674
G1 X112.668 Y111.489 E30.05004
G1 X110.389 Y113.768 E30.12805
G1 X110.938 Y113.768 E30.14134
G1 X112.668 Y112.038 E30.20055
G1 X112.668 Y112.587 E30.21385
G1 X111.487 Y113.768 E30.25426
G1 X112.036 Y113.768 E30.26755
G1 X112.668 Y113.136 E30.28917
G1 X112.668 Y113.685 E30.30247
G1 X112.585 Y113.768 E30.30529
G1 Z5.150 F7800.000
G1 Z5.450 F7800.000
G1 E29.30529 F2400.00000
G92 E0
G1 X84.813 Y94.980 F7800.000
G1 E1.00000 F2400.00000
G1 F3600
G1 X84.813 Y95.158 E1.00547
G1 X85.123 Y95.158 E1.01495
G1 X84.813 Y94.980 E1.02589
G1 X84.813 Y91.232 E1.14070
G1 X85.167 Y91.436 E1.15320
G1 X85.535 Y90.603 F7800.000
G1 F3600
G1 X85.535 Y89.723 E1.18015
G1 X84.445 Y89.723 E1.21355
G1 X84.445 Y95.527 E1.39136
G1 X85.535 Y95.527 E1.42475
G1 X85.535 Y90.603 E1.57560
G1 Z5.450 F7800.000
G1 E0.57560 F2400.00000
G92 E0
G1 X113.790 Y85.110 F7800.000
G1 E1.00000 F2400.00000
G1 F3000
G1 X113.790 Y114.890 E2.32089
G1 X86.210 Y114.890 E3.54419
G1 X86.210 Y85.110 E4.86508
G1 X113.745 Y85.110 E6.08639
G1 X113.716 Y85.401 F7800.000
G1 X113.434 Y85.466 F7800.000
G1 F3000
G1 X113.434 Y114.534 E7.37573
G1 X86.566 Y114.534 E8.56749
G1 X86.566 Y85.466 E9.85683
G1 X113.389 Y85.466 E11.04659
G1 E10.04659 F2400.00000
G92 E0
G1 X103.921 Y99.579 F7800.000
G1 E1.00000 F2400.00000
G1 F3000
G1 X86.921 Y99.579 E1.75403
G1 X86.921 Y85.821 E2.36424
G1 X113.079 Y85.821 E3.52446
G1 X113.079 Y114.179 E4.78225
G1 X103.921 Y114.179 E5.18843
G1 X103.921 Y99.624 E5.83401
G1 X103.210 Y100.290 F7800.000
G1 F3000
G1 X103.210 Y113.310 E6.41151
G1 X87.790 Y113.310 E7.09546
G1 X87.790 Y100.290 E7.67296
G1 X103.165 Y100.290 E8.35492
G1 X103.502 Y100.221 F7800.000
G1 X103.566 Y99.934 F7800.000
G1 F3000
G1 X103.566 Y113.666 E8.96397
G1 X87.434 Y113.666 E9.67946
G1 X87.434 Y99.934 E10.28851
G1 X103.521 Y99.934 E11.00201
G1 E10.00201 F2400.00000
G92 E0
G1 X112.761 Y107.993 F7800.000
G1 E1.00000 F2400.00000
G1 F1200
G1 X104.239 Y99.471 E1.53833
G1 X104.239 Y99.978 E1.56095
G1 X112.761 Y108.500 E2.09928
G1 X112.761 Y109.006 E2.12190
G1 X104.239 Y100.484 E2.66023
G1 X104.239 Y100.991 E2.68285
G1 X112.761 Y109.513 E3.22118
G1 X112.761 Y110.019 E3.24380
G1 X104.239 Y101.497 E3.78213
G1 X104.239 Y102.004 E3.80475
G1 X112.761 Y110.526 E4.34308
G1 X112.761 Y111.032 E4.36570
G1 X104.239 Y102.510 E4.90403
G1 X104.239 Y103.017 E4.92665
G1 X112.761 Y111.539 E5.46498
G1 X112.761 Y112.045 E5.48760
G1 X104.239 Y103.523 E6.02593
G1 X104.239 Y104.030 E6.04855
G1 X112.761 Y112.552 E6.58688
G1 X112.761 Y113.058 E6.60950
G1 X104.239 Y104.536 E7.14783
G1 X104.239 Y105.043 E7.17045
G1 X112.761 Y113.565 E7.70878
G1 X112.761 Y113.861 E7.72201
G1 X112.551 Y113.861 E7.73140
G1 X104.239 Y105.549 E8.25645
G1 X104.239 Y106.056 E8.27908
G1 X112.044 Y113.861 E8.77214
G1 X111.538 Y113.861 E8.79476
G1 X104.239 Y106.562 E9.25582
G1 X104.239 Y107.069 E9.27845
G1 X111.031 Y113.861 E9.70752
G1 X110.525 Y113.861 E9.73014
G1 X104.239 Y107.575 E10.12722
G1 X104.239 Y108.082 E10.14984
G1 X110.018 Y113.861 E10.51492
G1 X109.512 Y113.861 E10.53755
G1 X104.239 Y108.588 E10.87063
G1 X104.239 Y109.095 E10.89326
G1 X109.005 Y113.861 E11.19435
G1 X108.499 Y113.861 E11.21697
G1 X104.239 Y109.601 E11.48607
G1 X104.239 Y110.108 E11.50869
G1 X107.992 Y113.861 E11.74579
G1 X107.486 Y113.861 E11.76842
G1 X104.239 Y110.614 E11.97353
G1 X104.239 Y111.120 E11.99615
G1 X106.980 Y113.861 E12.16926
G1 X106.473 Y113.861 E12.19189
G1 X104.239 Y111.627 E12.33301
G1 X104.239 Y112.133 E12.35563
G1 X105.967 Y113.861 E12.46475
G1 X105.460 Y113.861 E12.48738
G1 X104.239 Y112.640 E12.56451
G1 X104.239 Y113.146 E12.58713
G1 X104.954 Y113.861 E12.63227
G1 X104.447 Y113.861 E12.65489
G1 X104.239 Y113.653 E12.66803
G1 E11.66803 F2400.00000
G92 E0
G1 X87.239 Y99.185 F7800.000
G1 E1.00000 F2400.00000
G1 F1200
G1 X87.315 Y99.261 E1.00478
G1 X87.821 Y99.261 E1.02740
G1 X87.239 Y98.679 E1.06417
G1 X87.239 Y98.172 E1.08680
G1 X88.328 Y99.261 E1.15556
G1 X88.834 Y99.261 E1.17819
G1 X87.239 Y97.666 E1.27895
G1 X87.239 Y97.159 E1.30157
G1 X89.341 Y99.261 E1.43433
G1 X89.847 Y99.261 E1.45695
G1 X87.239 Y96.653 E1.62170
G1 X87.239 Y96.146 E1.64433
G1 X90.354 Y99.261 E1.84107
G1 X90.860 Y99.261 E1.86369
G1 X87.239 Y95.640 E2.09243
G1 X87.239 Y95.133 E2.11506
G1 X91.367 Y99.261 E2.37579
G1 X91.873 Y99.261 E2.39842
G1 X87.239 Y94.627 E2.69115
G1 X87.239 Y94.120 E2.71377
G1 X92.380 Y99.261 E3.03849
G1 X92.886 Y99.261 E3.06112
G1 X87.239 Y93.614 E3.41783
G1 X87.239 Y93.108 E3.44046
G1 X93.392 Y99.261 E3.82917
G1 X93.899 Y99.261 E3.85179
G1 X87.239 Y92.601 E4.27250
G1 X87.239 Y92.095 E4.29512
G1 X94.405 Y99.261 E4.74783
G1 X94.912 Y99.261 E4.77045
G1 X87.239 Y91.588 E5.25515
G1 X87.239 Y91.082 E5.27777
G1 X95.418 Y99.261 E5.79446
G1 X95.925 Y99.261 E5.81708
G1 X87.239 Y90.575 E6.36577
G1 X87.239 Y90.069 E6.38839
G1 X96.431 Y99.261 E6.96907
G1 X96.938 Y99.261 E6.99170
G1 X87.239 Y89.562 E7.60437
G1 X87.239 Y89.056 E7.62699
G1 X97.444 Y99.261 E8.27166
G1 X97.951 Y99.261 E8.29429
G1 X87.239 Y88.549 E8.97095
G1 X87.239 Y88.043 E8.99357
G1 X98.457 Y99.261 E9.70223
G1 X98.964 Y99.261 E9.72486
G1 X87.239 Y87.536 E10.46551
G1 X87.239 Y87.030 E10.48813
G1 X99.470 Y99.261 E11.26078
G1 X99.977 Y99.261 E11.28340
G1 X87.239 Y86.523 E12.08805
G1 X87.239 Y86.139 E12.10521
G1 X87.361 Y86.139 E12.11067
G1 X100.483 Y99.261 E12.93958
G1 X100.990 Y99.261 E12.96221
G1 X87.868 Y86.139 E13.79112
G1 X88.374 Y86.139 E13.81374
G1 X101.496 Y99.261 E14.64265
G1 X102.003 Y99.261 E14.66527
G1 X88.881 Y86.139 E15.49419
G1 X89.387 Y86.139 E15.51681
G1 X102.509 Y99.261 E16.34572
G1 X103.016 Y99.261 E16.36834
