; generated by Slic3r 1.3.0-dev on 2018-06-03 at 17:35:35

; external perimeters extrusion width = 0.42mm (5.33mm^3/s)
; perimeters extrusion width = 0.42mm (5.33mm^3/s)
; infill extrusion width = 0.42mm (8.53mm^3/s)
; solid infill extrusion width = 0.42mm (2.13mm^3/s)
; top infill extrusion width = 0.42mm (1.60mm^3/s)
; support material extrusion width = 0.31mm (4.42mm^3/s)

M107
M190 S100 ; set bed temperature and wait for it to be reached
M104 S210 ; set temperature
G28 ; home all axes
G1 Z5 F5000 ; lift nozzle

; Filament gcode

M109 S210 ; set temperature and wait for it to be reached
G21 ; set units to millimeters
G90 ; use absolute coordinates
M82 ; use absolute distances for extrusion
G92 E0
G1 Z5.150 F7800.000
G1 E-1.00000 F2400.00000
G92 E0
G1 X80.201 Y73.660 F7800.000
G1 E1.00000 F2400.00000
G1 F2700
G1 X81.210 Y72.651 E1.03451
G1 X81.941 Y72.018 E1.05789
G1 X83.083 Y71.163 E1.09239
G1 X83.896 Y70.641 E1.11577
G1 X85.149 Y69.957 E1.15028
G1 X86.028 Y69.555 E1.17366
G1 X87.365 Y69.057 E1.20817
G1 X88.292 Y68.784 E1.23155
G1 X89.687 Y68.481 E1.26605
G1 X90.643 Y68.343 E1.28944
G1 X92.067 Y68.242 E1.32394
G1 X92.550 Y68.224 E1.33564
G1 X107.450 Y68.224 E1.69599
G1 X107.933 Y68.242 E1.70769
G1 X109.356 Y68.343 E1.74220
G1 X110.313 Y68.481 E1.76558
G1 X111.708 Y68.784 E1.80009
G1 X112.635 Y69.057 E1.82347
G1 X113.972 Y69.555 E1.85797
G1 X114.851 Y69.957 E1.88135
G1 X116.104 Y70.641 E1.91587
G1 X116.917 Y71.163 E1.93924
G1 X118.059 Y72.018 E1.97375
G1 X118.790 Y72.651 E1.99713
G1 X119.799 Y73.660 E2.03163
G1 X120.432 Y74.391 E2.05501
G1 X121.287 Y75.533 E2.08952
G1 X121.809 Y76.346 E2.11290
G1 X122.493 Y77.599 E2.14741
G1 X122.895 Y78.478 E2.17079
G1 X123.393 Y79.815 E2.20530
G1 X123.666 Y80.742 E2.22867
G1 X123.969 Y82.137 E2.26318
G1 X124.107 Y83.094 E2.28656
G1 X124.208 Y84.517 E2.32107
G1 X124.226 Y85.000 E2.33277
G1 X124.226 Y115.000 E3.05831
G1 X124.208 Y115.483 E3.07001
G1 X124.107 Y116.907 E3.10452
G1 X123.969 Y117.863 E3.12790
G1 X123.673 Y119.223 E3.16154
G1 X123.393 Y120.185 E3.18578
G1 X122.895 Y121.522 E3.22029
G1 X122.493 Y122.401 E3.24367
G1 X121.809 Y123.654 E3.27817
G1 X121.287 Y124.467 E3.30156
G1 X120.432 Y125.609 E3.33606
G1 X119.799 Y126.340 E3.35944
G1 X118.790 Y127.349 E3.39395
G1 X118.059 Y127.982 E3.41733
G1 X116.917 Y128.837 E3.45184
G1 X116.104 Y129.359 E3.47522
G1 X114.851 Y130.043 E3.50972
G1 X113.972 Y130.445 E3.53310
G1 X112.669 Y130.931 E3.56675
G1 X111.708 Y131.216 E3.59099
G1 X110.313 Y131.519 E3.62549
G1 X109.357 Y131.657 E3.64887
G1 X107.933 Y131.758 E3.68338
G1 X107.450 Y131.776 E3.69508
G1 X92.550 Y131.776 E4.05543
G1 X92.067 Y131.758 E4.06713
G1 X90.643 Y131.657 E4.10164
G1 X89.687 Y131.519 E4.12502
G1 X88.327 Y131.223 E4.15866
G1 X87.365 Y130.943 E4.18290
G1 X86.028 Y130.445 E4.21741
G1 X85.149 Y130.043 E4.24079
G1 X83.896 Y129.359 E4.27530
G1 X83.083 Y128.837 E4.29868
G1 X81.969 Y128.003 E4.33232
G1 X81.210 Y127.349 E4.35656
G1 X80.201 Y126.340 E4.39107
G1 X79.568 Y125.609 E4.41445
G1 X78.713 Y124.467 E4.44896
G1 X78.191 Y123.654 E4.47234
G1 X77.524 Y122.433 E4.50598
G1 X77.105 Y121.522 E4.53022
G1 X76.606 Y120.183 E4.56477
G1 X76.334 Y119.258 E4.58811
G1 X76.031 Y117.863 E4.62262
G1 X75.893 Y116.906 E4.64600
G1 X75.792 Y115.483 E4.68051
G1 X75.774 Y115.000 E4.69220
G1 X75.774 Y85.000 E5.41775
G1 X75.792 Y84.517 E5.42944
G1 X75.893 Y83.093 E5.46396
G1 X76.031 Y82.137 E5.48733
G1 X76.334 Y80.742 E5.52184
G1 X76.607 Y79.815 E5.54522
G1 X77.105 Y78.478 E5.57972
G1 X77.507 Y77.599 E5.60310
G1 X78.191 Y76.346 E5.63761
G1 X78.713 Y75.533 E5.66099
G1 X79.568 Y74.391 E5.69550
G1 X80.172 Y73.694 E5.71779
G1 X80.476 Y73.935 F7800.000
G1 F2700
G1 X81.485 Y72.926 E5.75230
G1 X82.173 Y72.329 E5.77434
G1 X83.316 Y71.474 E5.80885
G1 X84.082 Y70.981 E5.83089
G1 X85.334 Y70.297 E5.86539
G1 X86.164 Y69.919 E5.88744
G1 X87.467 Y69.432 E5.92108
G1 X88.375 Y69.163 E5.94398
G1 X89.769 Y68.860 E5.97849
G1 X90.671 Y68.730 E6.00053
G1 X92.550 Y68.612 E6.04606
G1 X107.450 Y68.612 E6.40642
G1 X107.906 Y68.628 E6.41744
G1 X109.329 Y68.730 E6.45195
G1 X110.231 Y68.860 E6.47399
G1 X111.625 Y69.163 E6.50850
G1 X112.500 Y69.420 E6.53054
G1 X113.836 Y69.919 E6.56505
G1 X114.665 Y70.297 E6.58709
G1 X115.918 Y70.981 E6.62160
G1 X116.684 Y71.474 E6.64364
G1 X117.827 Y72.329 E6.67815
G1 X118.515 Y72.926 E6.70019
G1 X119.524 Y73.935 E6.73469
G1 X120.121 Y74.623 E6.75674
G1 X120.976 Y75.766 E6.79124
G1 X121.469 Y76.532 E6.81328
G1 X122.153 Y77.785 E6.84779
G1 X122.531 Y78.614 E6.86983
G1 X123.030 Y79.950 E6.90434
G1 X123.287 Y80.825 E6.92638
G1 X123.590 Y82.219 E6.96089
G1 X123.720 Y83.121 E6.98293
G1 X123.822 Y84.544 E7.01744
G1 X123.838 Y85.000 E7.02847
G1 X123.838 Y115.000 E7.75401
G1 X123.720 Y116.879 E7.79954
G1 X123.590 Y117.781 E7.82158
G1 X123.294 Y119.141 E7.85524
G1 X123.030 Y120.050 E7.87813
G1 X122.531 Y121.386 E7.91264
G1 X122.153 Y122.216 E7.93468
G1 X121.469 Y123.468 E7.96919
G1 X120.976 Y124.234 E7.99123
G1 X120.121 Y125.377 E8.02573
G1 X119.524 Y126.065 E8.04778
G1 X118.515 Y127.074 E8.08228
G1 X117.827 Y127.671 E8.10433
G1 X116.684 Y128.526 E8.13883
G1 X115.918 Y129.019 E8.16087
G1 X114.665 Y129.703 E8.19538
G1 X113.836 Y130.081 E8.21742
G1 X112.533 Y130.568 E8.25107
G1 X111.625 Y130.837 E8.27397
G1 X110.231 Y131.140 E8.30848
G1 X109.329 Y131.270 E8.33052
G1 X107.450 Y131.388 E8.37605
G1 X92.550 Y131.388 E8.73640
G1 X90.671 Y131.270 E8.78193
G1 X89.769 Y131.140 E8.80397
G1 X88.410 Y130.844 E8.83762
G1 X87.500 Y130.580 E8.86052
G1 X86.164 Y130.081 E8.89503
G1 X85.335 Y129.703 E8.91707
G1 X84.082 Y129.019 E8.95158
G1 X83.316 Y128.526 E8.97362
G1 X82.202 Y127.693 E9.00726
G1 X81.485 Y127.074 E9.03016
G1 X80.475 Y126.065 E9.06468
G1 X79.879 Y125.377 E9.08671
G1 X79.024 Y124.234 E9.12122
G1 X78.531 Y123.468 E9.14326
G1 X77.864 Y122.247 E9.17691
G1 X77.469 Y121.386 E9.19981
G1 X76.969 Y120.048 E9.23436
G1 X76.713 Y119.175 E9.25636
G1 X76.410 Y117.781 E9.29087
G1 X76.280 Y116.879 E9.31291
G1 X76.162 Y115.000 E9.35844
G1 X76.162 Y85.000 E10.08398
G1 X76.280 Y83.121 E10.12952
G1 X76.410 Y82.219 E10.15155
G1 X76.713 Y80.825 E10.18606
G1 X76.970 Y79.950 E10.20810
G1 X77.469 Y78.614 E10.24261
G1 X77.847 Y77.785 E10.26465
G1 X78.531 Y76.532 E10.29916
G1 X79.024 Y75.766 E10.32120
G1 X79.879 Y74.623 E10.35571
G1 X80.446 Y73.969 E10.37666
G1 E9.37666 F2400.00000
G92 E0
G1 X83.697 Y77.156 F7800.000
G1 E1.00000 F2400.00000
G1 F2700
G1 X84.851 Y76.015 E1.04048
G1 X86.098 Y75.081 E1.07934
G1 X87.575 Y74.264 E1.12145
G1 X89.154 Y73.666 E1.16356
G1 X90.801 Y73.298 E1.20568
G1 X92.517 Y73.168 E1.24860
G1 X107.548 Y73.170 E1.62355
G1 X109.199 Y73.298 E1.66484
G1 X110.846 Y73.666 E1.70696
G1 X112.425 Y74.264 E1.74907
G1 X113.792 Y75.011 E1.78793
G1 X115.149 Y76.015 E1.83004
G1 X116.278 Y77.131 E1.86963
G1 X116.435 Y77.301 E1.87541
G1 X117.439 Y78.658 E1.91752
G1 X118.240 Y80.144 E1.95964
G1 X118.784 Y81.604 E1.99849
G1 X119.152 Y83.251 E2.04060
G1 X119.280 Y84.902 E2.08190
G1 X119.282 Y115.033 E2.83352
G1 X119.171 Y116.619 E2.87319
G1 X118.821 Y118.271 E2.91530
G1 X118.240 Y119.856 E2.95741
G1 X117.368 Y121.452 E3.00278
G1 X116.435 Y122.699 E3.04164
G1 X115.248 Y123.899 E3.08375
G1 X113.792 Y124.989 E3.12912
G1 X112.306 Y125.790 E3.17123
G1 X110.846 Y126.334 E3.21009
G1 X109.069 Y126.721 E3.25546
G1 X107.483 Y126.832 E3.29513
G1 X92.517 Y126.832 E3.66844
G1 X90.931 Y126.721 E3.70811
G1 X89.154 Y126.334 E3.75348
G1 X87.575 Y125.736 E3.79559
G1 X86.208 Y124.989 E3.83445
G1 X84.851 Y123.985 E3.87656
G1 X83.722 Y122.869 E3.91615
G1 X83.565 Y122.699 E3.92194
G1 X82.561 Y121.342 E3.96405
G1 X81.760 Y119.856 E4.00616
G1 X81.215 Y118.396 E4.04503
G1 X80.848 Y116.749 E4.08713
G1 X80.720 Y115.098 E4.12843
G1 X80.718 Y84.967 E4.88004
G1 X80.848 Y83.251 E4.92297
G1 X81.216 Y81.604 E4.96508
G1 X81.760 Y80.144 E5.00394
G1 X82.631 Y78.548 E5.04931
G1 X83.665 Y77.188 E5.09193
G1 X83.980 Y77.439 F7800.000
G1 F2700
G1 X85.102 Y76.327 E5.13134
G1 X86.326 Y75.410 E5.16948
G1 X87.754 Y74.622 E5.21017
G1 X89.280 Y74.045 E5.25086
G1 X90.872 Y73.691 E5.29155
G1 X92.524 Y73.568 E5.33288
G1 X107.527 Y73.570 E5.70711
G1 X109.128 Y73.691 E5.74716
G1 X110.720 Y74.045 E5.78785
G1 X112.153 Y74.580 E5.82599
G1 X113.588 Y75.355 E5.86668
G1 X114.898 Y76.327 E5.90737
G1 X116.056 Y77.475 E5.94806
G1 X117.095 Y78.862 E5.99129
G1 X117.870 Y80.297 E6.03198
G1 X118.405 Y81.730 E6.07012
G1 X118.759 Y83.322 E6.11081
G1 X118.880 Y84.923 E6.15086
G1 X118.882 Y115.026 E6.90177
G1 X118.773 Y116.576 E6.94055
G1 X118.433 Y118.172 E6.98124
G1 X117.870 Y119.703 E7.02192
G1 X117.040 Y121.224 E7.06516
G1 X116.123 Y122.448 E7.10330
G1 X114.975 Y123.606 E7.14399
G1 X113.588 Y124.645 E7.18723
G1 X112.153 Y125.420 E7.22791
G1 X110.720 Y125.955 E7.26606
G1 X109.026 Y126.323 E7.30929
G1 X107.476 Y126.432 E7.34807
G1 X92.524 Y126.432 E7.72103
G1 X90.974 Y126.323 E7.75981
G1 X89.280 Y125.955 E7.80304
G1 X87.754 Y125.378 E7.84373
G1 X86.412 Y124.645 E7.88188
G1 X85.102 Y123.673 E7.92256
G1 X84.005 Y122.587 E7.96109
G1 X83.877 Y122.448 E7.96580
G1 X82.905 Y121.138 E8.00649
G1 X82.172 Y119.796 E8.04463
G1 X81.595 Y118.270 E8.08533
G1 X81.241 Y116.678 E8.12601
G1 X81.120 Y115.077 E8.16606
G1 X81.118 Y84.974 E8.91697
G1 X81.241 Y83.322 E8.95829
G1 X81.595 Y81.730 E8.99898
G1 X82.130 Y80.297 E9.03712
G1 X82.960 Y78.776 E9.08036
G1 X83.948 Y77.471 E9.12120
G1 X84.263 Y77.722 F7800.000
G1 F2700
G1 X85.353 Y76.638 E9.15954
G1 X86.555 Y75.739 E9.19698
G1 X87.934 Y74.980 E9.23624
G1 X89.407 Y74.425 E9.27551
G1 X90.943 Y74.085 E9.31477
G1 X92.532 Y73.968 E9.35449
G1 X107.505 Y73.969 E9.72801
G1 X109.057 Y74.085 E9.76682
G1 X110.594 Y74.425 E9.80609
G1 X111.999 Y74.949 E9.84352
G1 X113.383 Y75.699 E9.88278
G1 X114.647 Y76.638 E9.92205
G1 X115.712 Y77.696 E9.95950
G1 X115.812 Y77.803 E9.96315
G1 X116.751 Y79.067 E10.00241
G1 X117.501 Y80.451 E10.04168
G1 X118.025 Y81.857 E10.07911
G1 X118.365 Y83.393 E10.11837
G1 X118.481 Y84.945 E10.15718
G1 X118.482 Y115.018 E10.90737
G1 X118.375 Y116.534 E10.94526
G1 X118.025 Y118.144 E10.98636
G1 X117.470 Y119.616 E11.02562
G1 X116.711 Y120.995 E11.06489
G1 X115.763 Y122.252 E11.10415
G1 X114.702 Y123.313 E11.14158
G1 X113.383 Y124.301 E11.18268
G1 X111.999 Y125.051 E11.22195
G1 X110.593 Y125.575 E11.25938
G1 X108.984 Y125.925 E11.30048
G1 X107.468 Y126.032 E11.33837
G1 X92.532 Y126.032 E11.71097
G1 X91.016 Y125.925 E11.74886
G1 X89.406 Y125.575 E11.78996
G1 X87.934 Y125.020 E11.82922
G1 X86.617 Y124.301 E11.86666
G1 X85.353 Y123.362 E11.90592
G1 X84.288 Y122.304 E11.94338
G1 X84.188 Y122.197 E11.94702
G1 X83.249 Y120.933 E11.98629
G1 X82.530 Y119.616 E12.02372
G1 X81.975 Y118.143 E12.06299
G1 X81.635 Y116.607 E12.10225
G1 X81.519 Y115.055 E12.14105
G1 X81.518 Y84.982 E12.89124
G1 X81.635 Y83.393 E12.93097
G1 X81.954 Y81.927 E12.96840
G1 X82.499 Y80.451 E13.00766
G1 X83.249 Y79.067 E13.04693
G1 X84.231 Y77.754 E13.08783
G1 X84.545 Y78.004 F7800.000
G1 F2700
G1 X85.604 Y76.950 E13.12510
G1 X86.783 Y76.068 E13.16182
G1 X88.113 Y75.338 E13.19966
G1 X89.533 Y74.805 E13.23750
G1 X91.015 Y74.479 E13.27535
G1 X92.539 Y74.368 E13.31347
G1 X107.484 Y74.369 E13.68628
G1 X108.985 Y74.479 E13.72384
G1 X110.467 Y74.805 E13.76168
G1 X111.846 Y75.319 E13.79839
G1 X113.179 Y76.043 E13.83624
G1 X114.396 Y76.950 E13.87408
G1 X115.429 Y77.979 E13.91047
G1 X116.407 Y79.271 E13.95087
G1 X117.131 Y80.604 E13.98871
G1 X117.645 Y81.983 E14.02543
G1 X117.971 Y83.465 E14.06327
G1 X118.081 Y84.966 E14.10083
G1 X118.082 Y115.011 E14.85031
G1 X117.977 Y116.491 E14.88731
G1 X117.645 Y118.017 E14.92627
G1 X117.112 Y119.437 E14.96411
G1 X116.407 Y120.729 E15.00083
G1 X115.470 Y121.980 E15.03980
G1 X114.396 Y123.050 E15.07764
G1 X113.179 Y123.957 E15.11548
G1 X111.846 Y124.681 E15.15332
G1 X110.467 Y125.195 E15.19004
G1 X108.986 Y125.521 E15.22788
G1 X107.484 Y125.631 E15.26544
G1 X92.539 Y125.632 E15.63825
G1 X91.059 Y125.527 E15.67525
G1 X89.533 Y125.195 E15.71421
G1 X88.113 Y124.662 E15.75205
G1 X86.821 Y123.957 E15.78877
G1 X85.604 Y123.050 E15.82661
G1 X84.571 Y122.021 E15.86300
G1 X83.593 Y120.729 E15.90340
G1 X82.888 Y119.437 E15.94012
G1 X82.355 Y118.017 E15.97797
G1 X82.029 Y116.535 E16.01580
G1 X81.919 Y115.034 E16.05336
G1 X81.918 Y84.989 E16.80284
G1 X82.029 Y83.465 E16.84097
G1 X82.342 Y82.026 E16.87768
G1 X82.869 Y80.604 E16.91552
G1 X83.593 Y79.271 E16.95337
G1 X84.515 Y78.037 E16.99177
G1 X84.828 Y78.287 F7800.000
G1 F2700
G1 X85.856 Y77.262 E17.02798
G1 X87.011 Y76.397 E17.06399
G1 X88.292 Y75.696 E17.10041
G1 X89.659 Y75.185 E17.13682
G1 X91.086 Y74.873 E17.17324
G1 X92.546 Y74.768 E17.20976
G1 X107.462 Y74.768 E17.58186
G1 X108.914 Y74.873 E17.61817
G1 X110.341 Y75.185 E17.65459
G1 X111.693 Y75.689 E17.69059
G1 X112.975 Y76.388 E17.72701
G1 X114.144 Y77.262 E17.76343
G1 X115.146 Y78.262 E17.79875
G1 X116.062 Y79.475 E17.83667
G1 X116.761 Y80.757 E17.87308
G1 X117.265 Y82.109 E17.90909
G1 X117.577 Y83.536 E17.94551
G1 X117.682 Y84.988 E17.98182
G1 X117.682 Y115.012 E18.73079
G1 X117.577 Y116.464 E18.76711
G1 X117.265 Y117.891 E18.80353
G1 X116.761 Y119.243 E18.83953
G1 X116.062 Y120.525 E18.87595
G1 X115.178 Y121.707 E18.91278
G1 X114.144 Y122.738 E18.94920
G1 X112.975 Y123.612 E18.98561
G1 X111.693 Y124.311 E19.02203
G1 X110.341 Y124.815 E19.05804
G1 X108.914 Y125.127 E19.09445
G1 X107.462 Y125.232 E19.13077
G1 X92.546 Y125.232 E19.50287
G1 X91.102 Y125.129 E19.53897
G1 X89.659 Y124.815 E19.57580
G1 X88.292 Y124.304 E19.61222
G1 X87.025 Y123.612 E19.64823
G1 X85.843 Y122.728 E19.68506
G1 X84.812 Y121.694 E19.72147
G1 X83.938 Y120.525 E19.75789
G1 X83.246 Y119.258 E19.79390
G1 X82.735 Y117.891 E19.83032
G1 X82.423 Y116.464 E19.86673
G1 X82.318 Y115.012 E19.90305
G1 X82.318 Y84.996 E20.65181
G1 X82.423 Y83.536 E20.68833
G1 X82.735 Y82.109 E20.72475
G1 X83.246 Y80.742 E20.76117
G1 X83.938 Y79.475 E20.79717
G1 X84.800 Y78.322 E20.83309
G1 E19.83309 F2400.00000
G92 E0
G1 X115.685 Y120.293 F7800.000
G1 E1.00000 F2400.00000
G1 F2250
G1 X114.848 Y121.411 E1.03378
G1 X113.861 Y122.398 E1.06756
G1 X112.771 Y123.214 E1.10049
G1 X111.516 Y123.905 E1.13512
G1 X110.208 Y124.393 E1.16889
G1 X108.843 Y124.690 E1.20267
G1 X107.442 Y124.790 E1.23663
G1 X92.557 Y124.790 E1.59663
G1 X91.157 Y124.690 E1.63059
G1 X89.826 Y124.400 E1.66351
G1 X88.483 Y123.905 E1.69815
G1 X87.257 Y123.235 E1.73192
G1 X86.139 Y122.398 E1.76570
G1 X85.152 Y121.411 E1.79948
G1 X84.336 Y120.321 E1.83241
G1 X83.645 Y119.066 E1.86704
G1 X83.157 Y117.758 E1.90081
G1 X82.860 Y116.393 E1.93459
G1 X82.760 Y114.992 E1.96855
G1 X82.760 Y85.007 E2.69374
G1 X82.860 Y83.607 E2.72770
G1 X83.157 Y82.242 E2.76148
G1 X83.645 Y80.933 E2.79526
G1 X84.315 Y79.707 E2.82904
G1 X85.152 Y78.589 E2.86282
G1 X86.139 Y77.602 E2.89660
G1 X87.257 Y76.765 E2.93038
G1 X88.483 Y76.095 E2.96416
G1 X89.792 Y75.607 E2.99794
G1 X91.157 Y75.310 E3.03172
G1 X92.557 Y75.210 E3.06568
G1 X107.442 Y75.210 E3.42567
G1 X108.808 Y75.308 E3.45878
G1 X110.208 Y75.607 E3.49342
G1 X111.517 Y76.095 E3.52719
G1 X112.743 Y76.765 E3.56097
G1 X113.861 Y77.602 E3.59475
G1 X114.848 Y78.589 E3.62853
G1 X115.685 Y79.707 E3.66231
G1 X116.355 Y80.933 E3.69609
G1 X116.831 Y82.209 E3.72901
G1 X117.140 Y83.607 E3.76365
G1 X117.240 Y85.007 E3.79760
G1 X117.240 Y114.992 E4.52279
G1 X117.140 Y116.393 E4.55675
G1 X116.850 Y117.724 E4.58967
G1 X116.355 Y119.067 E4.62431
G1 X115.707 Y120.253 E4.65699
G1 X115.685 Y120.293 F7800.000
G1 X115.358 Y120.082 F7800.000
G1 F2250
G1 X114.555 Y121.156 E4.68943
G1 X113.606 Y122.105 E4.72187
G1 X112.560 Y122.888 E4.75347
G1 X111.354 Y123.552 E4.78676
G1 X110.098 Y124.020 E4.81918
G1 X108.788 Y124.305 E4.85161
G1 X107.429 Y124.402 E4.88457
G1 X92.571 Y124.402 E5.24389
G1 X91.212 Y124.305 E5.27685
G1 X89.935 Y124.027 E5.30845
G1 X88.644 Y123.551 E5.34174
G1 X87.468 Y122.908 E5.37415
G1 X86.394 Y122.105 E5.40659
G1 X85.445 Y121.156 E5.43903
G1 X84.662 Y120.110 E5.47063
G1 X83.998 Y118.904 E5.50393
G1 X83.530 Y117.648 E5.53634
G1 X83.245 Y116.338 E5.56878
G1 X83.148 Y114.979 E5.60173
G1 X83.148 Y85.021 E6.32625
G1 X83.245 Y83.662 E6.35920
G1 X83.530 Y82.352 E6.39164
G1 X83.999 Y81.095 E6.42408
